;FLAVOR:Marlin
;TIME:11267
;Filament used: 6.26874m
;Layer height: 0.2
;MINX:31.833
;MINY:79
;MINZ:0.2
;MAXX:141
;MAXY:141
;MAXZ:60
;Generated with Cura_SteamEngine 4.6.1
M82 ;absolute extrusion mode
M140 S75 ; start heating the bed to what is set in Cura
M104 S205 T0 ; start heating T0 to what is set in Cura
G92 E0 ; Reset Extruder
M280 P0 S160 ; BLTouch alarm release
G4 P100 ; delay for BLTouch
G28 ; home
G29 ; auto bed leveling
;Wait until everything is hot
M190 S75
M109 S205 T0
G1 Z2.0 F3000 ; Move Z Axis up little to prevent scratching of Heat Bed
G1 X0.1 Y20 Z0.3 F5000.0 ; Move to start position
G1 X0.1 Y200.0 Z0.3 F1500.0 E15 ; Draw the first line
G1 X0.4 Y200.0 Z0.3 F5000.0 ; Move to side a little
G1 X0.4 Y20 Z0.3 F1500.0 E30 ; Draw the second line
G92 E0 ; Reset Extruder
G1 Z2.0 F3000 ; Move Z Axis up little to prevent scratching of Heat Bed
G1 X5 Y20 Z0.3 F5000.0 ; Move over to prevent blob squish
G92 E0
G92 E0
G1 F1500 E-6
;LAYER_COUNT:300
;LAYER:0
M107
G0 F6000 X130.137 Y79.811 Z0.2
;TYPE:SKIRT
G1 F1500 E0
G1 F900 X131.039 Y79.864 E0.03005
G1 X131.932 Y79.996 E0.06008
G1 X132.81 Y80.207 E0.09011
G1 X133.666 Y80.495 E0.12015
G1 X134.493 Y80.857 E0.15018
G1 X135.285 Y81.292 E0.18023
G1 X136.036 Y81.794 E0.21027
G1 X136.739 Y82.361 E0.24031
G1 X137.389 Y82.988 E0.27035
G1 X137.981 Y83.67 E0.30039
G1 X138.511 Y84.401 E0.33042
G1 X138.973 Y85.177 E0.36046
G1 X139.366 Y85.99 E0.39049
G1 X139.684 Y86.835 E0.42052
G1 X139.927 Y87.705 E0.45056
G1 X140.092 Y88.593 E0.4806
G1 X140.187 Y89.723 E0.51832
G1 X140.2 Y90.33 E0.53851
G1 X140.199 Y129.39 E1.83766
G1 X140.19 Y130.117 E1.86184
G1 X140.139 Y131.019 E1.89189
G1 X140.008 Y131.913 E1.92194
G1 X139.799 Y132.791 E1.95196
G1 X139.513 Y133.648 E1.98201
G1 X139.152 Y134.476 E2.01205
G1 X138.72 Y135.268 E2.04205
G1 X138.219 Y136.02 E2.07211
G1 X137.653 Y136.724 E2.10215
G1 X137.028 Y137.375 E2.13217
G1 X136.347 Y137.969 E2.16222
G1 X135.616 Y138.5 E2.19228
G1 X134.842 Y138.964 E2.22229
G1 X134.029 Y139.358 E2.25234
G1 X133.185 Y139.678 E2.28236
G1 X132.315 Y139.923 E2.31242
G1 X131.428 Y140.089 E2.34244
G1 X130.277 Y140.187 E2.38086
G1 X129.67 Y140.2 E2.40105
G1 X90.561 Y140.199 E3.70182
G1 X89.864 Y140.189 E3.72501
G1 X88.571 Y140.088 E3.76814
G1 X85.818 Y139.696 E3.86063
G1 X83.254 Y139.404 E3.94646
G1 X80.766 Y139.192 E4.02951
G1 X78.205 Y139.047 E4.11483
G1 X75.667 Y138.974 E4.19928
G1 X73.133 Y138.974 E4.28356
G1 X70.606 Y139.045 E4.36764
G1 X68.019 Y139.191 E4.45382
G1 X66.477 Y139.312 E4.50527
G1 X66.019 Y139.337 E4.52052
G1 X65.748 Y139.346 E4.52954
G1 X65.146 Y139.349 E4.54956
G1 X64.2 Y139.325 E4.58104
G1 X61.661 Y139.295 E4.66549
G1 X59.167 Y139.344 E4.74846
G1 X58.704 Y139.343 E4.76386
G1 X57.966 Y139.324 E4.78841
G1 X57.066 Y139.26 E4.81842
G1 X56.112 Y139.105 E4.85057
G1 X55.24 Y138.92 E4.88021
G1 X54.627 Y138.772 E4.90119
G1 X54.364 Y138.702 E4.91024
G1 X53.39 Y138.426 E4.94391
G1 X53.077 Y138.332 E4.95478
G1 X52.612 Y138.184 E4.97101
G1 X51.765 Y137.872 E5.00103
G1 X51.134 Y137.582 E5.02413
G1 X50.773 Y137.401 E5.03756
G1 X50.154 Y137.063 E5.06102
G1 X49.772 Y136.836 E5.0758
G1 X47.986 Y135.744 E5.14543
G1 X45.773 Y134.474 E5.23029
G1 X45.173 Y134.15 E5.25297
G1 X44.513 Y133.782 E5.2781
G1 X43.956 Y133.448 E5.2997
G1 X43.644 Y133.247 E5.31205
G1 X42.907 Y132.724 E5.34211
G1 X42.32 Y132.232 E5.36758
G1 X41.651 Y131.626 E5.3976
G1 X41.185 Y131.175 E5.41917
G1 X40.283 Y130.247 E5.46222
G1 X40.014 Y129.96 E5.4753
G1 X39.736 Y129.651 E5.48912
G1 X38.995 Y128.723 E5.52862
G1 X38.767 Y128.401 E5.54174
G1 X38.145 Y127.408 E5.58072
G1 X37.469 Y126.174 E5.62751
G1 X36.222 Y123.96 E5.71203
G1 X35.621 Y122.966 E5.75066
G1 X34.903 Y121.741 E5.79789
G1 X34.524 Y121.03 E5.82469
G1 X34.352 Y120.675 E5.83781
G1 X33.994 Y119.846 E5.86784
G1 X33.804 Y119.297 E5.88716
G1 X33.559 Y118.51 E5.91458
G1 X33.414 Y118.003 E5.93212
G1 X33.316 Y117.635 E5.94478
G1 X33.052 Y116.562 E5.98154
G1 X32.975 Y116.224 E5.99307
G1 X32.873 Y115.739 E6.00955
G1 X32.727 Y114.848 E6.03958
G1 X32.673 Y114.247 E6.05965
G1 X32.65 Y113.861 E6.07251
G1 X32.633 Y113.104 E6.0977
G1 X32.641 Y112.636 E6.11326
G1 X32.696 Y110.633 E6.17991
G1 X32.67 Y106.9 E6.30407
G1 X32.676 Y106.468 E6.31844
G1 X32.696 Y105.904 E6.33721
G1 X32.768 Y105.003 E6.36727
G1 X32.918 Y104.119 E6.3971
G1 X33.094 Y103.301 E6.42493
G1 X33.176 Y102.949 E6.43695
G1 X33.39 Y102.116 E6.46555
G1 X33.555 Y101.543 E6.48539
G1 X33.735 Y100.973 E6.50527
G1 X33.962 Y100.29 E6.5292
G1 X34.284 Y99.446 E6.55925
G1 X34.523 Y98.934 E6.57804
G1 X34.688 Y98.605 E6.59028
G1 X35.051 Y97.944 E6.61537
G1 X35.4 Y97.363 E6.63791
G1 X36.178 Y96.101 E6.68722
G1 X37.754 Y93.355 E6.79252
G1 X38.067 Y92.787 E6.81409
G1 X38.39 Y92.241 E6.83519
G1 X38.691 Y91.767 E6.85387
G1 X39.209 Y91.027 E6.88391
G1 X39.768 Y90.359 E6.91288
G1 X40.413 Y89.658 E6.94457
G1 X41.199 Y88.848 E6.98211
G1 X41.587 Y88.475 E7.00001
G1 X42.046 Y88.053 E7.02075
G1 X42.569 Y87.587 E7.04404
G1 X43.27 Y87.017 E7.07409
G1 X43.684 Y86.725 E7.09094
G1 X43.986 Y86.523 E7.10303
G1 X44.653 Y86.113 E7.12907
G1 X45.276 Y85.763 E7.15284
G1 X46.698 Y84.99 E7.20667
G1 X48.917 Y83.702 E7.292
G1 X49.556 Y83.31 E7.31694
G1 X50.024 Y83.033 E7.33503
G1 X50.544 Y82.745 E7.3548
G1 X50.864 Y82.58 E7.36677
G1 X51.685 Y82.202 E7.39683
G1 X52.381 Y81.947 E7.42149
G1 X53.442 Y81.606 E7.45855
G1 X54.094 Y81.415 E7.48115
G1 X54.723 Y81.247 E7.50281
G1 X55.474 Y81.071 E7.52846
G1 X56.3 Y80.894 E7.55656
G1 X57.19 Y80.744 E7.58658
G1 X57.737 Y80.692 E7.60485
G1 X57.984 Y80.675 E7.61309
G1 X58.835 Y80.652 E7.6414
G1 X60.34 Y80.674 E7.69146
G1 X62.991 Y80.688 E7.77964
G1 X64.454 Y80.655 E7.82831
G1 X64.969 Y80.649 E7.84544
G1 X65.552 Y80.659 E7.86483
G1 X66.355 Y80.7 E7.89157
G1 X67.292 Y80.772 E7.92283
G1 X69.908 Y80.937 E8.01001
G1 X72.439 Y81.025 E8.09425
G1 X74.973 Y81.041 E8.17853
G1 X77.54 Y80.985 E8.26393
G1 X80.034 Y80.859 E8.34698
G1 X82.595 Y80.658 E8.43242
G1 X85.119 Y80.387 E8.51686
G1 X87.626 Y80.046 E8.60101
G1 X88.563 Y79.912 E8.63249
G1 X89.691 Y79.815 E8.67014
G1 X90.33 Y79.8 E8.6914
G1 X129.439 Y79.801 E9.99217
G1 X130.137 Y79.811 E10.01539
G0 F6000 X130.143 Y79.411
G1 F900 X131.062 Y79.464 E10.04601
G1 X131.973 Y79.597 E10.07663
G1 X132.869 Y79.808 E10.10725
G1 X133.743 Y80.096 E10.13785
G1 X134.59 Y80.459 E10.1685
G1 X135.401 Y80.894 E10.19911
G1 X136.171 Y81.398 E10.22972
G1 X136.895 Y81.967 E10.26035
G1 X137.567 Y82.597 E10.29098
G1 X138.182 Y83.282 E10.3216
G1 X138.735 Y84.018 E10.35222
G1 X139.222 Y84.799 E10.38283
G1 X139.639 Y85.62 E10.41346
G1 X139.984 Y86.474 E10.4441
G1 X140.253 Y87.354 E10.4747
G1 X140.445 Y88.255 E10.50534
G1 X140.558 Y89.168 E10.53594
G1 X140.587 Y89.712 E10.55406
G1 X140.6 Y90.33 E10.57462
G1 X140.599 Y129.395 E11.87393
G1 X140.59 Y130.122 E11.89811
G1 X140.539 Y131.041 E11.92872
G1 X140.408 Y131.953 E11.95937
G1 X140.198 Y132.849 E11.98997
G1 X139.912 Y133.724 E12.02059
G1 X139.551 Y134.571 E12.05122
G1 X139.117 Y135.383 E12.08184
G1 X138.615 Y136.155 E12.11247
G1 X138.047 Y136.88 E12.1431
G1 X137.419 Y137.553 E12.17372
G1 X136.735 Y138.169 E12.20433
G1 X136 Y138.723 E12.23494
G1 X135.22 Y139.212 E12.26556
G1 X134.4 Y139.631 E12.29619
G1 X133.547 Y139.977 E12.32681
G1 X132.667 Y140.248 E12.35743
G1 X131.767 Y140.441 E12.38805
G1 X130.853 Y140.556 E12.41869
G1 X130.288 Y140.587 E12.43751
G1 X129.67 Y140.6 E12.45807
G1 X90.555 Y140.599 E13.75904
G1 X89.858 Y140.589 E13.78222
G1 X88.514 Y140.484 E13.82706
G1 X85.748 Y140.09 E13.91998
G1 X83.246 Y139.805 E14.00374
G1 X80.708 Y139.589 E14.08846
G1 X78.208 Y139.447 E14.17174
G1 X75.655 Y139.374 E14.25669
G1 X73.144 Y139.374 E14.34021
G1 X70.606 Y139.445 E14.42465
G1 X68.071 Y139.589 E14.5091
G1 X66.508 Y139.711 E14.56125
G1 X66.032 Y139.737 E14.5771
G1 X65.761 Y139.746 E14.58612
G1 X65.136 Y139.748 E14.60691
G1 X64.256 Y139.725 E14.63619
G1 X61.664 Y139.695 E14.72241
G1 X59.175 Y139.744 E14.80521
G1 X58.694 Y139.742 E14.8212
G1 X57.956 Y139.723 E14.84576
G1 X57.038 Y139.66 E14.87636
G1 X56.029 Y139.496 E14.91036
G1 X55.157 Y139.311 E14.94001
G1 X54.529 Y139.16 E14.96149
G1 X54.255 Y139.086 E14.97093
G1 X52.956 Y138.713 E15.01588
G1 X52.491 Y138.565 E15.03211
G1 X51.627 Y138.248 E15.06272
G1 X50.955 Y137.94 E15.08731
G1 X50.594 Y137.759 E15.10074
G1 X49.95 Y137.407 E15.12515
G1 X49.563 Y137.177 E15.14013
G1 X47.784 Y136.089 E15.20948
G1 X45.563 Y134.815 E15.29465
G1 X44.978 Y134.499 E15.31676
G1 X44.318 Y134.131 E15.34189
G1 X43.739 Y133.784 E15.36434
G1 X43.427 Y133.583 E15.37669
G1 X42.676 Y133.051 E15.4073
G1 X42.052 Y132.528 E15.43438
G1 X41.383 Y131.922 E15.4644
G1 X40.898 Y131.454 E15.48682
G1 X39.996 Y130.526 E15.52986
G1 X39.717 Y130.228 E15.54344
G1 X39.439 Y129.919 E15.55726
G1 X38.668 Y128.954 E15.59835
G1 X38.44 Y128.632 E15.61147
G1 X37.795 Y127.6 E15.65195
G1 X37.178 Y126.473 E15.69468
G1 X35.875 Y124.158 E15.78304
G1 X35.276 Y123.168 E15.82152
G1 X34.558 Y121.943 E15.86875
G1 X34.164 Y121.205 E15.89657
G1 X33.992 Y120.85 E15.90969
G1 X33.627 Y120.005 E15.94031
G1 X33.422 Y119.417 E15.96102
G1 X33.175 Y118.62 E15.98877
G1 X33.03 Y118.113 E16.00631
G1 X32.928 Y117.73 E16.01949
G1 X32.664 Y116.657 E16.05625
G1 X32.584 Y116.307 E16.06819
G1 X32.482 Y115.822 E16.08467
G1 X32.332 Y114.913 E16.11531
G1 X32.274 Y114.27 E16.13679
G1 X32.251 Y113.884 E16.14965
G1 X32.233 Y113.098 E16.1758
G1 X32.241 Y112.625 E16.19153
G1 X32.296 Y110.625 E16.25808
G1 X32.27 Y106.902 E16.38191
G1 X32.277 Y106.453 E16.39684
G1 X32.297 Y105.889 E16.41561
G1 X32.369 Y104.972 E16.44621
G1 X32.527 Y104.035 E16.47781
G1 X32.703 Y103.217 E16.50564
G1 X32.789 Y102.852 E16.51811
G1 X33.005 Y102.009 E16.54706
G1 X33.173 Y101.424 E16.5673
G1 X33.355 Y100.847 E16.58742
G1 X33.582 Y100.164 E16.61136
G1 X33.91 Y99.304 E16.64198
G1 X34.166 Y98.755 E16.66212
G1 X34.331 Y98.426 E16.67436
G1 X34.708 Y97.739 E16.70043
G1 X35.059 Y97.153 E16.72315
G1 X35.842 Y95.884 E16.77274
G1 X37.415 Y93.143 E16.87785
G1 X37.717 Y92.594 E16.89869
G1 X38.053 Y92.027 E16.92062
G1 X38.354 Y91.553 E16.93929
G1 X38.881 Y90.798 E16.96992
G1 X39.473 Y90.089 E17.00064
G1 X40.125 Y89.38 E17.03267
G1 X40.69 Y88.793 E17.05977
G1 X41.093 Y88.393 E17.07866
G1 X41.316 Y88.181 E17.08889
G1 X41.78 Y87.755 E17.10984
G1 X42.303 Y87.289 E17.13314
G1 X43.017 Y86.707 E17.16378
G1 X43.462 Y86.392 E17.18191
G1 X43.764 Y86.19 E17.19399
G1 X44.457 Y85.764 E17.22105
G1 X45.085 Y85.412 E17.245
G1 X46.485 Y84.651 E17.29799
G1 X48.7 Y83.365 E17.38318
G1 X49.352 Y82.966 E17.40861
G1 X49.82 Y82.689 E17.42669
G1 X50.361 Y82.39 E17.44725
G1 X50.681 Y82.225 E17.45923
G1 X51.517 Y81.839 E17.48985
G1 X52.258 Y81.567 E17.51611
G1 X53.33 Y81.223 E17.55355
G1 X54.295 Y80.945 E17.58695
G1 X54.915 Y80.788 E17.60823
G1 X55.39 Y80.68 E17.62443
G1 X56.216 Y80.503 E17.65253
G1 X57.124 Y80.35 E17.68315
G1 X57.709 Y80.293 E17.7027
G1 X57.956 Y80.276 E17.71094
G1 X58.841 Y80.252 E17.74038
G1 X60.348 Y80.274 E17.79051
G1 X62.983 Y80.288 E17.87815
G1 X64.45 Y80.255 E17.92696
G1 X64.965 Y80.249 E17.94409
G1 X65.57 Y80.259 E17.96421
G1 X66.386 Y80.301 E17.99139
G1 X67.35 Y80.375 E18.02354
G1 X69.911 Y80.537 E18.10889
G1 X72.455 Y80.625 E18.19356
G1 X75.002 Y80.641 E18.27827
G1 X77.476 Y80.587 E18.36058
G1 X80.054 Y80.457 E18.44643
G1 X82.554 Y80.261 E18.52984
G1 X85.059 Y79.992 E18.61363
G1 X87.546 Y79.653 E18.69712
G1 X88.507 Y79.516 E18.7294
G1 X89.679 Y79.415 E18.76853
G1 X90.33 Y79.4 E18.79019
G1 X129.445 Y79.401 E20.09116
G1 X130.143 Y79.411 E20.11437
G1 F1500 E14.11437
G0 F6000 X90.33 Y79
G1 F1500 E20.11437
G1 F900 X129.451 Y79.001 E21.41554
G1 X130.149 Y79.011 E21.43876
G1 X131.085 Y79.065 E21.46995
G1 X132.013 Y79.197 E21.50112
G1 X132.927 Y79.409 E21.53233
G1 X133.819 Y79.698 E21.56351
G1 X134.684 Y80.061 E21.59472
G1 X135.514 Y80.497 E21.6259
G1 X136.305 Y81.002 E21.65711
G1 X137.049 Y81.573 E21.6883
G1 X137.742 Y82.205 E21.7195
G1 X138.379 Y82.893 E21.75068
G1 X138.954 Y83.634 E21.78188
G1 X139.465 Y84.42 E21.81306
G1 X139.907 Y85.248 E21.84428
G1 X140.276 Y86.11 E21.87547
G1 X140.571 Y87 E21.90665
G1 X140.789 Y87.912 E21.93784
G1 X140.929 Y88.84 E21.96905
G1 X140.987 Y89.701 E21.99776
G1 X141 Y90.33 E22.01868
G1 X140.999 Y129.4 E23.31815
G1 X140.99 Y130.127 E23.34234
G1 X140.939 Y131.064 E23.37355
G1 X140.807 Y131.992 E23.40472
G1 X140.598 Y132.906 E23.43591
G1 X140.311 Y133.799 E23.46711
G1 X139.949 Y134.665 E23.49832
G1 X139.515 Y135.496 E23.52951
G1 X139.011 Y136.287 E23.5607
G1 X138.442 Y137.032 E23.59188
G1 X137.811 Y137.727 E23.6231
G1 X137.124 Y138.365 E23.65428
G1 X136.385 Y138.942 E23.68547
G1 X135.599 Y139.454 E23.71667
G1 X134.773 Y139.897 E23.74784
G1 X133.911 Y140.269 E23.77907
G1 X133.022 Y140.565 E23.81023
G1 X132.11 Y140.785 E23.84144
G1 X131.183 Y140.926 E23.87262
G1 X130.299 Y140.987 E23.9021
G1 X129.67 Y141 E23.92302
G1 X90.549 Y140.999 E25.22419
G1 X89.852 Y140.989 E25.24737
G1 X88.458 Y140.88 E25.29388
G1 X85.683 Y140.485 E25.38711
G1 X83.203 Y140.202 E25.47013
G1 X80.688 Y139.988 E25.55408
G1 X78.173 Y139.846 E25.63786
G1 X75.678 Y139.774 E25.72088
G1 X73.155 Y139.774 E25.8048
G1 X70.604 Y139.845 E25.88968
G1 X68.079 Y139.988 E25.97379
G1 X66.539 Y140.109 E26.02517
G1 X66.045 Y140.137 E26.04163
G1 X65.774 Y140.146 E26.05065
G1 X65.125 Y140.148 E26.07223
G1 X64.239 Y140.125 E26.10171
G1 X61.668 Y140.095 E26.18723
G1 X59.183 Y140.144 E26.2699
G1 X58.684 Y140.142 E26.28649
G1 X57.946 Y140.123 E26.31105
G1 X57.01 Y140.059 E26.34225
G1 X55.946 Y139.887 E26.3781
G1 X55.074 Y139.702 E26.40775
G1 X54.43 Y139.548 E26.42977
G1 X54.146 Y139.471 E26.43956
G1 X53.172 Y139.195 E26.47323
G1 X52.835 Y139.094 E26.48493
G1 X52.37 Y138.946 E26.50116
G1 X51.489 Y138.624 E26.53236
G1 X50.776 Y138.297 E26.55845
G1 X50.415 Y138.116 E26.57188
G1 X49.746 Y137.752 E26.59721
G1 X49.354 Y137.519 E26.61238
G1 X47.556 Y136.419 E26.68248
G1 X45.368 Y135.165 E26.76636
G1 X44.783 Y134.848 E26.78849
G1 X44.123 Y134.48 E26.81363
G1 X43.523 Y134.12 E26.8369
G1 X43.211 Y133.919 E26.84924
G1 X42.445 Y133.378 E26.88043
G1 X41.783 Y132.825 E26.90912
G1 X41.114 Y132.219 E26.93915
G1 X40.611 Y131.733 E26.96241
G1 X39.709 Y130.805 E27.00545
G1 X39.419 Y130.495 E27.01957
G1 X39.141 Y130.186 E27.0334
G1 X38.342 Y129.186 E27.07597
G1 X38.114 Y128.864 E27.08909
G1 X37.444 Y127.792 E27.13114
G1 X36.829 Y126.669 E27.17372
G1 X35.53 Y124.361 E27.26181
G1 X34.931 Y123.37 E27.30032
G1 X34.213 Y122.145 E27.34755
G1 X33.804 Y121.379 E27.37643
G1 X33.632 Y121.024 E27.38955
G1 X33.259 Y120.164 E27.42073
G1 X33.041 Y119.538 E27.44278
G1 X32.79 Y118.73 E27.47092
G1 X32.645 Y118.223 E27.48846
G1 X32.54 Y117.826 E27.50212
G1 X32.276 Y116.753 E27.53887
G1 X32.192 Y116.389 E27.55129
G1 X32.09 Y115.904 E27.56778
G1 X31.937 Y114.979 E27.59896
G1 X31.874 Y114.294 E27.62184
G1 X31.851 Y113.908 E27.6347
G1 X31.833 Y113.092 E27.66185
G1 X31.841 Y112.614 E27.67775
G1 X31.896 Y110.617 E27.74419
G1 X31.87 Y106.905 E27.86766
G1 X31.877 Y106.439 E27.88316
G1 X31.897 Y105.875 E27.90193
G1 X31.97 Y104.94 E27.93312
G1 X32.136 Y103.951 E27.96648
G1 X32.312 Y103.133 E27.99431
G1 X32.401 Y102.754 E28.00726
G1 X32.62 Y101.901 E28.03655
G1 X32.791 Y101.305 E28.05717
G1 X32.975 Y100.721 E28.07753
G1 X33.202 Y100.038 E28.10147
G1 X33.536 Y99.161 E28.13269
G1 X33.808 Y98.576 E28.15414
G1 X33.973 Y98.247 E28.16639
G1 X34.365 Y97.534 E28.19345
G1 X34.719 Y96.943 E28.21636
G1 X35.492 Y95.69 E28.26533
G1 X37.075 Y92.931 E28.37112
G1 X37.367 Y92.401 E28.39125
G1 X37.715 Y91.812 E28.414
G1 X38.016 Y91.338 E28.43268
G1 X38.552 Y90.569 E28.46386
G1 X39.177 Y89.82 E28.4963
G1 X39.837 Y89.103 E28.52872
G1 X40.64 Y88.275 E28.56708
