;FLAVOR:Marlin
;TIME:10373
;Filament used: 5.66598m
;Layer height: 0.2
;MINX:79.499
;MINY:84.935
;MINZ:0.2
;MAXX:144.325
;MAXY:135.065
;MAXZ:91.4
;POSTPROCESSED
;ChangeAtZ instances: 1
;Generated with Cura_SteamEngine 4.6.1
M82 ;absolute extrusion mode
M140 S65 ; start heating the bed to what is set in Cura
M104 S210 T0 ; start heating T0 to what is set in Cura
G92 E0 ; Reset Extruder
M280 P0 S160 ; BLTouch alarm release
G4 P100 ; delay for BLTouch
G28 ; home
G29 ; auto bed leveling
;Wait until everything is hot
M190 S65
M109 S210 T0
G1 Z2.0 F3000 ; Move Z Axis up little to prevent scratching of Heat Bed
G1 X0.1 Y20 Z0.3 F5000.0 ; Move to start position
G1 X0.1 Y200.0 Z0.3 F1500.0 E15 ; Draw the first line
G1 X0.4 Y200.0 Z0.3 F5000.0 ; Move to side a little
G1 X0.4 Y20 Z0.3 F1500.0 E30 ; Draw the second line
G92 E0 ; Reset Extruder
G1 Z2.0 F3000 ; Move Z Axis up little to prevent scratching of Heat Bed
G1 X5 Y20 Z0.3 F5000.0 ; Move over to prevent blob squish
G92 E0
G92 E0
G1 F1500 E-6
;LAYER_COUNT:457
;LAYER:0
M107
G0 F6000 X133.588 Y85.786 Z0.2
;TYPE:SKIRT
G1 F1500 E0
G1 F900 X134.484 Y85.893 E0.03001
G1 X135.386 Y86.084 E0.06068
G1 X135.594 Y86.138 E0.06783
G1 X136.457 Y86.404 E0.09786
G1 X137.294 Y86.744 E0.12791
G1 X138.097 Y87.158 E0.15796
G1 X139.179 Y87.872 E0.20108
G1 X139.412 Y88.048 E0.21079
G1 X140.108 Y88.624 E0.24084
G1 X140.75 Y89.259 E0.27087
G1 X141.333 Y89.948 E0.30089
G1 X141.854 Y90.686 E0.33093
G1 X142.307 Y91.468 E0.36099
G1 X142.689 Y92.286 E0.39102
G1 X143.09 Y93.449 E0.43194
G1 X143.146 Y93.65 E0.43888
G1 X143.349 Y94.53 E0.46891
G1 X143.474 Y95.425 E0.49897
G1 X143.52 Y96.327 E0.52901
G1 X143.442 Y97.65 E0.57309
G1 X143.145 Y100.035 E0.65303
G1 X142.901 Y102.562 E0.73747
G1 X142.731 Y105.069 E0.82104
G1 X142.63 Y107.626 E0.90615
G1 X142.602 Y110.162 E0.99051
G1 X142.645 Y112.664 E1.07374
G1 X142.762 Y115.255 E1.16
G1 X142.948 Y117.764 E1.24368
G1 X143.208 Y120.305 E1.32864
G1 X143.408 Y121.854 E1.38058
G1 X143.462 Y122.321 E1.39622
G1 X143.526 Y123.222 E1.42626
G1 X143.509 Y124.148 E1.45707
G1 X143.494 Y124.381 E1.46483
G1 X143.396 Y125.279 E1.49488
G1 X143.219 Y126.165 E1.52493
G1 X142.965 Y127.031 E1.55494
G1 X142.634 Y127.872 E1.585
G1 X142.231 Y128.68 E1.61504
G1 X141.758 Y129.449 E1.64506
G1 X141.419 Y129.92 E1.66436
G1 X141.286 Y130.094 E1.67165
G1 X140.706 Y130.787 E1.70171
G1 X140.067 Y131.425 E1.73174
G1 X139.375 Y132.005 E1.76177
G1 X138.634 Y132.521 E1.7918
G1 X137.85 Y132.969 E1.82184
G1 X136.97 Y133.37 E1.854
G1 X136.665 Y133.492 E1.86493
G1 X135.813 Y133.79 E1.89495
G1 X134.937 Y134.012 E1.925
G1 X134.131 Y134.145 E1.95217
G1 X133.905 Y134.173 E1.95975
G1 X133.005 Y134.244 E1.98978
G1 X132.528 Y134.249 E2.00564
G1 X132.196 Y134.245 E2.01668
G1 X131.157 Y134.18 E2.05131
G1 X130.843 Y134.144 E2.06182
G1 X130.012 Y134.013 E2.0898
G1 X129.866 Y133.984 E2.09475
G1 X127.205 Y133.485 E2.1848
G1 X124.73 Y133.095 E2.26814
G1 X122.208 Y132.769 E2.35272
G1 X119.68 Y132.515 E2.43722
G1 X117.121 Y132.331 E2.52255
G1 X114.616 Y132.221 E2.60595
G1 X112.054 Y132.182 E2.69117
G1 X109.514 Y132.215 E2.77566
G1 X106.995 Y132.319 E2.85951
G1 X104.448 Y132.496 E2.94443
G1 X101.942 Y132.742 E3.02818
G1 X99.415 Y133.063 E3.11291
G1 X96.903 Y133.454 E3.19746
G1 X93.709 Y134.055 E3.30556
G1 X92.472 Y134.21 E3.34702
G1 X91.893 Y134.247 E3.36632
G1 X90.991 Y134.265 E3.39633
G1 X90.09 Y134.203 E3.42636
G1 X89.595 Y134.134 E3.44299
G1 X89.204 Y134.07 E3.45617
G1 X88.32 Y133.885 E3.4862
G1 X87.456 Y133.622 E3.51624
G1 X86.38 Y133.171 E3.55505
G1 X86.175 Y133.071 E3.56263
G1 X85.382 Y132.64 E3.59265
G1 X84.63 Y132.14 E3.62269
G1 X83.925 Y131.575 E3.65274
G1 X83.273 Y130.951 E3.68275
G1 X82.418 Y129.931 E3.72702
G1 X82.303 Y129.774 E3.73349
G1 X81.802 Y129.023 E3.76352
G1 X81.37 Y128.23 E3.79356
G1 X81.009 Y127.402 E3.8236
G1 X80.723 Y126.545 E3.85365
G1 X80.514 Y125.667 E3.88367
G1 X80.406 Y124.976 E3.90693
G1 X80.381 Y124.77 E3.91383
G1 X80.312 Y123.869 E3.94389
G1 X80.323 Y122.966 E3.97392
G1 X80.379 Y122.329 E3.99519
G1 X80.531 Y121.065 E4.03753
G1 X80.59 Y120.618 E4.05253
G1 X80.855 Y118.086 E4.1372
G1 X81.044 Y115.582 E4.22073
G1 X81.166 Y113.005 E4.30653
G1 X81.214 Y110.507 E4.38963
G1 X81.19 Y107.937 E4.47511
G1 X81.096 Y105.416 E4.55902
G1 X80.926 Y102.861 E4.64419
G1 X80.691 Y100.361 E4.72771
G1 X80.412 Y98.115 E4.80298
G1 X80.359 Y97.645 E4.81871
G1 X80.298 Y96.744 E4.84875
G1 X80.312 Y95.919 E4.87619
G1 X80.323 Y95.727 E4.88259
G1 X80.414 Y94.828 E4.91264
G1 X80.585 Y93.941 E4.94269
G1 X80.833 Y93.073 E4.97271
G1 X81.157 Y92.23 E5.00275
G1 X81.555 Y91.419 E5.0328
G1 X82.112 Y90.514 E5.06814
G1 X82.228 Y90.346 E5.07493
G1 X82.774 Y89.627 E5.10496
G1 X83.381 Y88.958 E5.13501
G1 X84.045 Y88.346 E5.16504
G1 X84.893 Y87.703 E5.20044
G1 X85.03 Y87.61 E5.20594
G1 X85.799 Y87.136 E5.23599
G1 X86.607 Y86.732 E5.26604
G1 X87.447 Y86.402 E5.29605
G1 X87.932 Y86.249 E5.31297
G1 X88.14 Y86.189 E5.32017
G1 X89.018 Y85.977 E5.35021
G1 X90.122 Y85.824 E5.38728
G1 X90.471 Y85.795 E5.39893
G1 X91.374 Y85.76 E5.42898
G1 X91.838 Y85.773 E5.44442
G1 X92.17 Y85.79 E5.45548
G1 X93.424 Y85.933 E5.49746
G1 X95.116 Y86.235 E5.55462
G1 X95.395 Y86.291 E5.56409
G1 X97.918 Y86.725 E5.64924
G1 X100.395 Y87.079 E5.73246
G1 X102.949 Y87.372 E5.81796
G1 X105.484 Y87.589 E5.90258
G1 X107.989 Y87.733 E5.98604
G1 X110.558 Y87.807 E6.07152
G1 X113.093 Y87.809 E6.15583
G1 X115.624 Y87.739 E6.24005
G1 X118.154 Y87.597 E6.32433
G1 X120.69 Y87.383 E6.40898
G1 X123.225 Y87.097 E6.49382
G1 X125.712 Y86.745 E6.57737
G1 X128.287 Y86.305 E6.66425
G1 X130.047 Y85.96 E6.7239
G1 X131.308 Y85.793 E6.76621
G1 X131.815 Y85.758 E6.78312
G1 X132.717 Y85.736 E6.81312
G1 X133.282 Y85.763 E6.83194
G1 X133.588 Y85.786 E6.84214
G0 F6000 X133.617 Y85.387
G1 F900 X134.532 Y85.496 E6.87279
G1 X135.487 Y85.697 E6.90525
G1 X135.695 Y85.751 E6.9124
G1 X136.575 Y86.021 E6.94302
G1 X137.428 Y86.366 E6.97362
G1 X138.249 Y86.784 E7.00426
G1 X139.03 Y87.272 E7.03489
G1 X139.42 Y87.553 E7.05088
G1 X139.653 Y87.729 E7.06059
G1 X140.363 Y88.315 E7.09121
G1 X141.019 Y88.961 E7.12183
G1 X141.617 Y89.661 E7.15245
G1 X142.152 Y90.41 E7.18307
G1 X142.619 Y91.203 E7.21368
G1 X143.017 Y92.034 E7.24432
G1 X143.34 Y92.896 E7.27494
G1 X143.531 Y93.543 E7.29738
G1 X143.739 Y94.44 E7.328
G1 X143.869 Y95.351 E7.35861
G1 X143.919 Y96.271 E7.38925
G1 X143.89 Y97.191 E7.41987
G1 X143.839 Y97.7 E7.43688
G1 X143.541 Y100.087 E7.51689
G1 X143.304 Y102.557 E7.59942
G1 X143.13 Y105.114 E7.68466
G1 X143.03 Y107.646 E7.76894
G1 X143.002 Y110.16 E7.85256
G1 X143.045 Y112.675 E7.93623
G1 X143.16 Y115.206 E8.02049
G1 X143.347 Y117.73 E8.10467
G1 X143.605 Y120.253 E8.18903
G1 X143.806 Y121.808 E8.24118
G1 X143.86 Y122.275 E8.25681
G1 X143.926 Y123.194 E8.28746
G1 X143.908 Y124.174 E8.32006
G1 X143.893 Y124.407 E8.32782
G1 X143.794 Y125.322 E8.35843
G1 X143.616 Y126.226 E8.38908
G1 X143.36 Y127.11 E8.41969
G1 X143.029 Y127.969 E8.45031
G1 X142.624 Y128.796 E8.48093
G1 X142.149 Y129.584 E8.51154
G1 X141.737 Y130.163 E8.53517
G1 X141.604 Y130.337 E8.54246
G1 X141.013 Y131.044 E8.5731
G1 X140.364 Y131.696 E8.6037
G1 X139.66 Y132.29 E8.63434
G1 X138.908 Y132.82 E8.66494
G1 X138.112 Y133.284 E8.69558
G1 X137.119 Y133.742 E8.73195
G1 X136.814 Y133.864 E8.74288
G1 X135.945 Y134.168 E8.7735
G1 X135.053 Y134.396 E8.80412
G1 X134.18 Y134.542 E8.83356
G1 X133.954 Y134.57 E8.84113
G1 X133.037 Y134.643 E8.87173
G1 X132.523 Y134.649 E8.88883
G1 X132.191 Y134.645 E8.89987
G1 X131.112 Y134.577 E8.93583
G1 X130.798 Y134.541 E8.94634
G1 X129.934 Y134.406 E8.97543
G1 X129.732 Y134.366 E8.98228
G1 X127.14 Y133.88 E9.06999
G1 X124.683 Y133.492 E9.15272
G1 X122.153 Y133.166 E9.23757
G1 X119.647 Y132.914 E9.32134
G1 X117.111 Y132.731 E9.4059
G1 X114.592 Y132.621 E9.48976
G1 X112.054 Y132.582 E9.57419
G1 X109.536 Y132.615 E9.65795
G1 X107.001 Y132.719 E9.74233
G1 X104.481 Y132.895 E9.82635
G1 X101.994 Y133.139 E9.90947
G1 X99.46 Y133.46 E9.99442
G1 X96.973 Y133.848 E10.07814
G1 X93.783 Y134.448 E10.1861
G1 X92.498 Y134.609 E10.22917
G1 X91.919 Y134.646 E10.24847
G1 X90.999 Y134.665 E10.27908
G1 X90.08 Y134.604 E10.30971
G1 X89.531 Y134.529 E10.32814
G1 X89.14 Y134.465 E10.34132
G1 X88.239 Y134.277 E10.37193
G1 X87.357 Y134.011 E10.40257
G1 X86.205 Y133.531 E10.44408
G1 X86 Y133.431 E10.45166
G1 X85.191 Y132.992 E10.48228
G1 X84.423 Y132.484 E10.5129
G1 X83.702 Y131.912 E10.54351
G1 X83.033 Y131.279 E10.57415
G1 X82.422 Y130.59 E10.60478
G1 X81.981 Y130.011 E10.62898
G1 X81.469 Y129.245 E10.65963
G1 X81.026 Y128.438 E10.69025
G1 X80.655 Y127.595 E10.72088
G1 X80.359 Y126.724 E10.75148
G1 X80.139 Y125.83 E10.7821
G1 X80.009 Y125.024 E10.80925
G1 X79.984 Y124.818 E10.81616
G1 X79.913 Y123.9 E10.84678
G1 X79.922 Y122.98 E10.87738
G1 X79.982 Y122.281 E10.90071
G1 X80.135 Y121.012 E10.94323
G1 X80.191 Y120.591 E10.95735
G1 X80.456 Y118.051 E11.04229
G1 X80.646 Y115.533 E11.12628
G1 X80.766 Y113.013 E11.21019
G1 X80.814 Y110.503 E11.29369
G1 X80.79 Y107.956 E11.37841
G1 X80.695 Y105.424 E11.46268
G1 X80.527 Y102.886 E11.54728
G1 X80.295 Y100.418 E11.62973
G1 X80.015 Y98.16 E11.7054
G1 X79.962 Y97.69 E11.72113
G1 X79.898 Y96.771 E11.75177
G1 X79.912 Y95.896 E11.78088
G1 X79.923 Y95.704 E11.78728
G1 X80.016 Y94.788 E11.8179
G1 X80.188 Y93.883 E11.84854
G1 X80.437 Y92.997 E11.87915
G1 X80.762 Y92.136 E11.90976
G1 X81.161 Y91.306 E11.94039
G1 X81.783 Y90.287 E11.9801
G1 X81.899 Y90.119 E11.98689
G1 X82.455 Y89.385 E12.01751
G1 X83.072 Y88.702 E12.04813
G1 X83.746 Y88.075 E12.07874
G1 X84.669 Y87.372 E12.11733
G1 X84.806 Y87.279 E12.12284
G1 X85.589 Y86.795 E12.15346
G1 X86.411 Y86.382 E12.18405
G1 X87.267 Y86.041 E12.2147
G1 X87.821 Y85.864 E12.23404
G1 X88.029 Y85.804 E12.24124
G1 X88.924 Y85.588 E12.27187
G1 X90.089 Y85.425 E12.31099
G1 X90.438 Y85.396 E12.32264
G1 X91.358 Y85.36 E12.35326
G1 X91.858 Y85.374 E12.3699
G1 X92.19 Y85.391 E12.38096
G1 X93.494 Y85.539 E12.4246
G1 X95.195 Y85.843 E12.48208
G1 X95.471 Y85.898 E12.49144
G1 X97.971 Y86.329 E12.57581
G1 X100.461 Y86.685 E12.65947
G1 X102.996 Y86.975 E12.74434
G1 X105.47 Y87.187 E12.82693
G1 X108.024 Y87.333 E12.91201
G1 X110.569 Y87.407 E12.99669
G1 X113.082 Y87.409 E13.08028
G1 X115.627 Y87.339 E13.16496
G1 X118.132 Y87.199 E13.2484
G1 X120.647 Y86.986 E13.33235
G1 X123.161 Y86.703 E13.41649
G1 X125.66 Y86.348 E13.50045
G1 X128.183 Y85.918 E13.58557
G1 X129.97 Y85.567 E13.64614
G1 X131.28 Y85.394 E13.69009
G1 X131.787 Y85.359 E13.707
G1 X132.707 Y85.336 E13.7376
G1 X133.311 Y85.364 E13.75771
G1 X133.617 Y85.387 E13.76792
G0 F6000 X133.647 Y84.988
G1 F900 X134.579 Y85.098 E13.79913
G1 X135.587 Y85.31 E13.83339
G1 X135.795 Y85.364 E13.84054
G1 X136.692 Y85.638 E13.87174
G1 X137.562 Y85.988 E13.90293
G1 X138.4 Y86.41 E13.93413
G1 X139.198 Y86.902 E13.96531
G1 X139.661 Y87.234 E13.98426
G1 X139.894 Y87.41 E13.99398
G1 X140.618 Y88.006 E14.02517
G1 X141.288 Y88.662 E14.05635
G1 X141.9 Y89.373 E14.08755
G1 X142.449 Y90.134 E14.11876
G1 X142.931 Y90.938 E14.14994
G1 X143.343 Y91.781 E14.18115
G1 X143.682 Y92.655 E14.21233
G1 X143.86 Y93.235 E14.23251
G1 X143.916 Y93.436 E14.23945
G1 X144.129 Y94.349 E14.27063
G1 X144.264 Y95.277 E14.30182
G1 X144.319 Y96.214 E14.33304
G1 X144.293 Y97.151 E14.36422
G1 X144.235 Y97.749 E14.3842
G1 X143.941 Y100.103 E14.4631
G1 X143.702 Y102.586 E14.54607
G1 X143.53 Y105.121 E14.63058
G1 X143.43 Y107.667 E14.71532
G1 X143.402 Y110.157 E14.79815
G1 X143.445 Y112.651 E14.88111
G1 X143.56 Y115.194 E14.96578
G1 X143.745 Y117.692 E15.04909
G1 X144.002 Y120.196 E15.13281
G1 X144.203 Y121.762 E15.18532
G1 X144.257 Y122.229 E15.20096
G1 X144.325 Y123.165 E15.23217
G1 X144.307 Y124.2 E15.2666
G1 X144.292 Y124.433 E15.27437
G1 X144.192 Y125.365 E15.30554
G1 X144.013 Y126.286 E15.33675
G1 X143.756 Y127.188 E15.36794
G1 X143.423 Y128.065 E15.39914
G1 X143.017 Y128.91 E15.43032
G1 X142.54 Y129.717 E15.4615
G1 X142.054 Y130.406 E15.48955
G1 X141.921 Y130.58 E15.49683
G1 X141.321 Y131.3 E15.528
G1 X140.661 Y131.967 E15.55921
G1 X139.946 Y132.574 E15.59041
G1 X139.183 Y133.119 E15.62159
G1 X138.376 Y133.597 E15.65279
G1 X137.267 Y134.113 E15.69347
G1 X136.962 Y134.235 E15.7044
G1 X136.077 Y134.546 E15.7356
G1 X135.169 Y134.78 E15.76679
G1 X134.229 Y134.939 E15.79849
G1 X134.003 Y134.967 E15.80607
G1 X133.069 Y135.042 E15.83723
G1 X132.518 Y135.049 E15.85556
G1 X132.186 Y135.045 E15.8666
G1 X131.066 Y134.974 E15.90393
G1 X130.752 Y134.938 E15.91444
G1 X129.856 Y134.798 E15.9446
G1 X129.675 Y134.762 E15.95074
G1 X127.07 Y134.274 E16.03889
G1 X124.606 Y133.885 E16.12186
G1 X122.133 Y133.566 E16.20479
G1 X119.614 Y133.313 E16.289
G1 X117.063 Y133.129 E16.37407
G1 X114.604 Y133.021 E16.45593
G1 X112.053 Y132.982 E16.54079
G1 X109.558 Y133.015 E16.62378
G1 X107.012 Y133.119 E16.70853
G1 X104.548 Y133.291 E16.79068
G1 X102.012 Y133.54 E16.87544
G1 X99.5 Y133.859 E16.95966
G1 X97.048 Y134.24 E17.04219
G1 X93.857 Y134.841 E17.15019
G1 X92.524 Y135.009 E17.19487
G1 X91.945 Y135.046 E17.21417
G1 X91.007 Y135.065 E17.24538
G1 X90.071 Y135.005 E17.27657
G1 X89.466 Y134.924 E17.29687
G1 X89.075 Y134.86 E17.31005
G1 X88.157 Y134.669 E17.34124
G1 X87.258 Y134.4 E17.37245
G1 X86.029 Y133.89 E17.4167
G1 X85.824 Y133.79 E17.42429
G1 X85 Y133.344 E17.45545
G1 X84.216 Y132.828 E17.48667
G1 X83.479 Y132.248 E17.51786
G1 X82.795 Y131.607 E17.54904
G1 X82.167 Y130.91 E17.58025
G1 X81.773 Y130.404 E17.60158
G1 X81.658 Y130.247 E17.60805
G1 X81.137 Y129.468 E17.63922
G1 X80.683 Y128.646 E17.67045
G1 X80.302 Y127.79 E17.70162
G1 X79.995 Y126.904 E17.7328
G1 X79.764 Y125.994 E17.76403
G1 X79.612 Y125.072 E17.79511
G1 X79.587 Y124.866 E17.80201
G1 X79.514 Y123.931 E17.8332
G1 X79.521 Y122.993 E17.8644
G1 X79.585 Y122.233 E17.88977
G1 X79.738 Y120.96 E17.93242
G1 X79.799 Y120.502 E17.94778
G1 X80.055 Y118.047 E18.02988
G1 X80.246 Y115.52 E18.11417
G1 X80.366 Y112.986 E18.19854
G1 X80.414 Y110.499 E18.28128
G1 X80.39 Y107.939 E18.36643
G1 X80.297 Y105.464 E18.4488
G1 X80.131 Y102.953 E18.5325
G1 X79.894 Y100.435 E18.61662
G1 X79.617 Y98.205 E18.69136
G1 X79.564 Y97.735 E18.70709
G1 X79.499 Y96.799 E18.7383
G1 X79.513 Y95.873 E18.7691
G1 X79.524 Y95.681 E18.7755
G1 X79.618 Y94.748 E18.80669
G1 X79.79 Y93.826 E18.83788
G1 X80.041 Y92.922 E18.86909
G1 X80.367 Y92.043 E18.90027
G1 X80.768 Y91.195 E18.93147
G1 X81.454 Y90.06 E18.97558
G1 X81.57 Y89.892 E18.98237
G1 X82.135 Y89.144 E19.01354
G1 X82.762 Y88.446 E19.04475
G1 X83.447 Y87.805 E19.07595
G1 X84.444 Y87.041 E19.11773
G1 X84.581 Y86.948 E19.12324
G1 X85.379 Y86.455 E19.15444
G1 X86.215 Y86.031 E19.18561
G1 X87.085 Y85.681 E19.2168
G1 X87.71 Y85.48 E19.23864
G1 X87.918 Y85.42 E19.24584
G1 X88.83 Y85.199 E19.27705
G1 X90.056 Y85.027 E19.31823
G1 X90.405 Y84.998 E19.32988
G1 X91.342 Y84.96 E19.36107
G1 X91.879 Y84.974 E19.37893
G1 X92.211 Y84.991 E19.38999
G1 X93.563 Y85.145 E19.43525
G1 X95.274 Y85.451 E19.49306
G1 X95.517 Y85.5 E19.5013
G1 X98.058 Y85.937 E19.58706
G1 X100.526 Y86.29 E19.66998
G1 X103.005 Y86.574 E19.75297
G1 X105.526 Y86.79 E19.83713
G1 X108.059 Y86.935 E19.92151
G1 X110.546 Y87.007 E20.00427
G1 X113.071 Y87.009 E20.08825
G1 X115.594 Y86.939 E20.17219
G1 X118.109 Y86.799 E20.25597
G1 X120.605 Y86.588 E20.33929
G1 X123.131 Y86.303 E20.42384
G1 X125.608 Y85.952 E20.50704
G1 X128.117 Y85.523 E20.5917
G1 X129.893 Y85.175 E20.6519
G1 X131.252 Y84.995 E20.69749
G1 X131.759 Y84.96 E20.7144
G1 X132.697 Y84.935 E20.7456
G1 X133.341 Y84.965 E20.76705
G1 X133.647 Y84.988 E20.77725
G1 F1500 E14.77725
;MESH:SmartTemperatureTower_PLA_Plus_195-235.stl
G0 F6000 X117.725 Y109.014
