;FLAVOR:Marlin
;TIME:2119
;Filament used: 1.60283m
;Layer height: 0.2
;MINX:89
;MINY:89
;MINZ:0.2
;MAXX:131
;MAXY:131
;MAXZ:20
;Generated with Cura_SteamEngine 4.6.1
M82 ;absolute extrusion mode
M140 S75 ; start heating the bed to what is set in Cura
M104 S215 T0 ; start heating T0 to what is set in Cura
G92 E0 ; Reset Extruder
M280 P0 S160 ; BLTouch alarm release
G4 P100 ; delay for BLTouch
G28 ; home
G29 ; auto bed leveling
;Wait until everything is hot
M190 S75
M109 S215 T0
G1 Z2.0 F3000 ; Move Z Axis up little to prevent scratching of Heat Bed
G1 X0.1 Y20 Z0.3 F5000.0 ; Move to start position
G1 X0.1 Y200.0 Z0.3 F1500.0 E15 ; Draw the first line
G1 X0.4 Y200.0 Z0.3 F5000.0 ; Move to side a little
G1 X0.4 Y20 Z0.3 F1500.0 E30 ; Draw the second line
G92 E0 ; Reset Extruder
G1 Z2.0 F3000 ; Move Z Axis up little to prevent scratching of Heat Bed
G1 X5 Y20 Z0.3 F5000.0 ; Move over to prevent blob squish
G92 E0
G92 E0
G1 F1500 E-6
;LAYER_COUNT:100
;LAYER:0
M107
G0 F6000 X120.137 Y89.811 Z0.2
;TYPE:SKIRT
G1 F1500 E0
G1 F900 X121.039 Y89.864 E0.03005
G1 X121.932 Y89.996 E0.06008
G1 X122.81 Y90.207 E0.09011
G1 X123.666 Y90.495 E0.12015
G1 X124.493 Y90.857 E0.15018
G1 X125.285 Y91.292 E0.18023
G1 X126.036 Y91.794 E0.21027
G1 X126.739 Y92.361 E0.24031
G1 X127.389 Y92.988 E0.27035
G1 X127.981 Y93.67 E0.30039
G1 X128.511 Y94.401 E0.33042
G1 X128.973 Y95.177 E0.36046
G1 X129.366 Y95.99 E0.39049
G1 X129.684 Y96.835 E0.42052
G1 X129.927 Y97.705 E0.45056
G1 X130.092 Y98.593 E0.4806
G1 X130.187 Y99.723 E0.51832
G1 X130.2 Y100.33 E0.53851
G1 X130.199 Y119.39 E1.17245
G1 X130.19 Y120.117 E1.19663
G1 X130.139 Y121.019 E1.22668
G1 X130.008 Y121.913 E1.25674
G1 X129.799 Y122.791 E1.28675
G1 X129.513 Y123.648 E1.3168
G1 X129.152 Y124.476 E1.34685
G1 X128.72 Y125.268 E1.37685
G1 X128.219 Y126.02 E1.40691
G1 X127.653 Y126.724 E1.43695
G1 X127.028 Y127.375 E1.46697
G1 X126.347 Y127.969 E1.49702
G1 X125.616 Y128.5 E1.52707
G1 X124.842 Y128.964 E1.55709
G1 X124.029 Y129.358 E1.58714
G1 X123.185 Y129.678 E1.61716
G1 X122.315 Y129.923 E1.64722
G1 X121.428 Y130.089 E1.67723
G1 X120.277 Y130.187 E1.71565
G1 X119.67 Y130.2 E1.73585
G1 X100.575 Y130.199 E2.37095
G1 X99.877 Y130.19 E2.39417
G1 X98.976 Y130.139 E2.42418
G1 X98.082 Y130.007 E2.45424
G1 X97.204 Y129.798 E2.48426
G1 X96.347 Y129.511 E2.51432
G1 X95.52 Y129.15 E2.54433
G1 X94.727 Y128.717 E2.57438
G1 X93.976 Y128.216 E2.60441
G1 X93.272 Y127.65 E2.63445
G1 X92.621 Y127.024 E2.66449
G1 X92.028 Y126.343 E2.69452
G1 X91.498 Y125.612 E2.72456
G1 X91.034 Y124.837 E2.7546
G1 X90.64 Y124.024 E2.78465
G1 X90.32 Y123.18 E2.81467
G1 X90.076 Y122.31 E2.84472
G1 X89.91 Y121.422 E2.87477
G1 X89.813 Y120.267 E2.91332
G1 X89.8 Y119.658 E2.93358
G1 X89.801 Y100.536 E3.56958
G1 X89.81 Y99.871 E3.5917
G1 X89.862 Y98.969 E3.62175
G1 X89.994 Y98.076 E3.65177
G1 X90.204 Y97.198 E3.6818
G1 X90.491 Y96.341 E3.71186
G1 X90.853 Y95.514 E3.74189
G1 X91.286 Y94.722 E3.77191
G1 X91.788 Y93.971 E3.80195
G1 X92.355 Y93.267 E3.83202
G1 X92.981 Y92.617 E3.86203
G1 X93.662 Y92.024 E3.89207
G1 X94.394 Y91.494 E3.92212
G1 X95.169 Y91.031 E3.95215
G1 X95.982 Y90.638 E3.98219
G1 X96.827 Y90.318 E4.01224
G1 X97.696 Y90.075 E4.04225
G1 X98.584 Y89.909 E4.0723
G1 X99.723 Y89.813 E4.11031
G1 X100.33 Y89.8 E4.13051
G1 X119.439 Y89.801 E4.76608
G1 X120.137 Y89.811 E4.78929
G0 F6000 X120.143 Y89.411
G1 F900 X121.062 Y89.464 E4.81991
G1 X121.973 Y89.597 E4.85053
G1 X122.869 Y89.808 E4.88115
G1 X123.743 Y90.096 E4.91175
G1 X124.59 Y90.459 E4.9424
G1 X125.401 Y90.894 E4.97301
G1 X126.171 Y91.398 E5.00362
G1 X126.895 Y91.967 E5.03425
G1 X127.567 Y92.597 E5.06489
G1 X128.182 Y93.282 E5.0955
G1 X128.735 Y94.018 E5.12612
G1 X129.222 Y94.799 E5.15674
G1 X129.639 Y95.62 E5.18736
G1 X129.984 Y96.474 E5.218
G1 X130.253 Y97.354 E5.2486
G1 X130.445 Y98.255 E5.27924
G1 X130.558 Y99.168 E5.30984
G1 X130.587 Y99.712 E5.32796
G1 X130.6 Y100.33 E5.34852
G1 X130.599 Y119.395 E5.98262
G1 X130.59 Y120.122 E6.00681
G1 X130.539 Y121.041 E6.03742
G1 X130.408 Y121.953 E6.06806
G1 X130.198 Y122.849 E6.09867
G1 X129.912 Y123.724 E6.12929
G1 X129.551 Y124.571 E6.15991
G1 X129.117 Y125.383 E6.19054
G1 X128.615 Y126.155 E6.22116
G1 X128.047 Y126.88 E6.2518
G1 X127.419 Y127.553 E6.28241
G1 X126.735 Y128.169 E6.31303
G1 X126 Y128.723 E6.34364
G1 X125.22 Y129.212 E6.37426
G1 X124.4 Y129.631 E6.40489
G1 X123.547 Y129.977 E6.43551
G1 X122.667 Y130.248 E6.46613
G1 X121.767 Y130.441 E6.49675
G1 X120.853 Y130.556 E6.52738
G1 X120.288 Y130.587 E6.5462
G1 X119.67 Y130.6 E6.56676
G1 X100.57 Y130.599 E7.20203
G1 X99.872 Y130.59 E7.22525
G1 X98.953 Y130.538 E7.25587
G1 X98.042 Y130.407 E7.28648
G1 X97.146 Y130.197 E7.31709
G1 X96.271 Y129.91 E7.34771
G1 X95.424 Y129.548 E7.37835
G1 X94.612 Y129.114 E7.40897
G1 X93.841 Y128.612 E7.43957
G1 X93.116 Y128.044 E7.47021
G1 X92.443 Y127.415 E7.50084
G1 X91.828 Y126.731 E7.53144
G1 X91.274 Y125.996 E7.56205
G1 X90.786 Y125.215 E7.59268
G1 X90.367 Y124.395 E7.62331
G1 X90.021 Y123.542 E7.65392
G1 X89.751 Y122.662 E7.68454
G1 X89.558 Y121.761 E7.71519
G1 X89.444 Y120.848 E7.74579
G1 X89.413 Y120.277 E7.76481
G1 X89.4 Y119.658 E7.7854
G1 X89.401 Y100.531 E8.42157
G1 X89.41 Y99.866 E8.44369
G1 X89.462 Y98.946 E8.47434
G1 X89.594 Y98.035 E8.50495
G1 X89.805 Y97.139 E8.53557
G1 X90.092 Y96.264 E8.5662
G1 X90.455 Y95.418 E8.59682
G1 X90.889 Y94.606 E8.62744
G1 X91.392 Y93.835 E8.65806
G1 X91.961 Y93.111 E8.68868
G1 X92.589 Y92.439 E8.71928
G1 X93.274 Y91.823 E8.74992
G1 X94.01 Y91.27 E8.78054
G1 X94.791 Y90.782 E8.81117
G1 X95.611 Y90.364 E8.84178
G1 X96.465 Y90.019 E8.87241
G1 X97.345 Y89.749 E8.90303
G1 X98.245 Y89.557 E8.93364
G1 X99.159 Y89.443 E8.96427
G1 X99.712 Y89.413 E8.98269
G1 X100.33 Y89.4 E9.00325
G1 X119.445 Y89.401 E9.63902
G1 X120.143 Y89.411 E9.66224
G0 F6000 X120.149 Y89.011
G1 F900 X121.085 Y89.065 E9.69342
G1 X122.013 Y89.197 E9.72459
G1 X122.927 Y89.409 E9.7558
G1 X123.819 Y89.698 E9.78699
G1 X124.684 Y90.061 E9.81819
G1 X125.514 Y90.497 E9.84937
G1 X126.305 Y91.002 E9.88059
G1 X127.049 Y91.573 E9.91178
G1 X127.742 Y92.205 E9.94297
G1 X128.379 Y92.893 E9.97416
G1 X128.954 Y93.634 E10.00535
G1 X129.465 Y94.42 E10.03654
G1 X129.907 Y95.248 E10.06775
G1 X130.276 Y96.11 E10.09894
G1 X130.571 Y97 E10.13012
G1 X130.789 Y97.912 E10.16131
G1 X130.929 Y98.84 E10.19253
G1 X130.987 Y99.701 E10.22123
G1 X131 Y100.33 E10.24215
G1 X130.999 Y119.4 E10.87643
G1 X130.99 Y120.127 E10.90061
G1 X130.939 Y121.064 E10.93182
G1 X130.807 Y121.992 E10.96299
G1 X130.598 Y122.906 E10.99418
G1 X130.311 Y123.799 E11.02538
G1 X129.949 Y124.665 E11.05659
G1 X129.515 Y125.496 E11.08778
G1 X129.011 Y126.287 E11.11897
G1 X128.442 Y127.032 E11.15015
G1 X127.811 Y127.727 E11.18137
G1 X127.124 Y128.365 E11.21256
G1 X126.385 Y128.942 E11.24374
G1 X125.599 Y129.454 E11.27494
G1 X124.773 Y129.897 E11.30611
G1 X123.911 Y130.269 E11.33734
G1 X123.022 Y130.565 E11.3685
G1 X122.11 Y130.785 E11.39971
G1 X121.183 Y130.926 E11.43089
G1 X120.299 Y130.987 E11.46037
G1 X119.67 Y131 E11.48129
G1 X100.565 Y130.999 E12.11673
G1 X99.867 Y130.99 E12.13994
G1 X98.931 Y130.938 E12.17112
G1 X98.002 Y130.806 E12.20233
G1 X97.088 Y130.596 E12.23352
G1 X96.195 Y130.309 E12.26472
G1 X95.33 Y129.946 E12.29592
G1 X94.499 Y129.512 E12.3271
G1 X93.708 Y129.008 E12.3583
G1 X92.963 Y128.438 E12.3895
G1 X92.269 Y127.807 E12.4207
G1 X91.632 Y127.12 E12.45186
G1 X91.055 Y126.38 E12.48307
G1 X90.543 Y125.594 E12.51427
G1 X90.1 Y124.767 E12.54547
G1 X89.729 Y123.906 E12.57665
G1 X89.433 Y123.016 E12.60785
G1 X89.214 Y122.104 E12.63904
G1 X89.073 Y121.177 E12.67023
G1 X89.013 Y120.288 E12.69987
G1 X89 Y119.658 E12.72082
G1 X89.001 Y100.525 E13.35719
G1 X89.01 Y99.86 E13.37931
G1 X89.063 Y98.924 E13.41049
G1 X89.195 Y97.995 E13.4417
G1 X89.406 Y97.081 E13.4729
G1 X89.694 Y96.189 E13.50408
G1 X90.057 Y95.324 E13.53528
G1 X90.492 Y94.493 E13.56647
G1 X90.996 Y93.703 E13.59764
G1 X91.566 Y92.958 E13.62884
G1 X92.198 Y92.264 E13.66006
G1 X92.886 Y91.627 E13.69125
G1 X93.626 Y91.051 E13.72244
G1 X94.412 Y90.539 E13.75364
G1 X95.239 Y90.097 E13.78482
G1 X96.101 Y89.727 E13.81602
G1 X96.991 Y89.431 E13.84722
G1 X97.903 Y89.213 E13.87841
G1 X98.83 Y89.072 E13.90959
G1 X99.701 Y89.013 E13.93863
G1 X100.33 Y89 E13.95955
G1 X119.451 Y89.001 E14.59552
G1 X120.149 Y89.011 E14.61874
G1 F1500 E8.61874
;MESH:xyzCalibration_cube.stl
G0 F6000 X119.586 Y99.335
G0 X119.586 Y100.414
G0 X119.218 Y119.218
G0 X100.6 Y119.4
;TYPE:WALL-INNER
G1 F1500 E14.61874
G1 F900 X100.6 Y100.6 E15.24403
G1 X119.4 Y100.6 E15.86932
G1 X119.4 Y119.4 E16.49461
G1 X100.6 Y119.4 E17.1199
G0 F6000 X100.2 Y119.8
;TYPE:WALL-OUTER
G1 F900 X100.2 Y100.2 E17.7718
G1 X119.8 Y100.2 E18.4237
G1 X119.8 Y119.8 E19.0756
G1 X100.2 Y119.8 E19.7275
G0 F6000 X100.47 Y119.53
G0 X100.71 Y119.01
G0 X100.99 Y119.01
;TYPE:SKIN
G1 F900 X100.99 Y100.99 E20.32684
G1 X119.01 Y100.99 E20.92619
G1 X119.01 Y119.01 E21.52554
G1 X100.99 Y119.01 E22.12489
G0 F6000 X101.312 Y118.849
G1 F900 X101.149 Y118.685 E22.13258
G0 F6000 X101.149 Y118.12
G1 F900 X101.878 Y118.849 E22.16687
G0 F6000 X102.444 Y118.849
G1 F900 X101.149 Y117.554 E22.22778
G0 F6000 X101.149 Y116.988
G1 F900 X103.009 Y118.849 E22.31529
G0 F6000 X103.575 Y118.849
G1 F900 X101.149 Y116.423 E22.4294
G0 F6000 X101.149 Y115.857
G1 F900 X104.141 Y118.849 E22.57014
G0 F6000 X104.706 Y118.849
G1 F900 X101.149 Y115.291 E22.73747
G0 F6000 X101.149 Y114.725
G1 F900 X105.272 Y118.849 E22.93143
G0 F6000 X105.838 Y118.849
G1 F900 X101.149 Y114.16 E23.15199
G0 F6000 X101.149 Y113.594
G1 F900 X106.404 Y118.849 E23.39916
G0 F6000 X106.969 Y118.849
G1 F900 X101.149 Y113.028 E23.67294
G0 F6000 X101.149 Y112.463
G1 F900 X107.535 Y118.849 E23.97332
G0 F6000 X108.101 Y118.849
G1 F900 X101.149 Y111.897 E24.30032
G0 F6000 X101.149 Y111.331
G1 F900 X108.666 Y118.849 E24.65392
G0 F6000 X109.232 Y118.849
G1 F900 X101.149 Y110.766 E25.03412
G0 F6000 X101.149 Y110.2
G1 F900 X109.798 Y118.849 E25.44094
G0 F6000 X110.363 Y118.849
G1 F900 X101.149 Y109.634 E25.87437
G0 F6000 X101.149 Y109.069
G1 F900 X110.929 Y118.849 E26.33439
G0 F6000 X111.495 Y118.849
G1 F900 X101.149 Y108.503 E26.82103
G0 F6000 X101.149 Y107.937
G1 F900 X112.06 Y118.849 E27.33427
G0 F6000 X112.626 Y118.849
G1 F900 X101.149 Y107.372 E27.87412
G0 F6000 X101.149 Y106.806
G1 F900 X113.192 Y118.849 E28.44058
G0 F6000 X113.757 Y118.849
G1 F900 X101.149 Y106.24 E29.03365
G0 F6000 X101.149 Y105.674
G1 F900 X114.323 Y118.849 E29.65334
G0 F6000 X114.889 Y118.849
G1 F900 X101.149 Y105.109 E30.29962
G0 F6000 X101.149 Y104.543
G1 F900 X115.454 Y118.849 E30.97251
G0 F6000 X116.02 Y118.849
G1 F900 X101.149 Y103.977 E31.67202
G0 F6000 X101.149 Y103.412
G1 F900 X116.586 Y118.849 E32.39813
G0 F6000 X117.152 Y118.849
G1 F900 X101.149 Y102.846 E33.15086
G0 F6000 X101.149 Y102.28
G1 F900 X117.717 Y118.849 E33.93019
G0 F6000 X118.283 Y118.849
G1 F900 X101.149 Y101.715 E34.73612
G0 F6000 X101.149 Y101.149
G1 F900 X118.849 Y118.849 E35.56868
G0 F6000 X118.849 Y118.284
G1 F900 X101.715 Y101.15 E36.37461
G0 F6000 X102.281 Y101.15
G1 F900 X118.849 Y117.718 E37.15392
G0 F6000 X118.849 Y117.152
G1 F900 X102.847 Y101.15 E37.9066
G0 F6000 X103.412 Y101.15
G1 F900 X118.849 Y116.587 E38.63271
G0 F6000 X118.849 Y116.021
G1 F900 X103.978 Y101.15 E39.3322
G0 F6000 X104.544 Y101.15
G1 F900 X118.849 Y115.455 E40.00506
G0 F6000 X118.849 Y114.89
G1 F900 X105.11 Y101.15 E40.65132
G0 F6000 X105.675 Y101.15
G1 F900 X118.849 Y114.324 E41.27099
G0 F6000 X118.849 Y113.758
G1 F900 X106.241 Y101.15 E41.86403
G0 F6000 X106.807 Y101.15
G1 F900 X118.849 Y113.192 E42.43045
G0 F6000 X118.849 Y112.627
G1 F900 X107.372 Y101.15 E42.97029
G0 F6000 X107.938 Y101.15
G1 F900 X118.849 Y112.061 E43.48351
G0 F6000 X118.849 Y111.495
G1 F900 X108.504 Y101.15 E43.97011
G0 F6000 X109.069 Y101.15
G1 F900 X118.849 Y110.93 E44.43013
G0 F6000 X118.849 Y110.364
G1 F900 X109.635 Y101.15 E44.86353
G0 F6000 X110.201 Y101.15
G1 F900 X118.849 Y109.798 E45.2703
G0 F6000 X118.849 Y109.233
G1 F900 X110.766 Y101.15 E45.6505
G0 F6000 X111.332 Y101.15
G1 F900 X118.849 Y108.667 E46.00408
G0 F6000 X118.849 Y108.101
G1 F900 X111.898 Y101.15 E46.33103
G0 F6000 X112.463 Y101.15
G1 F900 X118.849 Y107.536 E46.63141
G0 F6000 X118.849 Y106.97
G1 F900 X113.029 Y101.15 E46.90517
G0 F6000 X113.595 Y101.15
G1 F900 X118.849 Y106.404 E47.1523
G0 F6000 X118.849 Y105.839
G1 F900 X114.16 Y101.15 E47.37285
G0 F6000 X114.726 Y101.15
G1 F900 X118.849 Y105.273 E47.56679
G0 F6000 X118.849 Y104.707
G1 F900 X115.292 Y101.15 E47.7341
G0 F6000 X115.858 Y101.15
G1 F900 X118.849 Y104.141 E47.87479
G0 F6000 X118.849 Y103.576
G1 F900 X116.423 Y101.15 E47.9889
G0 F6000 X116.989 Y101.15
G1 F900 X118.849 Y103.01 E48.07639
G0 F6000 X118.849 Y102.444
G1 F900 X117.555 Y101.15 E48.13725
G0 F6000 X118.12 Y101.15
G1 F900 X118.849 Y101.879 E48.17154
G0 F6000 X118.849 Y101.313
G1 F900 X118.686 Y101.15 E48.17921
M104 S215
G0 F6000 X118.686 Y100.8
G1 F1500 E42.17921
;MESH:NONMESH
G0 F300 X118.686 Y100.8 Z0.4
G0 F6000 X118.686 Y100.71
G0 X100.782 Y100.782
G0 X100.6 Y119.4
;TIME_ELAPSED:107.806834
;LAYER:1
M140 S70
M106 S85
;TYPE:WALL-INNER
;MESH:xyzCalibration_cube.stl
G1 F1500 E48.17921
G1 F1200 X100.6 Y100.6 E48.8045
G1 X119.4 Y100.6 E49.42979
G1 X119.4 Y119.4 E50.05508
G1 X100.6 Y119.4 E50.68037
G0 F7500 X100.2 Y119.8
;TYPE:WALL-OUTER
G1 F1200 X100.2 Y100.2 E51.33227
G1 X119.8 Y100.2 E51.98417
G1 X119.8 Y119.8 E52.63607
G1 X100.2 Y119.8 E53.28797
G0 F7500 X100.47 Y119.53
G0 X100.71 Y119.01
G0 X100.99 Y119.01
;TYPE:SKIN
G1 F1200 X100.99 Y100.99 E53.88731
G1 X119.01 Y100.99 E54.48666
G1 X119.01 Y119.01 E55.08601
G1 X100.99 Y119.01 E55.68536
G0 F7500 X100.71 Y119.01
G0 X100.71 Y101.365
G0 X101.15 Y101.365
G1 F1200 X101.365 Y101.149 E55.69549
G0 F7500 X101.931 Y101.149
G1 F1200 X101.15 Y101.93 E55.73223
G0 F7500 X101.15 Y102.496
G1 F1200 X102.497 Y101.149 E55.79559
G0 F7500 X103.062 Y101.149
G1 F1200 X101.15 Y103.062 E55.88555
G0 F7500 X101.15 Y103.627
G1 F1200 X103.628 Y101.149 E56.0021
G0 F7500 X104.194 Y101.149
G1 F1200 X101.15 Y104.193 E56.14528
G0 F7500 X101.15 Y104.759
G1 F1200 X104.759 Y101.149 E56.31506
G0 F7500 X105.325 Y101.149
G1 F1200 X101.15 Y105.324 E56.51144
G0 F7500 X101.15 Y105.89
G1 F1200 X105.891 Y101.149 E56.73444
G0 F7500 X106.457 Y101.149
G1 F1200 X101.15 Y106.456 E56.98407
G0 F7500 X101.15 Y107.022
G1 F1200 X107.022 Y101.149 E57.26029
G0 F7500 X107.588 Y101.149
G1 F1200 X101.15 Y107.587 E57.56312
G0 F7500 X101.15 Y108.153
G1 F1200 X108.154 Y101.149 E57.89256
G0 F7500 X108.719 Y101.149
G1 F1200 X101.15 Y108.719 E58.24861
G0 F7500 X101.15 Y109.284
G1 F1200 X109.285 Y101.149 E58.63126
G0 F7500 X109.851 Y101.149
G1 F1200 X101.15 Y109.85 E59.04052
G0 F7500 X101.15 Y110.416
G1 F1200 X110.416 Y101.149 E59.47639
G0 F7500 X110.982 Y101.149
G1 F1200 X101.15 Y110.981 E59.93886
G0 F7500 X101.15 Y111.547
G1 F1200 X111.548 Y101.149 E60.42795
G0 F7500 X112.113 Y101.149
G1 F1200 X101.15 Y112.113 E60.94364
G0 F7500 X101.15 Y112.678
G1 F1200 X112.679 Y101.149 E61.48593
G0 F7500 X113.245 Y101.149
G1 F1200 X101.15 Y113.244 E62.05484
G0 F7500 X101.15 Y113.81
G1 F1200 X113.81 Y101.149 E62.65035
G0 F7500 X114.376 Y101.149
G1 F1200 X101.15 Y114.375 E63.27246
G0 F7500 X101.15 Y114.941
G1 F1200 X114.942 Y101.149 E63.92119
G0 F7500 X115.508 Y101.149
G1 F1200 X101.15 Y115.507 E64.59655
G0 F7500 X101.15 Y116.072
G1 F1200 X116.073 Y101.149 E65.29848
G0 F7500 X116.639 Y101.149
G1 F1200 X101.15 Y116.638 E66.02704
G0 F7500 X101.15 Y117.204
G1 F1200 X117.205 Y101.149 E66.78222
G0 F7500 X117.77 Y101.149
G1 F1200 X101.15 Y117.77 E67.56399
