;FLAVOR:Marlin
;TIME:3947
;Filament used: 1.78211m
;Layer height: 0.12
;MINX:89
;MINY:89
;MINZ:0.12
;MAXX:131
;MAXY:131
;MAXZ:19.92
;Generated with Cura_SteamEngine 4.6.1
M82 ;absolute extrusion mode
M140 S65 ; start heating the bed to what is set in Cura
M104 S205 T0 ; start heating T0 to what is set in Cura
G92 E0 ; Reset Extruder
M280 P0 S160 ; BLTouch alarm release
G4 P100 ; delay for BLTouch
G28 ; home
G29 ; auto bed leveling
;Wait until everything is hot
M190 S65
M109 S205 T0
G1 Z2.0 F3000 ; Move Z Axis up little to prevent scratching of Heat Bed
G1 X0.1 Y20 Z0.3 F5000.0 ; Move to start position
G1 X0.1 Y200.0 Z0.3 F1500.0 E15 ; Draw the first line
G1 X0.4 Y200.0 Z0.3 F5000.0 ; Move to side a little
G1 X0.4 Y20 Z0.3 F1500.0 E30 ; Draw the second line
G92 E0 ; Reset Extruder
G1 Z2.0 F3000 ; Move Z Axis up little to prevent scratching of Heat Bed
G1 X5 Y20 Z0.3 F5000.0 ; Move over to prevent blob squish
G92 E0
G92 E0
G1 F1500 E-6
;LAYER_COUNT:166
;LAYER:0
M107
G0 F6000 X120.137 Y89.811 Z0.12
;TYPE:SKIRT
G1 F1500 E0
G1 F1200 X121.039 Y89.864 E0.01803
G1 X121.932 Y89.996 E0.03605
G1 X122.81 Y90.207 E0.05407
G1 X123.666 Y90.495 E0.07209
G1 X124.493 Y90.857 E0.09011
G1 X125.285 Y91.292 E0.10814
G1 X126.036 Y91.794 E0.12616
G1 X126.739 Y92.361 E0.14419
G1 X127.389 Y92.988 E0.16221
G1 X127.981 Y93.67 E0.18023
G1 X128.511 Y94.401 E0.19825
G1 X128.973 Y95.177 E0.21627
G1 X129.366 Y95.99 E0.23429
G1 X129.684 Y96.835 E0.25231
G1 X129.927 Y97.705 E0.27034
G1 X130.092 Y98.593 E0.28836
G1 X130.187 Y99.723 E0.31099
G1 X130.2 Y100.33 E0.32311
G1 X130.199 Y119.39 E0.70347
G1 X130.19 Y120.117 E0.71798
G1 X130.139 Y121.019 E0.73601
G1 X130.008 Y121.913 E0.75404
G1 X129.799 Y122.791 E0.77205
G1 X129.513 Y123.648 E0.79008
G1 X129.152 Y124.476 E0.80811
G1 X128.72 Y125.268 E0.82611
G1 X128.219 Y126.02 E0.84414
G1 X127.653 Y126.724 E0.86217
G1 X127.028 Y127.375 E0.88018
G1 X126.347 Y127.969 E0.89821
G1 X125.616 Y128.5 E0.91624
G1 X124.842 Y128.964 E0.93425
G1 X124.029 Y129.358 E0.95228
G1 X123.185 Y129.678 E0.97029
G1 X122.315 Y129.923 E0.98833
G1 X121.428 Y130.089 E1.00634
G1 X120.277 Y130.187 E1.02939
G1 X119.67 Y130.2 E1.04151
G1 X100.575 Y130.199 E1.42257
G1 X99.877 Y130.19 E1.4365
G1 X98.976 Y130.139 E1.45451
G1 X98.082 Y130.007 E1.47254
G1 X97.204 Y129.798 E1.49055
G1 X96.347 Y129.511 E1.50859
G1 X95.52 Y129.15 E1.5266
G1 X94.727 Y128.717 E1.54463
G1 X93.976 Y128.216 E1.56264
G1 X93.272 Y127.65 E1.58067
G1 X92.621 Y127.024 E1.59869
G1 X92.028 Y126.343 E1.61671
G1 X91.498 Y125.612 E1.63473
G1 X91.034 Y124.837 E1.65276
G1 X90.64 Y124.024 E1.67079
G1 X90.32 Y123.18 E1.6888
G1 X90.076 Y122.31 E1.70683
G1 X89.91 Y121.422 E1.72486
G1 X89.813 Y120.267 E1.74799
G1 X89.8 Y119.658 E1.76015
G1 X89.801 Y100.536 E2.14175
G1 X89.81 Y99.871 E2.15502
G1 X89.862 Y98.969 E2.17305
G1 X89.994 Y98.076 E2.19106
G1 X90.204 Y97.198 E2.20908
G1 X90.491 Y96.341 E2.22712
G1 X90.853 Y95.514 E2.24513
G1 X91.286 Y94.722 E2.26314
G1 X91.788 Y93.971 E2.28117
G1 X92.355 Y93.267 E2.29921
G1 X92.981 Y92.617 E2.31722
G1 X93.662 Y92.024 E2.33524
G1 X94.394 Y91.494 E2.35327
G1 X95.169 Y91.031 E2.37129
G1 X95.982 Y90.638 E2.38931
G1 X96.827 Y90.318 E2.40734
G1 X97.696 Y90.075 E2.42535
G1 X98.584 Y89.909 E2.44338
G1 X99.723 Y89.813 E2.46619
G1 X100.33 Y89.8 E2.4783
G1 X119.439 Y89.801 E2.85965
G1 X120.137 Y89.811 E2.87358
G0 F6000 X120.143 Y89.411
G1 F1200 X121.062 Y89.464 E2.89195
G1 X121.973 Y89.597 E2.91032
G1 X122.869 Y89.808 E2.92869
G1 X123.743 Y90.096 E2.94705
G1 X124.59 Y90.459 E2.96544
G1 X125.401 Y90.894 E2.98381
G1 X126.171 Y91.398 E3.00217
G1 X126.895 Y91.967 E3.02055
G1 X127.567 Y92.597 E3.03893
G1 X128.182 Y93.282 E3.0573
G1 X128.735 Y94.018 E3.07567
G1 X129.222 Y94.799 E3.09404
G1 X129.639 Y95.62 E3.11242
G1 X129.984 Y96.474 E3.1308
G1 X130.253 Y97.354 E3.14916
G1 X130.445 Y98.255 E3.16755
G1 X130.558 Y99.168 E3.18591
G1 X130.587 Y99.712 E3.19678
G1 X130.6 Y100.33 E3.20911
G1 X130.599 Y119.395 E3.58957
G1 X130.59 Y120.122 E3.60408
G1 X130.539 Y121.041 E3.62245
G1 X130.408 Y121.953 E3.64084
G1 X130.198 Y122.849 E3.6592
G1 X129.912 Y123.724 E3.67757
G1 X129.551 Y124.571 E3.69595
G1 X129.117 Y125.383 E3.71432
G1 X128.615 Y126.155 E3.7327
G1 X128.047 Y126.88 E3.75108
G1 X127.419 Y127.553 E3.76945
G1 X126.735 Y128.169 E3.78782
G1 X126 Y128.723 E3.80619
G1 X125.22 Y129.212 E3.82456
G1 X124.4 Y129.631 E3.84293
G1 X123.547 Y129.977 E3.8613
G1 X122.667 Y130.248 E3.87968
G1 X121.767 Y130.441 E3.89805
G1 X120.853 Y130.556 E3.91643
G1 X120.288 Y130.587 E3.92772
G1 X119.67 Y130.6 E3.94006
G1 X100.57 Y130.599 E4.32122
G1 X99.872 Y130.59 E4.33515
G1 X98.953 Y130.538 E4.35352
G1 X98.042 Y130.407 E4.37189
G1 X97.146 Y130.197 E4.39025
G1 X96.271 Y129.91 E4.40863
G1 X95.424 Y129.548 E4.42701
G1 X94.612 Y129.114 E4.44538
G1 X93.841 Y128.612 E4.46374
G1 X93.116 Y128.044 E4.48212
G1 X92.443 Y127.415 E4.50051
G1 X91.828 Y126.731 E4.51886
G1 X91.274 Y125.996 E4.53723
G1 X90.786 Y125.215 E4.55561
G1 X90.367 Y124.395 E4.57398
G1 X90.021 Y123.542 E4.59235
G1 X89.751 Y122.662 E4.61072
G1 X89.558 Y121.761 E4.62911
G1 X89.444 Y120.848 E4.64747
G1 X89.413 Y120.277 E4.65889
G1 X89.4 Y119.658 E4.67124
G1 X89.401 Y100.531 E5.05294
G1 X89.41 Y99.866 E5.06621
G1 X89.462 Y98.946 E5.0846
G1 X89.594 Y98.035 E5.10297
G1 X89.805 Y97.139 E5.12134
G1 X90.092 Y96.264 E5.13972
G1 X90.455 Y95.418 E5.15809
G1 X90.889 Y94.606 E5.17646
G1 X91.392 Y93.835 E5.19483
G1 X91.961 Y93.111 E5.21321
G1 X92.589 Y92.439 E5.23157
G1 X93.274 Y91.823 E5.24995
G1 X94.01 Y91.27 E5.26832
G1 X94.791 Y90.782 E5.2867
G1 X95.611 Y90.364 E5.30507
G1 X96.465 Y90.019 E5.32345
G1 X97.345 Y89.749 E5.34182
G1 X98.245 Y89.557 E5.36018
G1 X99.159 Y89.443 E5.37856
G1 X99.712 Y89.413 E5.38961
G1 X100.33 Y89.4 E5.40195
G1 X119.445 Y89.401 E5.78341
G1 X120.143 Y89.411 E5.79734
G0 F6000 X120.149 Y89.011
G1 F1200 X121.085 Y89.065 E5.81605
G1 X122.013 Y89.197 E5.83476
G1 X122.927 Y89.409 E5.85348
G1 X123.819 Y89.698 E5.87219
G1 X124.684 Y90.061 E5.89091
G1 X125.514 Y90.497 E5.90962
G1 X126.305 Y91.002 E5.92835
G1 X127.049 Y91.573 E5.94707
G1 X127.742 Y92.205 E5.96578
G1 X128.379 Y92.893 E5.98449
G1 X128.954 Y93.634 E6.00321
G1 X129.465 Y94.42 E6.02192
G1 X129.907 Y95.248 E6.04065
G1 X130.276 Y96.11 E6.05936
G1 X130.571 Y97 E6.07807
G1 X130.789 Y97.912 E6.09679
G1 X130.929 Y98.84 E6.11552
G1 X130.987 Y99.701 E6.13274
G1 X131 Y100.33 E6.14529
G1 X130.999 Y119.4 E6.52586
G1 X130.99 Y120.127 E6.54036
G1 X130.939 Y121.064 E6.55909
G1 X130.807 Y121.992 E6.5778
G1 X130.598 Y122.906 E6.59651
G1 X130.311 Y123.799 E6.61523
G1 X129.949 Y124.665 E6.63396
G1 X129.515 Y125.496 E6.65267
G1 X129.011 Y126.287 E6.67138
G1 X128.442 Y127.032 E6.69009
G1 X127.811 Y127.727 E6.70882
G1 X127.124 Y128.365 E6.72753
G1 X126.385 Y128.942 E6.74624
G1 X125.599 Y129.454 E6.76496
G1 X124.773 Y129.897 E6.78367
G1 X123.911 Y130.269 E6.8024
G1 X123.022 Y130.565 E6.8211
G1 X122.11 Y130.785 E6.83982
G1 X121.183 Y130.926 E6.85854
G1 X120.299 Y130.987 E6.87622
G1 X119.67 Y131 E6.88877
G1 X100.565 Y130.999 E7.27004
G1 X99.867 Y130.99 E7.28397
G1 X98.931 Y130.938 E7.30267
G1 X98.002 Y130.806 E7.3214
G1 X97.088 Y130.596 E7.34011
G1 X96.195 Y130.309 E7.35883
G1 X95.33 Y129.946 E7.37755
G1 X94.499 Y129.512 E7.39626
G1 X93.708 Y129.008 E7.41498
G1 X92.963 Y128.438 E7.4337
G1 X92.269 Y127.807 E7.45242
G1 X91.632 Y127.12 E7.47111
G1 X91.055 Y126.38 E7.48984
G1 X90.543 Y125.594 E7.50856
G1 X90.1 Y124.767 E7.52728
G1 X89.729 Y123.906 E7.54599
G1 X89.433 Y123.016 E7.56471
G1 X89.214 Y122.104 E7.58343
G1 X89.073 Y121.177 E7.60214
G1 X89.013 Y120.288 E7.61992
G1 X89 Y119.658 E7.63249
G1 X89.001 Y100.525 E8.01431
G1 X89.01 Y99.86 E8.02759
G1 X89.063 Y98.924 E8.0463
G1 X89.195 Y97.995 E8.06502
G1 X89.406 Y97.081 E8.08374
G1 X89.694 Y96.189 E8.10245
G1 X90.057 Y95.324 E8.12117
G1 X90.492 Y94.493 E8.13988
G1 X90.996 Y93.703 E8.15858
G1 X91.566 Y92.958 E8.1773
G1 X92.198 Y92.264 E8.19604
G1 X92.886 Y91.627 E8.21475
G1 X93.626 Y91.051 E8.23346
G1 X94.412 Y90.539 E8.25218
G1 X95.239 Y90.097 E8.27089
G1 X96.101 Y89.727 E8.28961
G1 X96.991 Y89.431 E8.30833
G1 X97.903 Y89.213 E8.32704
G1 X98.83 Y89.072 E8.34576
G1 X99.701 Y89.013 E8.36318
G1 X100.33 Y89 E8.37573
G1 X119.451 Y89.001 E8.75731
G1 X120.149 Y89.011 E8.77124
G1 F1500 E2.77124
;MESH:xyzCalibration_cube.stl
G0 F6000 X119.586 Y99.335
G0 X119.586 Y100.414
G0 X118.818 Y118.818
G0 X101 Y119
;TYPE:WALL-INNER
G1 F1500 E8.77124
G1 F1200 X101 Y101 E9.13045
G1 X119 Y101 E9.48966
G1 X119 Y119 E9.84887
G1 X101 Y119 E10.20808
G0 F6000 X100.6 Y119.4
G1 F1200 X100.6 Y100.6 E10.58326
G1 X119.4 Y100.6 E10.95843
G1 X119.4 Y119.4 E11.3336
G1 X100.6 Y119.4 E11.70878
G0 F6000 X100.2 Y119.8
;TYPE:WALL-OUTER
G1 F1200 X100.2 Y100.2 E12.09992
G1 X119.8 Y100.2 E12.49106
G1 X119.8 Y119.8 E12.8822
G1 X100.2 Y119.8 E13.27334
G0 F6000 X100.47 Y119.53
G0 X101.11 Y118.61
G0 X101.39 Y118.61
;TYPE:SKIN
G1 F1200 X101.39 Y101.39 E13.61698
G1 X118.61 Y101.39 E13.96062
G1 X118.61 Y118.61 E14.30427
G1 X101.39 Y118.61 E14.64791
G0 F6000 X102.044 Y118.449
G1 F1200 X101.549 Y117.954 E14.66188
G0 F6000 X101.549 Y117.388
G1 F1200 X102.61 Y118.449 E14.69182
G0 F6000 X103.176 Y118.449
G1 F1200 X101.549 Y116.823 E14.73773
G0 F6000 X101.549 Y116.257
G1 F1200 X103.741 Y118.449 E14.79959
G0 F6000 X104.307 Y118.449
G1 F1200 X101.549 Y115.691 E14.87743
G0 F6000 X101.549 Y115.126
G1 F1200 X104.873 Y118.449 E14.97122
G0 F6000 X105.438 Y118.449
G1 F1200 X101.549 Y114.56 E15.08098
G0 F6000 X101.549 Y113.994
G1 F1200 X106.004 Y118.449 E15.20671
G0 F6000 X106.57 Y118.449
G1 F1200 X101.549 Y113.429 E15.3484
G0 F6000 X101.549 Y112.863
G1 F1200 X107.135 Y118.449 E15.50605
G0 F6000 X107.701 Y118.449
G1 F1200 X101.549 Y112.297 E15.67967
G0 F6000 X101.549 Y111.732
G1 F1200 X108.267 Y118.449 E15.86925
G0 F6000 X108.832 Y118.449
G1 F1200 X101.549 Y111.166 E16.07479
G0 F6000 X101.549 Y110.6
G1 F1200 X109.398 Y118.449 E16.29631
G0 F6000 X109.964 Y118.449
G1 F1200 X101.549 Y110.035 E16.53379
G0 F6000 X101.549 Y109.469
G1 F1200 X110.529 Y118.449 E16.78722
G0 F6000 X111.095 Y118.449
G1 F1200 X101.549 Y108.903 E17.05663
G0 F6000 X101.549 Y108.337
G1 F1200 X111.661 Y118.449 E17.34201
G0 F6000 X112.227 Y118.449
G1 F1200 X101.549 Y107.772 E17.64335
G0 F6000 X101.549 Y107.206
G1 F1200 X112.792 Y118.449 E17.96066
G0 F6000 X113.358 Y118.449
G1 F1200 X101.549 Y106.64 E18.29393
G0 F6000 X101.549 Y106.075
G1 F1200 X113.924 Y118.449 E18.64317
G0 F6000 X114.489 Y118.449
G1 F1200 X101.549 Y105.509 E19.00836
G0 F6000 X101.549 Y104.943
G1 F1200 X115.055 Y118.449 E19.38953
G0 F6000 X115.621 Y118.449
G1 F1200 X101.549 Y104.378 E19.78666
G0 F6000 X101.549 Y103.812
G1 F1200 X116.186 Y118.449 E20.19975
G0 F6000 X116.752 Y118.449
G1 F1200 X101.549 Y103.246 E20.62881
G0 F6000 X101.549 Y102.681
G1 F1200 X117.318 Y118.449 E21.07383
G0 F6000 X117.883 Y118.449
G1 F1200 X101.549 Y102.115 E21.53481
G0 F6000 X101.549 Y101.549
G1 F1200 X118.449 Y118.449 E22.01176
G0 F6000 X118.449 Y117.883
G1 F1200 X102.115 Y101.549 E22.47274
G0 F6000 X102.681 Y101.549
G1 F1200 X118.449 Y117.318 E22.91777
G0 F6000 X118.449 Y116.752
G1 F1200 X103.246 Y101.549 E23.34683
G0 F6000 X103.812 Y101.549
G1 F1200 X118.449 Y116.186 E23.75991
G0 F6000 X118.449 Y115.621
G1 F1200 X104.378 Y101.549 E24.15704
G0 F6000 X104.943 Y101.549
G1 F1200 X118.449 Y115.055 E24.53821
G0 F6000 X118.449 Y114.489
G1 F1200 X105.509 Y101.549 E24.90341
G0 F6000 X106.075 Y101.549
G1 F1200 X118.449 Y113.924 E25.25264
G0 F6000 X118.449 Y113.358
G1 F1200 X106.64 Y101.549 E25.58592
G0 F6000 X107.206 Y101.549
G1 F1200 X118.449 Y112.792 E25.90322
G0 F6000 X118.449 Y112.227
G1 F1200 X107.772 Y101.549 E26.20456
G0 F6000 X108.337 Y101.549
G1 F1200 X118.449 Y111.661 E26.48994
G0 F6000 X118.449 Y111.095
G1 F1200 X108.903 Y101.549 E26.75935
G0 F6000 X109.469 Y101.549
G1 F1200 X118.449 Y110.529 E27.01279
G0 F6000 X118.449 Y109.964
G1 F1200 X110.035 Y101.549 E27.25026
G0 F6000 X110.6 Y101.549
G1 F1200 X118.449 Y109.398 E27.47178
G0 F6000 X118.449 Y108.832
G1 F1200 X111.166 Y101.549 E27.67732
G0 F6000 X111.732 Y101.549
G1 F1200 X118.449 Y108.267 E27.8669
G0 F6000 X118.449 Y107.701
G1 F1200 X112.297 Y101.549 E28.04052
G0 F6000 X112.863 Y101.549
G1 F1200 X118.449 Y107.135 E28.19817
G0 F6000 X118.449 Y106.57
G1 F1200 X113.429 Y101.549 E28.33986
G0 F6000 X113.994 Y101.549
G1 F1200 X118.449 Y106.004 E28.46559
G0 F6000 X118.449 Y105.438
G1 F1200 X114.56 Y101.549 E28.57535
G0 F6000 X115.126 Y101.549
G1 F1200 X118.449 Y104.873 E28.66915
G0 F6000 X118.449 Y104.307
G1 F1200 X115.691 Y101.549 E28.74698
G0 F6000 X116.257 Y101.549
G1 F1200 X118.449 Y103.741 E28.80885
G0 F6000 X118.449 Y103.176
G1 F1200 X116.823 Y101.549 E28.85475
G0 F6000 X117.388 Y101.549
G1 F1200 X118.449 Y102.61 E28.88469
G0 F6000 X118.449 Y102.044
G1 F1200 X117.954 Y101.549 E28.89866
M104 S205
G0 F6000 X117.954 Y100.81
G1 F1500 E22.89866
;MESH:NONMESH
G0 F300 X117.954 Y100.81 Z0.24
G0 F6000 X101.182 Y101.182
G0 X101 Y119
;TIME_ELAPSED:84.005662
;LAYER:1
M140 S65
M106 S85
;TYPE:WALL-INNER
;MESH:xyzCalibration_cube.stl
G1 F1500 E28.89866
G1 F1350 X101 Y101 E29.25787
G1 X119 Y101 E29.61708
G1 X119 Y119 E29.97629
G1 X101 Y119 E30.3355
G0 F7500 X100.6 Y119.4
G1 F1350 X100.6 Y100.6 E30.71067
G1 X119.4 Y100.6 E31.08585
G1 X119.4 Y119.4 E31.46102
G1 X100.6 Y119.4 E31.8362
G0 F7500 X100.2 Y119.8
;TYPE:WALL-OUTER
G1 F1350 X100.2 Y100.2 E32.22734
G1 X119.8 Y100.2 E32.61848
G1 X119.8 Y119.8 E33.00961
G1 X100.2 Y119.8 E33.40075
G0 F7500 X100.47 Y119.53
G0 X101.11 Y118.61
G0 X101.39 Y118.61
;TYPE:SKIN
G1 F1350 X101.39 Y101.39 E33.7444
G1 X118.61 Y101.39 E34.08804
G1 X118.61 Y118.61 E34.43169
G1 X101.39 Y118.61 E34.77533
G0 F7500 X101.11 Y118.61
G0 X101.11 Y102.097
G0 X101.549 Y102.097
G1 F1350 X102.097 Y101.549 E34.79079
G0 F7500 X102.662 Y101.549
G1 F1350 X101.549 Y102.662 E34.82221
G0 F7500 X101.549 Y103.228
G1 F1350 X103.228 Y101.549 E34.86959
G0 F7500 X103.794 Y101.549
G1 F1350 X101.549 Y103.794 E34.93295
G0 F7500 X101.549 Y104.359
G1 F1350 X104.359 Y101.549 E35.01225
G0 F7500 X104.925 Y101.549
G1 F1350 X101.549 Y104.925 E35.10753
G0 F7500 X101.549 Y105.491
G1 F1350 X105.491 Y101.549 E35.21878
G0 F7500 X106.056 Y101.549
G1 F1350 X101.549 Y106.056 E35.34598
G0 F7500 X101.549 Y106.622
G1 F1350 X106.622 Y101.549 E35.48915
G0 F7500 X107.188 Y101.549
G1 F1350 X101.549 Y107.188 E35.6483
G0 F7500 X101.549 Y107.753
G1 F1350 X107.753 Y101.549 E35.82339
G0 F7500 X108.319 Y101.549
G1 F1350 X101.549 Y108.319 E36.01445
G0 F7500 X101.549 Y108.885
G1 F1350 X108.885 Y101.549 E36.22149
G0 F7500 X109.45 Y101.549
G1 F1350 X101.549 Y109.45 E36.44447
G0 F7500 X101.549 Y110.016
G1 F1350 X110.016 Y101.549 E36.68343
G0 F7500 X110.582 Y101.549
G1 F1350 X101.549 Y110.582 E36.93836
G0 F7500 X101.549 Y111.147
G1 F1350 X111.147 Y101.549 E37.20924
G0 F7500 X111.713 Y101.549
G1 F1350 X101.549 Y111.713 E37.49609
G0 F7500 X101.549 Y112.279
G1 F1350 X112.279 Y101.549 E37.79891
G0 F7500 X112.845 Y101.549
G1 F1350 X101.549 Y112.845 E38.11771
G0 F7500 X101.549 Y113.41
G1 F1350 X113.41 Y101.549 E38.45245
G0 F7500 X113.976 Y101.549
G1 F1350 X101.549 Y113.976 E38.80317
G0 F7500 X101.549 Y114.542
G1 F1350 X114.542 Y101.549 E39.16986
G0 F7500 X115.107 Y101.549
G1 F1350 X101.549 Y115.107 E39.55249
G0 F7500 X101.549 Y115.673
G1 F1350 X115.673 Y101.549 E39.9511
G0 F7500 X116.239 Y101.549
G1 F1350 X101.549 Y116.239 E40.36569
G0 F7500 X101.549 Y116.804
G1 F1350 X116.804 Y101.549 E40.79622
G0 F7500 X117.37 Y101.549
G1 F1350 X101.549 Y117.37 E41.24272
G0 F7500 X101.549 Y117.936
G1 F1350 X117.936 Y101.549 E41.7052
G0 F7500 X118.449 Y101.602
