;FLAVOR:Marlin
;TIME:11242
;Filament used: 4.66204m
;Layer height: 0.16
;MINX:64
;MINY:59.7
;MINZ:0.2
;MAXX:156.001
;MAXY:160.3
;MAXZ:14.96
;Generated with Cura_SteamEngine 4.6.1
M82 ;absolute extrusion mode
M140 S70 ; start heating the bed to what is set in Cura
M104 S215 T0 ; start heating T0 to what is set in Cura
G92 E0 ; Reset Extruder
M280 P0 S160 ; BLTouch alarm release
G4 P100 ; delay for BLTouch
G28 ; home
G29 ; auto bed leveling
;Wait until everything is hot
M190 S70
M109 S215 T0
G1 Z2.0 F3000 ; Move Z Axis up little to prevent scratching of Heat Bed
G1 X0.1 Y20 Z0.3 F5000.0 ; Move to start position
G1 X0.1 Y200.0 Z0.3 F1500.0 E15 ; Draw the first line
G1 X0.4 Y200.0 Z0.3 F5000.0 ; Move to side a little
G1 X0.4 Y20 Z0.3 F1500.0 E30 ; Draw the second line
G92 E0 ; Reset Extruder
G1 Z2.0 F3000 ; Move Z Axis up little to prevent scratching of Heat Bed
G1 X5 Y20 Z0.3 F5000.0 ; Move over to prevent blob squish
G92 E0
G92 E0
G1 F1500 E-6
;LAYER_COUNT:95
;LAYER:0
M107
G0 F6000 X143.477 Y60.51 Z0.2
;TYPE:SKIRT
G1 F1500 E0
G1 F900 X144.082 Y60.536 E0.02014
G1 X144.422 Y60.561 E0.03148
G1 X145.319 Y60.667 E0.06152
G1 X146.358 Y60.893 E0.09689
G1 X146.622 Y60.965 E0.10599
G1 X147.482 Y61.241 E0.13603
G1 X148.51 Y61.688 E0.17331
G1 X148.859 Y61.863 E0.1863
G1 X149.648 Y62.303 E0.21635
G1 X150.394 Y62.811 E0.24636
G1 X151.06 Y63.355 E0.27497
G1 X151.364 Y63.625 E0.28849
G1 X152.012 Y64.254 E0.31853
G1 X152.602 Y64.938 E0.34857
G1 X152.904 Y65.34 E0.36529
G1 X153.032 Y65.52 E0.37264
G1 X153.569 Y66.359 E0.40577
G1 X153.714 Y66.612 E0.41547
G1 X154.128 Y67.415 E0.44552
G1 X154.545 Y68.471 E0.48328
G1 X154.62 Y68.697 E0.4912
G1 X154.866 Y69.566 E0.52124
G1 X155.029 Y70.418 E0.55009
G1 X155.071 Y70.702 E0.55964
G1 X155.179 Y71.993 E0.60273
G1 X155.2 Y73.152 E0.64128
G1 X155.201 Y74.497 E0.68602
G1 X155.2 Y102.73 E1.62505
G1 X155.183 Y103.701 E1.65735
G1 X155.163 Y104.15 E1.6723
G1 X155.058 Y105.896 E1.73048
G1 X154.979 Y108.422 E1.81453
G1 X154.97 Y110.956 E1.89881
G1 X155.034 Y113.472 E1.98252
G1 X155.119 Y114.957 E2.032
G1 X155.176 Y116.372 E2.0791
G1 X155.2 Y117.744 E2.12474
G1 X155.199 Y147.095 E3.10096
G1 X155.19 Y147.769 E3.12338
G1 X155.165 Y148.366 E3.14325
G1 X155.141 Y148.699 E3.15435
G1 X155.036 Y149.596 E3.18439
G1 X154.818 Y150.61 E3.21889
G1 X154.745 Y150.882 E3.22825
G1 X154.473 Y151.743 E3.25829
G1 X154.017 Y152.8 E3.29657
G1 X153.844 Y153.146 E3.30944
G1 X153.405 Y153.935 E3.33947
G1 X152.898 Y154.682 E3.3695
G1 X152.356 Y155.348 E3.39806
G1 X152.084 Y155.655 E3.4117
G1 X151.455 Y156.304 E3.44176
G1 X150.772 Y156.895 E3.4718
G1 X150.347 Y157.213 E3.48946
G1 X150.165 Y157.342 E3.49688
G1 X149.343 Y157.867 E3.52932
G1 X149.092 Y158.011 E3.53894
G1 X148.289 Y158.426 E3.569
G1 X147.191 Y158.857 E3.60824
G1 X146.962 Y158.932 E3.61625
G1 X146.092 Y159.175 E3.6463
G1 X145.424 Y159.309 E3.66896
G1 X144.529 Y159.431 E3.699
G1 X143.828 Y159.471 E3.72235
G1 X142.455 Y159.5 E3.76803
G1 X77.307 Y159.5 E5.93486
G1 X76.523 Y159.49 E5.96094
G1 X75.916 Y159.463 E5.98115
G1 X75.577 Y159.438 E5.99245
G1 X74.68 Y159.332 E6.02249
G1 X73.653 Y159.109 E6.05745
G1 X73.388 Y159.037 E6.06658
G1 X72.527 Y158.762 E6.09664
G1 X71.49 Y158.312 E6.13424
G1 X71.141 Y158.137 E6.14723
G1 X70.352 Y157.697 E6.17727
G1 X69.606 Y157.189 E6.20729
G1 X68.94 Y156.645 E6.2359
G1 X68.636 Y156.375 E6.24942
G1 X67.988 Y155.746 E6.27945
G1 X67.398 Y155.062 E6.3095
G1 X67.087 Y154.647 E6.32675
G1 X66.958 Y154.465 E6.33417
G1 X66.43 Y153.639 E6.36677
G1 X66.285 Y153.386 E6.37647
G1 X65.871 Y152.583 E6.40652
G1 X65.442 Y151.489 E6.4456
G1 X65.366 Y151.257 E6.45372
G1 X65.123 Y150.388 E6.48374
G1 X65.007 Y149.815 E6.50318
G1 X64.972 Y149.612 E6.51003
G1 X64.858 Y148.716 E6.54007
G1 X64.826 Y148.097 E6.56069
G1 X64.8 Y146.755 E6.60533
G1 X64.801 Y117.363 E7.58291
G1 X64.819 Y116.382 E7.61555
G1 X64.838 Y115.952 E7.62986
G1 X64.947 Y114.108 E7.6913
G1 X65.026 Y111.573 E7.77566
G1 X65.033 Y109.038 E7.85997
G1 X64.969 Y106.525 E7.94358
G1 X64.881 Y105.043 E7.99296
G1 X64.824 Y103.628 E8.04006
G1 X64.8 Y102.256 E8.0857
G1 X64.801 Y72.864 E9.06328
G1 X64.81 Y72.223 E9.08461
G1 X64.836 Y71.62 E9.10468
G1 X64.861 Y71.279 E9.11605
G1 X64.967 Y70.382 E9.14609
G1 X65.196 Y69.332 E9.18184
G1 X65.268 Y69.069 E9.19091
G1 X65.545 Y68.209 E9.22096
G1 X65.983 Y67.2 E9.25754
G1 X66.156 Y66.854 E9.27041
G1 X66.595 Y66.065 E9.30044
G1 X67.102 Y65.318 E9.33047
G1 X67.644 Y64.652 E9.35903
G1 X67.916 Y64.345 E9.37267
G1 X68.545 Y63.696 E9.40273
G1 X69.228 Y63.105 E9.43277
G1 X69.653 Y62.787 E9.45043
G1 X69.835 Y62.658 E9.45785
G1 X70.657 Y62.133 E9.49029
G1 X70.908 Y61.989 E9.49991
G1 X71.711 Y61.574 E9.52997
G1 X72.809 Y61.143 E9.56921
G1 X73.038 Y61.068 E9.57722
G1 X73.908 Y60.825 E9.60726
G1 X74.665 Y60.679 E9.63291
G1 X74.932 Y60.638 E9.64189
G1 X75.83 Y60.541 E9.67193
G1 X76.288 Y60.522 E9.68718
G1 X77.545 Y60.5 E9.72899
G1 X142.693 Y60.5 E11.89582
G1 X142.836 Y60.501 E11.90058
G1 X143.477 Y60.51 E11.9219
G0 F6000 X143.483 Y60.11
G1 F900 X144.111 Y60.138 E11.94281
G1 X144.451 Y60.163 E11.95415
G1 X145.366 Y60.27 E11.98479
G1 X146.463 Y60.508 E12.02213
G1 X146.727 Y60.58 E12.03123
G1 X147.604 Y60.86 E12.06185
G1 X148.689 Y61.331 E12.10119
G1 X149.038 Y61.506 E12.11417
G1 X149.843 Y61.954 E12.14481
G1 X150.605 Y62.47 E12.17542
G1 X151.326 Y63.056 E12.20632
G1 X151.63 Y63.326 E12.21985
G1 X152.291 Y63.966 E12.25045
G1 X152.894 Y64.662 E12.28108
G1 X153.23 Y65.108 E12.29965
G1 X153.358 Y65.288 E12.307
G1 X153.916 Y66.16 E12.34143
G1 X154.061 Y66.413 E12.35113
G1 X154.483 Y67.231 E12.38174
G1 X154.924 Y68.345 E12.42159
G1 X154.999 Y68.571 E12.42951
G1 X155.251 Y69.457 E12.46015
G1 X155.425 Y70.359 E12.4907
G1 X155.467 Y70.643 E12.50025
G1 X155.579 Y71.986 E12.54507
G1 X155.6 Y73.152 E12.58386
G1 X155.601 Y74.497 E12.6286
G1 X155.6 Y102.735 E13.5678
G1 X155.582 Y103.717 E13.60046
G1 X155.562 Y104.174 E13.61568
G1 X155.458 Y105.897 E13.67309
G1 X155.379 Y108.436 E13.75758
G1 X155.371 Y110.948 E13.84113
G1 X155.434 Y113.469 E13.925
G1 X155.518 Y114.939 E13.97398
G1 X155.576 Y116.365 E14.02144
G1 X155.6 Y117.744 E14.06732
G1 X155.599 Y147.101 E15.04373
G1 X155.59 Y147.775 E15.06615
G1 X155.564 Y148.395 E15.08679
G1 X155.54 Y148.728 E15.0979
G1 X155.434 Y149.643 E15.12853
G1 X155.205 Y150.714 E15.16496
G1 X155.132 Y150.986 E15.17433
G1 X154.855 Y151.864 E15.20495
G1 X154.375 Y152.978 E15.24529
G1 X154.202 Y153.324 E15.25816
G1 X153.755 Y154.129 E15.28878
G1 X153.24 Y154.892 E15.3194
G1 X152.655 Y155.613 E15.35028
G1 X152.383 Y155.92 E15.36393
G1 X151.743 Y156.582 E15.39455
G1 X151.048 Y157.186 E15.42518
G1 X150.579 Y157.539 E15.4447
G1 X150.397 Y157.668 E15.45212
G1 X149.542 Y158.214 E15.48586
G1 X149.291 Y158.358 E15.49549
G1 X148.473 Y158.781 E15.52611
G1 X147.315 Y159.238 E15.56752
G1 X147.086 Y159.313 E15.57554
G1 X146.2 Y159.561 E15.60614
G1 X145.496 Y159.702 E15.63002
G1 X144.584 Y159.828 E15.66064
G1 X143.837 Y159.871 E15.68552
G1 X142.455 Y159.9 E15.7315
G1 X77.307 Y159.9 E17.89833
G1 X76.517 Y159.89 E17.92461
G1 X75.886 Y159.862 E17.94562
G1 X75.547 Y159.837 E17.95692
G1 X74.633 Y159.73 E17.98753
G1 X73.548 Y159.495 E18.02445
G1 X73.283 Y159.423 E18.03359
G1 X72.406 Y159.143 E18.06421
G1 X71.311 Y158.669 E18.10389
G1 X70.962 Y158.494 E18.11688
G1 X70.157 Y158.046 E18.14752
G1 X69.395 Y157.53 E18.17813
G1 X68.674 Y156.944 E18.20903
G1 X68.37 Y156.674 E18.22255
G1 X67.709 Y156.034 E18.25315
G1 X67.106 Y155.338 E18.28378
G1 X66.761 Y154.879 E18.30288
G1 X66.632 Y154.697 E18.3103
G1 X66.083 Y153.838 E18.34421
G1 X65.938 Y153.585 E18.35391
G1 X65.516 Y152.767 E18.38452
G1 X65.062 Y151.614 E18.42574
G1 X64.986 Y151.382 E18.43386
G1 X64.737 Y150.495 E18.4645
G1 X64.613 Y149.883 E18.48527
G1 X64.578 Y149.68 E18.49212
G1 X64.461 Y148.767 E18.52273
G1 X64.426 Y148.105 E18.54478
G1 X64.4 Y146.755 E18.58969
G1 X64.401 Y117.357 E19.56747
G1 X64.419 Y116.366 E19.60044
G1 X64.439 Y115.928 E19.61502
G1 X64.547 Y114.107 E19.6757
G1 X64.626 Y111.559 E19.76048
G1 X64.633 Y109.047 E19.84403
G1 X64.568 Y106.531 E19.92774
G1 X64.482 Y105.06 E19.97675
G1 X64.424 Y103.635 E20.02419
G1 X64.4 Y102.256 E20.07006
G1 X64.401 Y72.858 E21.04784
G1 X64.41 Y72.217 E21.06916
G1 X64.437 Y71.591 E21.09
G1 X64.462 Y71.25 E21.10138
G1 X64.569 Y70.336 E21.13198
G1 X64.81 Y69.226 E21.16976
G1 X64.882 Y68.963 E21.17883
G1 X65.164 Y68.087 E21.20944
G1 X65.625 Y67.022 E21.24804
G1 X65.798 Y66.676 E21.2609
G1 X66.245 Y65.871 E21.29153
G1 X66.76 Y65.108 E21.32215
G1 X67.345 Y64.387 E21.35303
G1 X67.617 Y64.08 E21.36667
G1 X68.257 Y63.418 E21.3973
G1 X68.952 Y62.814 E21.42792
G1 X69.421 Y62.461 E21.44744
G1 X69.603 Y62.332 E21.45486
G1 X70.458 Y61.786 E21.48861
G1 X70.709 Y61.642 E21.49823
G1 X71.527 Y61.219 E21.52886
G1 X72.685 Y60.762 E21.57026
G1 X72.914 Y60.687 E21.57828
G1 X73.8 Y60.439 E21.60888
G1 X74.604 Y60.284 E21.63611
G1 X74.871 Y60.243 E21.6451
G1 X75.786 Y60.143 E21.67571
G1 X76.281 Y60.122 E21.69219
G1 X77.545 Y60.1 E21.73424
G1 X142.693 Y60.1 E23.90107
G1 X142.842 Y60.101 E23.90603
G1 X143.483 Y60.11 E23.92735
G0 F6000 X143.488 Y59.71
G1 F900 X144.141 Y59.739 E23.94909
G1 X144.481 Y59.764 E23.96043
G1 X145.412 Y59.872 E23.9916
G1 X146.568 Y60.122 E24.03094
G1 X146.832 Y60.194 E24.04004
G1 X147.726 Y60.479 E24.07125
G1 X148.869 Y60.973 E24.11266
G1 X149.218 Y61.148 E24.12565
G1 X150.037 Y61.604 E24.15683
G1 X150.815 Y62.128 E24.18802
G1 X151.592 Y62.757 E24.22127
G1 X151.896 Y63.027 E24.2348
G1 X152.57 Y63.679 E24.26599
G1 X153.186 Y64.386 E24.29718
G1 X153.556 Y64.876 E24.3176
G1 X153.684 Y65.056 E24.32494
G1 X154.263 Y65.961 E24.36068
G1 X154.408 Y66.214 E24.37038
G1 X154.839 Y67.047 E24.40157
G1 X155.304 Y68.219 E24.44351
G1 X155.379 Y68.445 E24.45143
G1 X155.636 Y69.347 E24.48262
G1 X155.821 Y70.301 E24.51494
G1 X155.863 Y70.585 E24.52449
G1 X155.979 Y71.978 E24.57098
G1 X156 Y73.152 E24.61004
G1 X156.001 Y74.497 E24.65477
G1 X156 Y102.741 E25.59417
G1 X155.982 Y103.733 E25.62717
G1 X155.961 Y104.198 E25.64265
G1 X155.859 Y105.899 E25.69933
G1 X155.778 Y108.449 E25.78419
G1 X155.771 Y110.939 E25.867
G1 X155.834 Y113.467 E25.95111
G1 X155.918 Y114.922 E25.99959
G1 X155.976 Y116.357 E26.04735
G1 X156 Y117.744 E26.09349
G1 X155.999 Y147.106 E27.07008
G1 X155.99 Y147.78 E27.09249
G1 X155.963 Y148.424 E27.11393
G1 X155.939 Y148.757 E27.12504
G1 X155.831 Y149.688 E27.15621
G1 X155.591 Y150.817 E27.1946
G1 X155.518 Y151.089 E27.20397
G1 X155.237 Y151.984 E27.23517
G1 X154.733 Y153.157 E27.27763
G1 X154.56 Y153.503 E27.2905
G1 X154.105 Y154.324 E27.32172
G1 X153.582 Y155.102 E27.3529
G1 X152.954 Y155.879 E27.38612
G1 X152.682 Y156.186 E27.39977
G1 X152.031 Y156.861 E27.43096
G1 X151.325 Y157.477 E27.46212
G1 X150.81 Y157.865 E27.48357
G1 X150.628 Y157.994 E27.49099
G1 X149.741 Y158.561 E27.526
G1 X149.49 Y158.705 E27.53563
G1 X148.657 Y159.137 E27.56684
G1 X147.44 Y159.618 E27.61036
G1 X147.211 Y159.693 E27.61837
G1 X146.308 Y159.946 E27.64957
G1 X145.76 Y160.061 E27.66819
G1 X145.568 Y160.096 E27.67468
G1 X144.639 Y160.224 E27.70587
G1 X143.846 Y160.271 E27.73229
G1 X142.455 Y160.3 E27.77857
G1 X77.307 Y160.3 E29.9454
G1 X76.512 Y160.29 E29.97184
G1 X75.857 Y160.261 E29.99365
G1 X75.518 Y160.236 E30.00495
G1 X74.586 Y160.127 E30.03616
G1 X73.443 Y159.881 E30.07505
G1 X73.178 Y159.809 E30.08418
G1 X72.284 Y159.525 E30.11538
G1 X71.131 Y159.027 E30.15716
G1 X70.782 Y158.852 E30.17014
G1 X69.963 Y158.396 E30.20132
G1 X69.185 Y157.872 E30.23252
G1 X68.408 Y157.243 E30.26577
G1 X68.104 Y156.973 E30.27929
G1 X67.43 Y156.321 E30.31048
G1 X66.814 Y155.614 E30.34167
G1 X66.435 Y155.11 E30.36264
G1 X66.306 Y154.928 E30.37006
G1 X65.736 Y154.037 E30.40524
G1 X65.591 Y153.784 E30.41494
G1 X65.16 Y152.951 E30.44614
G1 X64.682 Y151.738 E30.4895
G1 X64.606 Y151.506 E30.49762
G1 X64.352 Y150.603 E30.52882
G1 X64.219 Y149.951 E30.55095
G1 X64.184 Y149.748 E30.5578
G1 X64.064 Y148.818 E30.58899
G1 X64.027 Y148.114 E30.61244
G1 X64 Y146.755 E30.65765
G1 X64.001 Y117.351 E31.63563
G1 X64.019 Y116.35 E31.66893
G1 X64.039 Y115.904 E31.68378
G1 X64.148 Y114.07 E31.74488
G1 X64.226 Y111.546 E31.82887
G1 X64.233 Y109.021 E31.91285
G1 X64.17 Y106.565 E31.99457
G1 X64.082 Y105.077 E32.04415
G1 X64.024 Y103.643 E32.09188
G1 X64 Y102.256 E32.13802
G1 X64.001 Y72.853 E33.11597
G1 X64.01 Y72.212 E33.13729
G1 X64.038 Y71.562 E33.15893
G1 X64.063 Y71.221 E33.1703
G1 X64.172 Y70.289 E33.20151
G1 X64.424 Y69.12 E33.24128
G1 X64.496 Y68.857 E33.25035
G1 X64.782 Y67.964 E33.28154
G1 X65.267 Y66.843 E33.32216
G1 X65.44 Y66.497 E33.33503
G1 X65.895 Y65.676 E33.36625
G1 X66.418 Y64.898 E33.39743
G1 X67.046 Y64.121 E33.43066
G1 X67.318 Y63.814 E33.4443
G1 X67.969 Y63.139 E33.47549
G1 X68.675 Y62.523 E33.50666
G1 X69.19 Y62.135 E33.5281
G1 X69.372 Y62.006 E33.53552
G1 X70.259 Y61.439 E33.57054
G1 X70.51 Y61.295 E33.58016
G1 X71.343 Y60.863 E33.61137
G1 X72.56 Y60.382 E33.65489
G1 X72.789 Y60.307 E33.66291
G1 X73.692 Y60.054 E33.6941
G1 X74.543 Y59.888 E33.72294
G1 X74.81 Y59.847 E33.73192
G1 X75.743 Y59.745 E33.76314
G1 X76.273 Y59.722 E33.78078
G1 X77.545 Y59.7 E33.8231
G1 X142.693 Y59.7 E35.98993
G1 X142.847 Y59.701 E35.99505
G1 X143.488 Y59.71 E36.01637
G1 F1500 E30.01637
;MESH:Pirate2_v133.stl
G0 F6000 X145.664 Y72.27
G0 X145.631 Y103.698
G0 X145.336 Y104.464
G0 X144.982 Y104.915
G0 X144.302 Y105.369
G0 X144.057 Y105.464
G0 X110.035 Y105.456
G0 X82.752 Y142.767
G0 X84.482 Y142.082
G0 X83.769 Y144.579
G0 X83.397 Y145.203
G0 X81.93 Y146.878
;TYPE:WALL-INNER
G1 F1500 E36.01637
G1 F900 X82.456 Y146.689 E36.03496
G1 X82.907 Y146.444 E36.05203
G1 X83.352 Y146.112 E36.0705
G1 X83.743 Y145.708 E36.0892
G1 X84.038 Y145.286 E36.10632
G1 X84.288 Y144.792 E36.12474
G1 X84.297 Y144.761 E36.12581
G1 X84.457 Y144.259 E36.14334
G1 X84.538 Y143.754 E36.16035
G1 X84.542 Y143.198 E36.17884
G1 X84.459 Y142.644 E36.19747
G1 X84.304 Y142.153 E36.2146
G1 X84.065 Y141.656 E36.23294
G1 X83.743 Y141.193 E36.2517
G1 X83.387 Y140.823 E36.26877
G1 X82.952 Y140.483 E36.28714
G1 X82.459 Y140.211 E36.30586
G1 X81.975 Y140.037 E36.32297
G1 X81.434 Y139.926 E36.34134
G1 X80.877 Y139.9 E36.35989
G1 X80.318 Y139.963 E36.3786
G1 X79.823 Y140.101 E36.39569
G1 X79.315 Y140.322 E36.41411
G1 X78.844 Y140.627 E36.43278
G1 X78.46 Y140.97 E36.4499
G1 X78.105 Y141.394 E36.46829
G1 X77.817 Y141.873 E36.48688
G1 X77.623 Y142.351 E36.50404
G1 X77.493 Y142.891 E36.52252
G1 X77.448 Y143.449 E36.54113
G1 X77.487 Y143.961 E36.55821
G1 X77.606 Y144.5 E36.57657
G1 X77.815 Y145.024 E36.59534
G1 X78.079 Y145.464 E36.6124
G1 X78.424 Y145.896 E36.63079
G1 X78.842 Y146.27 E36.64945
G1 X79.273 Y146.551 E36.66656
G1 X79.774 Y146.782 E36.68491
G1 X80.315 Y146.937 E36.70363
G1 X80.826 Y146.995 E36.72073
G1 X81.376 Y146.981 E36.73903
G1 X81.93 Y146.878 E36.75777
G0 F6000 X81.825 Y146.491
G1 F900 X82.292 Y146.323 E36.77428
G1 X82.691 Y146.106 E36.78938
G1 X83.087 Y145.811 E36.80581
G1 X83.433 Y145.453 E36.82237
G1 X83.694 Y145.08 E36.83751
G1 X83.917 Y144.64 E36.85392
G1 X84.067 Y144.167 E36.87042
G1 X84.138 Y143.721 E36.88544
G1 X84.142 Y143.226 E36.90191
G1 X84.068 Y142.735 E36.91842
G1 X83.931 Y142.301 E36.93356
G1 X83.718 Y141.858 E36.94991
G1 X83.433 Y141.448 E36.96651
G1 X83.118 Y141.121 E36.98162
G1 X82.731 Y140.818 E36.99796
G1 X82.294 Y140.577 E37.01456
G1 X81.866 Y140.423 E37.02969
G1 X81.384 Y140.324 E37.04606
G1 X80.89 Y140.301 E37.0625
G1 X80.395 Y140.357 E37.07907
G1 X79.957 Y140.479 E37.0942
G1 X79.505 Y140.676 E37.1106
G1 X79.087 Y140.946 E37.12715
G1 X78.748 Y141.249 E37.14227
G1 X78.432 Y141.627 E37.15866
G1 X78.176 Y142.052 E37.17516
