;FLAVOR:Marlin
;TIME:10449
;Filament used: 4.57389m
;Layer height: 0.16
;MINX:74.75
;MINY:58.798
;MINZ:0.2
;MAXX:145.249
;MAXY:161.617
;MAXZ:41.88
;Generated with Cura_SteamEngine 4.6.1
M82 ;absolute extrusion mode
; Ender 3 Custom Start G-code
M140 S70 ; start heating the bed to what is set in Cura
M104 S210 T0 ; start heating T0 to what is set in Cura
G92 E0 ; Reset Extruder
G28 ; Home all axes
G29 ; Auto Level
;Wait until everything is hot
M190 S70
M109 S210 T0
G1 Z2.0 F3000 ; Move Z Axis up little to prevent scratching of Heat Bed
G1 X0.1 Y20 Z0.3 F5000.0 ; Move to start position
G1 X0.1 Y200.0 Z0.3 F1500.0 E15 ; Draw the first line
G1 X0.4 Y200.0 Z0.3 F5000.0 ; Move to side a little
G1 X0.4 Y20 Z0.3 F1500.0 E30 ; Draw the second line
G92 E0 ; Reset Extruder
G1 Z2.0 F3000 ; Move Z Axis up little to prevent scratching of Heat Bed
G1 X5 Y20 Z0.3 F5000.0 ; Move over to prevent blob squish
G92 E0
G92 E0
G1 F1500 E-6
;LAYER_COUNT:244
;LAYER:0
M107
G0 F6000 X120.907 Y59.787 Z0.2
;TYPE:SKIRT
G1 F1500 E0
G1 F1200 X121.784 Y59.999 E0.03001
G1 X122.64 Y60.288 E0.06006
G1 X123.467 Y60.652 E0.09011
G1 X124.07 Y60.975 E0.11286
G1 X124.201 Y61.051 E0.1179
G1 X124.961 Y61.539 E0.14794
G1 X125.675 Y62.091 E0.17796
G1 X126.338 Y62.705 E0.20801
G1 X126.943 Y63.375 E0.23804
G1 X127.487 Y64.096 E0.26808
G1 X127.966 Y64.862 E0.29813
G1 X128.374 Y65.667 E0.32814
G1 X128.71 Y66.506 E0.3582
G1 X128.889 Y67.069 E0.37785
G1 X129.155 Y67.999 E0.41003
G1 X129.242 Y68.324 E0.42122
G1 X129.433 Y69.086 E0.44734
G1 X129.604 Y69.909 E0.4753
G1 X129.684 Y70.397 E0.49175
G1 X130.131 Y72.949 E0.57792
G1 X130.634 Y75.403 E0.66124
G1 X131.214 Y77.875 E0.74569
G1 X131.876 Y80.381 E0.8319
G1 X132.587 Y82.791 E0.91547
G1 X133.364 Y85.173 E0.99881
G1 X134.648 Y88.72 E1.12427
G1 X134.76 Y89.057 E1.13608
G1 X134.889 Y89.472 E1.15054
G1 X135.193 Y90.536 E1.18734
G1 X135.277 Y90.849 E1.19812
G1 X135.392 Y91.306 E1.21379
G1 X135.573 Y92.191 E1.24384
G1 X135.675 Y93.088 E1.27387
G1 X135.7 Y93.877 E1.30012
G1 X135.691 Y94.885 E1.33365
G1 X135.668 Y95.98 E1.37008
G1 X135.687 Y98.518 E1.45449
G1 X135.778 Y101.087 E1.53999
G1 X135.936 Y103.565 E1.62258
G1 X136.174 Y106.147 E1.70882
G1 X136.475 Y108.642 E1.79241
G1 X136.851 Y111.154 E1.87689
G1 X137.293 Y113.629 E1.96051
G1 X137.816 Y116.137 E2.04572
G1 X138.416 Y118.666 E2.13217
G1 X138.723 Y119.846 E2.17272
G1 X143.947 Y139.351 E2.84432
G1 X144.117 Y140.019 E2.86725
G1 X144.301 Y140.904 E2.89732
G1 X144.406 Y141.801 E2.92735
G1 X144.43 Y142.351 E2.94566
G1 X144.449 Y143.477 E2.98312
G1 X144.449 Y149.008 E3.16708
G1 X144.439 Y149.744 E3.19156
G1 X144.387 Y150.645 E3.22158
G1 X144.255 Y151.539 E3.25164
G1 X144.06 Y152.363 E3.2798
G1 X143.994 Y152.598 E3.28792
G1 X143.86 Y153.037 E3.30319
G1 X143.758 Y153.346 E3.31401
G1 X143.437 Y154.191 E3.34407
G1 X143.043 Y155.003 E3.37409
G1 X142.578 Y155.778 E3.40415
G1 X142.047 Y156.508 E3.43418
G1 X141.454 Y157.188 E3.46419
G1 X141.053 Y157.586 E3.48298
G1 X140.759 Y157.862 E3.49639
G1 X140.074 Y158.45 E3.52641
G1 X139.34 Y158.975 E3.55643
G1 X138.407 Y159.514 E3.59227
G1 X138.193 Y159.623 E3.60026
G1 X137.371 Y159.997 E3.63029
G1 X136.519 Y160.296 E3.66032
G1 X136.014 Y160.435 E3.67774
G1 X135.719 Y160.508 E3.68785
G1 X134.834 Y160.686 E3.71788
G1 X133.936 Y160.785 E3.74793
G1 X133.462 Y160.805 E3.7637
G1 X132.746 Y160.817 E3.78752
G1 X130.796 Y160.817 E3.85238
G1 X130.133 Y160.809 E3.87443
G1 X129.231 Y160.758 E3.90448
G1 X128.478 Y160.654 E3.92976
G1 X128.156 Y160.597 E3.94064
G1 X127.839 Y160.535 E3.95138
G1 X127.415 Y160.446 E3.96579
G1 X126.864 Y160.315 E3.98463
G1 X126.303 Y160.164 E4.00395
G1 X123.717 Y159.504 E4.09272
G1 X121.244 Y158.945 E4.17705
G1 X118.766 Y158.461 E4.26102
G1 X116.293 Y158.049 E4.34441
G1 X113.73 Y157.696 E4.43046
G1 X111.229 Y157.424 E4.51414
G1 X108.688 Y157.219 E4.59892
G1 X106.16 Y157.088 E4.68312
G1 X103.625 Y157.028 E4.76746
G1 X101.058 Y157.038 E4.85284
G1 X98.562 Y157.121 E4.9359
G1 X96.029 Y157.276 E5.0203
G1 X93.026 Y157.551 E5.1206
G1 X91.846 Y157.678 E5.16008
G1 X90.939 Y157.735 E5.1903
G1 X90.095 Y157.749 E5.21838
G1 X87.311 Y157.748 E5.31097
G1 X86.613 Y157.738 E5.33419
G1 X85.711 Y157.685 E5.36424
G1 X84.552 Y157.497 E5.4033
G1 X84.146 Y157.407 E5.41713
G1 X83.273 Y157.173 E5.44719
G1 X82.425 Y156.862 E5.47723
G1 X81.608 Y156.478 E5.50726
G1 X80.828 Y156.023 E5.53729
G1 X80.045 Y155.465 E5.56927
G1 X79.42 Y154.959 E5.59602
G1 X78.753 Y154.35 E5.62606
G1 X78.143 Y153.684 E5.65609
G1 X77.594 Y152.967 E5.68613
G1 X77.11 Y152.204 E5.71618
G1 X76.696 Y151.402 E5.7462
G1 X76.387 Y150.656 E5.77306
G1 X76.285 Y150.379 E5.78288
G1 X76.129 Y149.92 E5.799
G1 X76.042 Y149.644 E5.80863
G1 X75.809 Y148.772 E5.83865
G1 X75.654 Y147.882 E5.86869
G1 X75.572 Y146.78 E5.90545
G1 X75.55 Y145.569 E5.94573
G1 X75.551 Y143.124 E6.02705
G1 X75.561 Y142.445 E6.04964
G1 X75.614 Y141.543 E6.07969
G1 X75.747 Y140.65 E6.10972
G1 X75.958 Y139.772 E6.13975
G1 X76.109 Y139.295 E6.15639
G1 X76.492 Y138.18 E6.19561
G1 X78.143 Y133.642 E6.35622
G1 X79.011 Y131.148 E6.44405
G1 X79.768 Y128.756 E6.5275
G1 X80.476 Y126.277 E6.61325
G1 X81.111 Y123.8 E6.6983
G1 X81.658 Y121.364 E6.78134
G1 X82.146 Y118.869 E6.86589
G1 X82.561 Y116.38 E6.94982
G1 X82.913 Y113.823 E7.03567
G1 X83.185 Y111.323 E7.11931
G1 X83.39 Y108.781 E7.20413
G1 X83.521 Y106.253 E7.28832
G1 X83.581 Y103.718 E7.37266
G1 X83.57 Y101.18 E7.45708
G1 X83.486 Y98.62 E7.54227
G1 X83.331 Y96.089 E7.62661
G1 X83.104 Y93.558 E7.71113
G1 X82.809 Y91.066 E7.79459
G1 X82.441 Y88.557 E7.87893
G1 X81.746 Y84.741 E8.00794
G1 X81.624 Y83.846 E8.03798
G1 X81.581 Y82.944 E8.06802
G1 X81.618 Y82.041 E8.09808
G1 X81.735 Y81.146 E8.1281
G1 X81.931 Y80.264 E8.15815
G1 X82.204 Y79.403 E8.18819
G1 X82.552 Y78.57 E8.21822
G1 X82.972 Y77.771 E8.24824
G1 X83.462 Y77.012 E8.27829
G1 X84.016 Y76.299 E8.30832
G1 X84.632 Y75.638 E8.33837
G1 X85.303 Y75.034 E8.3684
G1 X86.025 Y74.492 E8.39843
G1 X87.062 Y73.87 E8.43865
G1 X89.582 Y72.555 E8.53319
G1 X91.777 Y71.328 E8.61683
G1 X93.931 Y70.042 E8.70027
G1 X96.111 Y68.656 E8.78619
G1 X96.778 Y68.204 E8.81298
G1 X98.067 Y67.358 E8.86427
G1 X99.031 Y66.762 E8.90196
G1 X99.482 Y66.491 E8.91946
G1 X102.311 Y64.671 E9.03134
G1 X103.316 Y63.997 E9.07159
G1 X104.088 Y63.528 E9.10164
G1 X104.898 Y63.129 E9.13167
G1 X105.74 Y62.804 E9.16169
G1 X106.205 Y62.66 E9.17788
G1 X107.156 Y62.391 E9.21075
G1 X115.762 Y60.085 E9.50708
G1 X116.428 Y59.915 E9.52994
G1 X117.312 Y59.73 E9.55998
G1 X118.209 Y59.625 E9.59002
G1 X119.112 Y59.599 E9.62007
G1 X120.014 Y59.653 E9.65012
G1 X120.907 Y59.787 E9.68016
G0 F6000 X120.895 Y59.378
G1 F1200 X121.792 Y59.586 E9.71078
G1 X122.668 Y59.871 E9.74142
G1 X123.515 Y60.231 E9.77203
G1 X124.27 Y60.629 E9.80042
G1 X124.401 Y60.705 E9.80546
G1 X125.177 Y61.201 E9.83609
G1 X125.906 Y61.763 E9.8667
G1 X126.584 Y62.386 E9.89733
G1 X127.206 Y63.065 E9.92795
G1 X127.766 Y63.796 E9.95858
G1 X128.261 Y64.572 E9.9892
G1 X128.686 Y65.389 E10.01983
G1 X129.039 Y66.239 E10.05044
G1 X129.273 Y66.959 E10.07562
G1 X129.539 Y67.889 E10.10779
G1 X129.63 Y68.227 E10.11943
G1 X129.821 Y68.989 E10.14556
G1 X129.998 Y69.844 E10.1746
G1 X130.061 Y70.229 E10.18758
G1 X130.524 Y72.872 E10.27682
G1 X131.029 Y75.337 E10.36051
G1 X131.604 Y77.787 E10.44421
G1 X132.251 Y80.239 E10.52856
G1 X132.965 Y82.659 E10.61248
G1 X133.747 Y85.057 E10.69637
G1 X135.028 Y88.594 E10.82149
G1 X135.14 Y88.931 E10.8333
G1 X135.273 Y89.362 E10.8483
G1 X135.665 Y90.751 E10.8963
G1 X135.78 Y91.208 E10.91198
G1 X135.965 Y92.11 E10.9426
G1 X136.072 Y93.024 E10.97321
G1 X136.1 Y93.88 E11.0017
G1 X136.091 Y94.893 E11.03539
G1 X136.068 Y95.979 E11.07152
G1 X136.087 Y98.537 E11.1566
G1 X136.175 Y101.011 E11.23894
G1 X136.339 Y103.584 E11.32469
G1 X136.568 Y106.068 E11.40766
G1 X136.875 Y108.607 E11.49272
G1 X137.248 Y111.097 E11.57646
G1 X137.691 Y113.582 E11.66042
G1 X138.202 Y116.035 E11.74376
G1 X138.802 Y118.559 E11.83004
G1 X139.109 Y119.742 E11.87069
G1 X144.335 Y139.253 E12.54251
G1 X144.505 Y139.921 E12.56543
G1 X144.693 Y140.822 E12.59605
G1 X144.802 Y141.736 E12.62666
G1 X144.83 Y142.344 E12.64691
G1 X144.849 Y143.477 E12.68459
G1 X144.849 Y149.013 E12.86872
G1 X144.839 Y149.749 E12.8932
G1 X144.787 Y150.668 E12.92382
G1 X144.655 Y151.579 E12.95444
G1 X144.445 Y152.471 E12.98492
G1 X144.379 Y152.706 E12.99303
G1 X144.24 Y153.163 E13.00892
G1 X144.138 Y153.472 E13.01974
G1 X143.811 Y154.333 E13.05038
G1 X143.412 Y155.162 E13.08098
G1 X142.942 Y155.953 E13.11158
G1 X142.404 Y156.701 E13.14222
G1 X141.804 Y157.399 E13.17284
G1 X141.327 Y157.877 E13.1953
G1 X141.033 Y158.153 E13.20871
G1 X140.335 Y158.754 E13.23935
G1 X139.588 Y159.291 E13.26995
G1 X138.589 Y159.87 E13.30835
G1 X138.375 Y159.979 E13.31634
G1 X137.537 Y160.361 E13.34697
G1 X136.67 Y160.669 E13.37757
G1 X136.11 Y160.824 E13.3969
G1 X135.815 Y160.897 E13.407
G1 X134.913 Y161.079 E13.43761
G1 X133.998 Y161.182 E13.46823
G1 X133.469 Y161.205 E13.48585
G1 X132.746 Y161.217 E13.5099
G1 X130.791 Y161.217 E13.57492
G1 X130.128 Y161.209 E13.59697
G1 X129.209 Y161.158 E13.62759
G1 X128.408 Y161.048 E13.65448
G1 X128.086 Y160.991 E13.66535
G1 X127.756 Y160.927 E13.67653
G1 X127.332 Y160.838 E13.69094
G1 X126.76 Y160.701 E13.71051
G1 X126.178 Y160.545 E13.73055
G1 X123.635 Y159.895 E13.81785
G1 X121.184 Y159.341 E13.90142
G1 X118.695 Y158.855 E13.98577
G1 X116.209 Y158.441 E14.0696
G1 X113.699 Y158.095 E14.15387
G1 X111.19 Y157.822 E14.23781
G1 X108.671 Y157.619 E14.32186
G1 X106.129 Y157.487 E14.40653
G1 X103.617 Y157.428 E14.4901
G1 X101.072 Y157.438 E14.57475
G1 X98.566 Y157.521 E14.65814
G1 X96.057 Y157.675 E14.74175
G1 X93.103 Y157.945 E14.84041
G1 X91.889 Y158.076 E14.88102
G1 X90.946 Y158.135 E14.91245
G1 X90.095 Y158.149 E14.94075
G1 X87.305 Y158.148 E15.03355
G1 X86.607 Y158.138 E15.05677
G1 X85.688 Y158.085 E15.08738
G1 X84.465 Y157.888 E15.12859
G1 X84.059 Y157.798 E15.14242
G1 X83.17 Y157.56 E15.17303
G1 X82.304 Y157.245 E15.20368
G1 X81.47 Y156.857 E15.23427
G1 X80.672 Y156.398 E15.26489
G1 X79.798 Y155.779 E15.30051
G1 X79.163 Y155.266 E15.32766
G1 X78.483 Y154.646 E15.35827
G1 X77.859 Y153.969 E15.38889
G1 X77.296 Y153.24 E15.41953
G1 X76.799 Y152.465 E15.45015
G1 X76.371 Y151.65 E15.48077
G1 X76.012 Y150.794 E15.51164
G1 X75.91 Y150.517 E15.52146
G1 X75.747 Y150.041 E15.53819
G1 X75.66 Y149.765 E15.54782
G1 X75.422 Y148.875 E15.57846
G1 X75.262 Y147.969 E15.60906
G1 X75.172 Y146.788 E15.64845
G1 X75.15 Y145.569 E15.689
G1 X75.151 Y143.118 E15.77052
G1 X75.161 Y142.439 E15.79311
G1 X75.215 Y141.52 E15.82373
G1 X75.348 Y140.609 E15.85435
G1 X75.559 Y139.713 E15.88497
G1 X75.73 Y139.165 E15.90406
G1 X76.116 Y138.043 E15.94352
G1 X77.769 Y133.499 E16.10435
G1 X78.635 Y131.012 E16.19194
G1 X79.389 Y128.631 E16.275
G1 X80.091 Y126.174 E16.36
G1 X80.712 Y123.749 E16.44325
G1 X81.268 Y121.271 E16.52772
G1 X81.752 Y118.798 E16.61153
G1 X82.169 Y116.296 E16.6959
G1 X82.513 Y113.795 E16.77987
G1 X82.787 Y111.28 E16.86401
G1 X82.991 Y108.743 E16.94866
G1 X83.122 Y106.222 E17.03263
G1 X83.181 Y103.711 E17.11616
G1 X83.17 Y101.159 E17.20105
G1 X83.088 Y98.658 E17.28427
G1 X82.934 Y96.149 E17.36788
G1 X82.706 Y93.605 E17.45283
G1 X82.41 Y91.1 E17.53673
G1 X82.042 Y88.594 E17.62097
G1 X81.353 Y84.812 E17.74883
G1 X81.227 Y83.9 E17.77945
G1 X81.181 Y82.981 E17.81006
G1 X81.215 Y82.061 E17.84068
G1 X81.329 Y81.147 E17.87131
G1 X81.522 Y80.247 E17.90193
G1 X81.792 Y79.367 E17.93254
G1 X82.137 Y78.513 E17.96318
G1 X82.555 Y77.693 E17.99379
G1 X83.043 Y76.912 E18.02442
G1 X83.597 Y76.177 E18.05503
G1 X84.212 Y75.492 E18.08565
G1 X84.885 Y74.863 E18.11629
G1 X85.609 Y74.295 E18.1469
G1 X86.38 Y73.792 E18.17752
G1 X86.877 Y73.516 E18.19642
G1 X89.354 Y72.224 E18.28934
G1 X91.568 Y70.987 E18.3737
G1 X93.759 Y69.678 E18.45858
G1 X95.878 Y68.331 E18.5421
G1 X96.558 Y67.87 E18.56942
G1 X97.856 Y67.018 E18.62106
G1 X98.825 Y66.419 E18.65895
G1 X99.289 Y66.141 E18.67694
G1 X102.068 Y64.352 E18.78687
G1 X103.093 Y63.665 E18.82791
G1 X103.88 Y63.186 E18.85855
G1 X104.705 Y62.778 E18.88916
G1 X105.562 Y62.442 E18.91978
G1 X106.095 Y62.275 E18.93836
G1 X107.052 Y62.004 E18.97144
G1 X115.663 Y59.697 E19.26794
G1 X116.329 Y59.527 E19.2908
G1 X117.23 Y59.339 E19.32142
G1 X118.145 Y59.229 E19.35207
G1 X119.065 Y59.199 E19.38268
G1 X119.984 Y59.248 E19.41329
G1 X120.895 Y59.378 E19.4439
G0 F6000 X120.883 Y58.969
G1 F1200 X121.798 Y59.173 E19.47508
G1 X122.693 Y59.454 E19.50628
G1 X123.56 Y59.81 E19.53745
G1 X124.471 Y60.283 E19.5716
G1 X124.602 Y60.359 E19.57663
G1 X125.392 Y60.864 E19.60782
G1 X126.137 Y61.434 E19.63902
G1 X126.83 Y62.066 E19.67021
G1 X127.467 Y62.754 E19.7014
G1 X128.043 Y63.495 E19.73261
G1 X128.554 Y64.281 E19.76379
G1 X128.996 Y65.108 E19.79498
G1 X129.366 Y65.97 E19.82618
G1 X129.658 Y66.849 E19.85699
G1 X129.924 Y67.779 E19.88916
G1 X130.018 Y68.13 E19.90125
G1 X130.209 Y68.892 E19.92738
G1 X130.393 Y69.779 E19.95751
G1 X130.467 Y70.229 E19.97267
G1 X130.916 Y72.794 E20.05928
G1 X131.422 Y75.263 E20.14311
G1 X131.988 Y77.673 E20.22545
G1 X132.636 Y80.129 E20.30993
G1 X133.353 Y82.559 E20.3942
G1 X134.121 Y84.913 E20.47655
G1 X135.408 Y88.468 E20.6023
G1 X135.52 Y88.805 E20.61411
G1 X135.658 Y89.252 E20.62967
G1 X135.962 Y90.316 E20.66648
G1 X136.052 Y90.654 E20.67811
G1 X136.167 Y91.111 E20.69379
G1 X136.357 Y92.029 E20.72497
G1 X136.468 Y92.96 E20.75615
G1 X136.5 Y93.883 E20.78687
G1 X136.491 Y94.901 E20.82073
G1 X136.468 Y95.99 E20.85696
G1 X136.487 Y98.51 E20.94077
G1 X136.575 Y101.008 E21.02391
G1 X136.737 Y103.547 E21.10853
G1 X136.965 Y106.016 E21.191
G1 X137.268 Y108.532 E21.27528
G1 X137.645 Y111.044 E21.35977
G1 X138.082 Y113.495 E21.44258
G1 X138.597 Y115.966 E21.52653
G1 X139.19 Y118.463 E21.61189
G1 X139.495 Y119.639 E21.6523
G1 X144.722 Y139.154 E22.32425
G1 X144.892 Y139.822 E22.34717
G1 X145.085 Y140.74 E22.37837
G1 X145.198 Y141.671 E22.40957
G1 X145.23 Y142.337 E22.43174
G1 X145.249 Y143.477 E22.46966
G1 X145.249 Y149.018 E22.65396
G1 X145.239 Y149.754 E22.67844
G1 X145.186 Y150.691 E22.70965
G1 X145.054 Y151.619 E22.74083
G1 X144.83 Y152.579 E22.77362
G1 X144.764 Y152.814 E22.78174
G1 X144.62 Y153.288 E22.79821
G1 X144.518 Y153.597 E22.80904
G1 X144.186 Y154.474 E22.84023
G1 X143.781 Y155.32 E22.87142
G1 X143.305 Y156.128 E22.90261
G1 X142.762 Y156.893 E22.93381
G1 X142.156 Y157.609 E22.96501
G1 X141.601 Y158.169 E22.99124
G1 X141.307 Y158.445 E23.00465
G1 X140.596 Y159.057 E23.03585
G1 X139.836 Y159.606 E23.06703
G1 X138.77 Y160.227 E23.10807
G1 X138.556 Y160.336 E23.11605
G1 X137.703 Y160.725 E23.14724
G1 X136.82 Y161.041 E23.17843
G1 X136.206 Y161.212 E23.19963
G1 X135.911 Y161.285 E23.20974
G1 X134.992 Y161.471 E23.24092
G1 X134.06 Y161.578 E23.27212
G1 X133.477 Y161.605 E23.29153
G1 X132.746 Y161.617 E23.31585
G1 X130.786 Y161.617 E23.38104
G1 X130.123 Y161.609 E23.40309
G1 X129.187 Y161.558 E23.43427
G1 X128.339 Y161.442 E23.46274
G1 X128.017 Y161.385 E23.47362
G1 X127.674 Y161.318 E23.48524
G1 X127.25 Y161.229 E23.49965
G1 X126.656 Y161.087 E23.51996
G1 X126.128 Y160.945 E23.53815
G1 X123.553 Y160.287 E23.62654
G1 X121.052 Y159.722 E23.71182
G1 X118.63 Y159.25 E23.7939
G1 X116.16 Y158.838 E23.87718
G1 X113.637 Y158.49 E23.96189
G1 X111.147 Y158.219 E24.0452
G1 X108.654 Y158.019 E24.12838
G1 X106.134 Y157.888 E24.21231
G1 X103.609 Y157.828 E24.29632
G1 X101.088 Y157.838 E24.38017
G1 X98.566 Y157.921 E24.46409
G1 X96.084 Y158.073 E24.5468
G1 X93.186 Y158.339 E24.64359
G1 X91.932 Y158.474 E24.68554
G1 X90.954 Y158.535 E24.71814
G1 X90.095 Y158.549 E24.74671
G1 X87.299 Y158.548 E24.8397
