;FLAVOR:Marlin
;TIME:5114
;Filament used: 2.65009m
;Layer height: 0.2
;MINX:70.724
;MINY:84.6
;MINZ:0.2
;MAXX:170.697
;MAXY:135.399
;MAXZ:24.2
;Generated with Cura_SteamEngine 4.6.1
M82 ;absolute extrusion mode
M140 S70 ; start heating the bed to what is set in Cura
M104 S205 T0 ; start heating T0 to what is set in Cura
G92 E0 ; Reset Extruder
M280 P0 S160 ; BLTouch alarm release
G4 P100 ; delay for BLTouch
G28 ; home
G29 ; auto bed leveling
;Wait until everything is hot
M190 S70
M109 S205 T0
G1 Z2.0 F3000 ; Move Z Axis up little to prevent scratching of Heat Bed
G1 X0.1 Y20 Z0.3 F5000.0 ; Move to start position
G1 X0.1 Y200.0 Z0.3 F1500.0 E15 ; Draw the first line
G1 X0.4 Y200.0 Z0.3 F5000.0 ; Move to side a little
G1 X0.4 Y20 Z0.3 F1500.0 E30 ; Draw the second line
G92 E0 ; Reset Extruder
G1 Z2.0 F3000 ; Move Z Axis up little to prevent scratching of Heat Bed
G1 X5 Y20 Z0.3 F5000.0 ; Move over to prevent blob squish
G92 E0
G92 E0
G1 F1500 E-6
;LAYER_COUNT:121
;LAYER:0
M107
G0 F6000 X96.979 Y85.502 Z0.2
;TYPE:SKIRT
G1 F1500 E0
G1 F720 X98.948 Y85.496 E0.06549
G1 X107.134 Y85.504 E0.33776
G1 X107.794 Y85.514 E0.35971
G1 X108.638 Y85.562 E0.38783
G1 X109.763 Y85.674 E0.42543
G1 X110.647 Y85.775 E0.45502
G1 X113.178 Y85.991 E0.53951
G1 X115.684 Y86.134 E0.623
G1 X118.248 Y86.207 E0.70831
G1 X120.782 Y86.207 E0.79259
G1 X123.317 Y86.136 E0.87694
G1 X125.844 Y85.994 E0.96112
G1 X128.386 Y85.778 E1.04597
G1 X129.699 Y85.626 E1.08993
G1 X131.048 Y85.481 E1.13506
G1 X131.939 Y85.425 E1.16475
G1 X133.315 Y85.4 E1.21053
G1 X156.73 Y85.402 E1.98931
G1 X157.26 Y85.409 E2.00694
G1 X157.623 Y85.42 E2.01902
G1 X157.95 Y85.436 E2.02991
G1 X158.97 Y85.538 E2.06401
G1 X159.176 Y85.569 E2.07093
G1 X160.185 Y85.773 E2.10517
G1 X160.494 Y85.852 E2.11578
G1 X161.737 Y86.256 E2.15925
G1 X162.001 Y86.361 E2.1687
G1 X162.824 Y86.732 E2.19873
G1 X163.267 Y86.969 E2.21544
G1 X163.658 Y87.191 E2.23039
G1 X164.665 Y87.844 E2.27031
G1 X164.854 Y87.983 E2.27811
G1 X165.802 Y88.772 E2.31914
G1 X165.955 Y88.916 E2.32612
G1 X166.584 Y89.564 E2.35616
G1 X166.94 Y89.986 E2.37452
G1 X167.211 Y90.326 E2.38899
G1 X167.742 Y91.057 E2.41904
G1 X168.088 Y91.619 E2.44099
G1 X168.322 Y92.028 E2.45666
G1 X168.736 Y92.831 E2.48671
G1 X168.964 Y93.367 E2.50608
G1 X169.057 Y93.604 E2.51455
G1 X169.349 Y94.459 E2.5446
G1 X169.503 Y95.046 E2.56478
G1 X169.605 Y95.49 E2.57994
G1 X169.768 Y96.379 E2.61
G1 X169.861 Y97.53 E2.6484
G1 X169.897 Y99.151 E2.70233
G1 X169.897 Y121.299 E3.43898
G1 X169.88 Y122.177 E3.46819
G1 X169.862 Y122.578 E3.48154
G1 X169.767 Y123.58 E3.51501
G1 X169.73 Y123.836 E3.52361
G1 X169.496 Y124.985 E3.56262
G1 X169.414 Y125.295 E3.57328
G1 X169.144 Y126.157 E3.60332
G1 X168.933 Y126.694 E3.62251
G1 X168.76 Y127.099 E3.63716
G1 X168.369 Y127.913 E3.6672
G1 X168.019 Y128.518 E3.69044
G1 X167.357 Y129.481 E3.72931
G1 X167.051 Y129.876 E3.74593
G1 X166.467 Y130.564 E3.77595
G1 X165.825 Y131.199 E3.80598
G1 X165.148 Y131.759 E3.8352
G1 X164.532 Y132.221 E3.86081
G1 X164.276 Y132.404 E3.87128
G1 X163.518 Y132.896 E3.90133
G1 X162.721 Y133.319 E3.93135
G1 X162.047 Y133.61 E3.95576
G1 X161.621 Y133.776 E3.97097
G1 X160.766 Y134.066 E4.001
G1 X159.98 Y134.261 E4.02793
G1 X159.515 Y134.357 E4.04373
G1 X158.303 Y134.532 E4.08445
G1 X158.04 Y134.554 E4.09323
G1 X157.377 Y134.588 E4.11531
G1 X156.699 Y134.599 E4.13787
G1 X132.939 Y134.598 E4.92813
G1 X132.242 Y134.588 E4.95131
G1 X131.333 Y134.534 E4.9816
G1 X130.862 Y134.485 E4.99735
G1 X129.88 Y134.335 E5.03039
G1 X129.498 Y134.256 E5.04336
G1 X126.732 Y133.658 E5.13749
G1 X124.273 Y133.201 E5.22067
G1 X121.705 Y132.8 E5.30712
G1 X119.225 Y132.482 E5.39028
G1 X116.685 Y132.231 E5.47517
G1 X114.174 Y132.052 E5.5589
G1 X111.621 Y131.945 E5.64389
G1 X109.039 Y131.908 E5.72978
G1 X107.028 Y131.929 E5.79667
G1 X105.641 Y131.933 E5.8428
G1 X83.403 Y131.934 E6.58244
G1 X82.694 Y131.924 E6.60602
G1 X81.793 Y131.871 E6.63604
G1 X80.899 Y131.739 E6.6661
G1 X80.3 Y131.604 E6.68652
G1 X80.082 Y131.548 E6.694
G1 X79.597 Y131.411 E6.71077
G1 X79.307 Y131.321 E6.72087
G1 X78.457 Y131.015 E6.75091
G1 X77.637 Y130.635 E6.78097
G1 X76.855 Y130.185 E6.81098
G1 X76.228 Y129.753 E6.83631
G1 X76.015 Y129.594 E6.84515
G1 X75.316 Y129.022 E6.87519
G1 X74.825 Y128.552 E6.89779
G1 X74.602 Y128.324 E6.9084
G1 X74 Y127.651 E6.93843
G1 X73.459 Y126.928 E6.96847
G1 X72.985 Y126.159 E6.99851
G1 X72.581 Y125.352 E7.02853
G1 X72.37 Y124.842 E7.04689
G1 X72.26 Y124.555 E7.05711
G1 X71.974 Y123.699 E7.08713
G1 X71.78 Y122.896 E7.1146
G1 X71.74 Y122.695 E7.12142
G1 X71.603 Y121.802 E7.15147
G1 X71.546 Y120.929 E7.18057
G1 X71.524 Y119.769 E7.21916
G1 X71.527 Y118.633 E7.25694
G1 X71.567 Y96.993 E7.97669
G1 X71.577 Y96.362 E7.99768
G1 X71.632 Y95.461 E8.0277
G1 X71.765 Y94.568 E8.05773
G1 X71.978 Y93.69 E8.08778
G1 X72.267 Y92.834 E8.11783
G1 X72.525 Y92.228 E8.13974
G1 X72.636 Y91.989 E8.1485
G1 X73.052 Y91.187 E8.17855
G1 X73.538 Y90.426 E8.20858
G1 X74.139 Y89.651 E8.2412
G1 X74.395 Y89.352 E8.25429
G1 X75.012 Y88.693 E8.28432
G1 X75.685 Y88.091 E8.31435
G1 X76.277 Y87.642 E8.33907
G1 X76.442 Y87.526 E8.34577
G1 X77.203 Y87.04 E8.37581
G1 X78.004 Y86.623 E8.40584
G1 X78.811 Y86.288 E8.4349
G1 X79.022 Y86.211 E8.44237
G1 X79.884 Y85.939 E8.47244
G1 X80.765 Y85.745 E8.50244
G1 X81.42 Y85.652 E8.52445
G1 X81.706 Y85.621 E8.53401
G1 X82.362 Y85.572 E8.55589
G1 X82.569 Y85.563 E8.56278
G1 X83.249 Y85.55 E8.58541
G1 X87.598 Y85.539 E8.73005
G1 X92.048 Y85.494 E8.87807
G1 X96.979 Y85.502 E9.04208
G0 F6000 X96.979 Y85.102
G1 F720 X98.947 Y85.096 E9.10753
G1 X107.14 Y85.104 E9.38003
G1 X107.8 Y85.114 E9.40199
G1 X108.678 Y85.164 E9.43124
G1 X109.808 Y85.277 E9.46901
G1 X110.656 Y85.374 E9.4974
G1 X113.201 Y85.591 E9.58235
G1 X115.716 Y85.734 E9.66613
G1 X118.26 Y85.807 E9.75078
G1 X120.771 Y85.807 E9.8343
G1 X123.318 Y85.736 E9.91905
G1 X125.826 Y85.595 E10.00259
G1 X128.337 Y85.382 E10.08641
G1 X129.656 Y85.229 E10.13057
G1 X131.005 Y85.084 E10.1757
G1 X131.931 Y85.025 E10.20656
G1 X133.315 Y85 E10.2526
G1 X156.735 Y85.002 E11.03155
G1 X157.265 Y85.009 E11.04918
G1 X157.643 Y85.021 E11.06176
G1 X157.97 Y85.037 E11.07265
G1 X159.029 Y85.142 E11.10805
G1 X159.235 Y85.173 E11.11497
G1 X160.284 Y85.385 E11.15057
G1 X160.593 Y85.464 E11.16118
G1 X161.884 Y85.884 E11.20633
G1 X162.148 Y85.989 E11.21578
G1 X162.988 Y86.367 E11.24642
G1 X163.465 Y86.621 E11.26439
G1 X163.856 Y86.843 E11.27935
G1 X164.902 Y87.522 E11.32082
G1 X165.091 Y87.661 E11.32863
G1 X166.076 Y88.481 E11.37126
G1 X166.229 Y88.625 E11.37824
G1 X166.871 Y89.285 E11.40887
G1 X167.253 Y89.737 E11.42855
G1 X167.524 Y90.077 E11.44301
G1 X168.066 Y90.821 E11.47363
G1 X168.436 Y91.42 E11.49705
G1 X168.67 Y91.829 E11.51272
G1 X169.092 Y92.647 E11.54333
G1 X169.336 Y93.221 E11.56408
G1 X169.429 Y93.458 E11.57254
G1 X169.728 Y94.329 E11.60317
G1 X169.893 Y94.957 E11.62477
G1 X169.995 Y95.401 E11.63992
G1 X170.162 Y96.306 E11.67053
G1 X170.261 Y97.52 E11.71104
G1 X170.297 Y99.151 E11.7653
G1 X170.297 Y121.305 E12.50215
G1 X170.289 Y121.87 E12.52094
G1 X170.279 Y122.195 E12.53176
G1 X170.261 Y122.596 E12.54511
G1 X170.163 Y123.637 E12.57988
G1 X170.126 Y123.893 E12.58849
G1 X169.883 Y125.088 E12.62905
G1 X169.801 Y125.398 E12.63971
G1 X169.527 Y126.277 E12.67033
G1 X169.301 Y126.851 E12.69085
G1 X169.128 Y127.256 E12.7055
G1 X168.73 Y128.086 E12.73612
G1 X168.361 Y128.725 E12.76066
G1 X167.674 Y129.726 E12.80104
G1 X167.368 Y130.121 E12.81766
G1 X166.773 Y130.823 E12.84826
G1 X166.119 Y131.472 E12.87891
G1 X165.39 Y132.078 E12.91044
G1 X165.002 Y132.372 E12.92663
G1 X164.508 Y132.729 E12.9469
G1 X163.737 Y133.232 E12.97752
G1 X162.925 Y133.665 E13.00813
G1 X162.193 Y133.983 E13.03467
G1 X161.767 Y134.149 E13.04988
G1 X160.895 Y134.445 E13.08051
G1 X160.061 Y134.653 E13.1091
G1 X159.596 Y134.749 E13.12489
G1 X158.337 Y134.931 E13.1672
G1 X158.074 Y134.953 E13.17598
G1 X157.384 Y134.988 E13.19895
G1 X156.699 Y134.999 E13.22174
G1 X132.933 Y134.998 E14.0122
G1 X132.236 Y134.988 E14.03539
G1 X131.291 Y134.932 E14.06687
G1 X130.82 Y134.883 E14.08262
G1 X129.8 Y134.727 E14.11694
G1 X129.413 Y134.647 E14.13009
G1 X126.639 Y134.048 E14.22448
G1 X124.204 Y133.595 E14.30685
G1 X121.669 Y133.199 E14.39219
G1 X119.167 Y132.878 E14.47609
G1 X116.654 Y132.629 E14.56008
G1 X114.164 Y132.453 E14.64311
G1 X111.598 Y132.345 E14.72853
G1 X109.037 Y132.309 E14.81371
G1 X107.03 Y132.329 E14.88047
G1 X105.643 Y132.333 E14.9266
G1 X83.398 Y132.334 E15.66647
G1 X82.689 Y132.324 E15.69006
G1 X81.769 Y132.271 E15.72071
G1 X80.858 Y132.138 E15.75133
G1 X80.201 Y131.992 E15.77371
G1 X79.983 Y131.936 E15.7812
G1 X79.478 Y131.793 E15.79866
G1 X79.188 Y131.703 E15.80876
G1 X78.322 Y131.392 E15.83936
G1 X77.485 Y131.007 E15.87
G1 X76.685 Y130.551 E15.90063
G1 X75.989 Y130.073 E15.92871
G1 X75.776 Y129.914 E15.93755
G1 X75.063 Y129.332 E15.96817
G1 X74.539 Y128.832 E15.99226
G1 X74.316 Y128.604 E16.00286
G1 X73.701 Y127.918 E16.03351
G1 X73.149 Y127.182 E16.06411
G1 X72.662 Y126.401 E16.09472
G1 X72.245 Y125.58 E16.12534
G1 X71.996 Y124.986 E16.14677
G1 X71.886 Y124.699 E16.15699
G1 X71.594 Y123.825 E16.18764
G1 X71.388 Y122.974 E16.21676
G1 X71.348 Y122.773 E16.22358
G1 X71.208 Y121.863 E16.2542
G1 X71.147 Y120.937 E16.28506
G1 X71.124 Y119.768 E16.32395
G1 X71.127 Y118.632 E16.36174
G1 X71.167 Y96.987 E17.08165
G1 X71.177 Y96.356 E17.10264
G1 X71.232 Y95.437 E17.13326
G1 X71.366 Y94.526 E17.16389
G1 X71.579 Y93.63 E17.19452
G1 X71.868 Y92.756 E17.22514
G1 X72.162 Y92.059 E17.2503
G1 X72.273 Y91.82 E17.25906
G1 X72.697 Y91.003 E17.28968
G1 X73.19 Y90.225 E17.32031
G1 X73.835 Y89.391 E17.35538
G1 X74.091 Y89.092 E17.36847
G1 X74.72 Y88.419 E17.39911
G1 X75.404 Y87.804 E17.4297
G1 X76.047 Y87.315 E17.45657
G1 X76.212 Y87.199 E17.46328
G1 X76.987 Y86.702 E17.4939
G1 X77.803 Y86.275 E17.52453
G1 X78.674 Y85.912 E17.55592
G1 X78.885 Y85.835 E17.56339
G1 X79.763 Y85.558 E17.59401
G1 X80.661 Y85.357 E17.62462
G1 X81.377 Y85.255 E17.64867
G1 X81.663 Y85.224 E17.65824
G1 X82.345 Y85.172 E17.68099
G1 X82.552 Y85.163 E17.68788
G1 X83.248 Y85.15 E17.71103
G1 X87.597 Y85.139 E17.85568
G1 X92.049 Y85.094 E18.00376
G1 X96.979 Y85.102 E18.16774
G0 F6000 X96.979 Y84.702
G1 F720 X98.946 Y84.696 E18.23316
G1 X107.146 Y84.704 E18.50589
G1 X107.806 Y84.714 E18.52785
G1 X108.717 Y84.766 E18.5582
G1 X109.854 Y84.879 E18.5962
G1 X110.74 Y84.98 E18.62586
G1 X113.218 Y85.191 E18.70858
G1 X115.751 Y85.336 E18.79296
G1 X118.236 Y85.407 E18.87565
G1 X120.76 Y85.407 E18.9596
G1 X123.285 Y85.336 E19.04361
G1 X125.804 Y85.195 E19.12752
G1 X128.29 Y84.984 E19.21051
G1 X129.613 Y84.831 E19.2548
G1 X130.962 Y84.686 E19.29993
G1 X131.923 Y84.625 E19.33196
G1 X133.315 Y84.6 E19.37826
G1 X156.74 Y84.602 E20.15738
G1 X157.27 Y84.609 E20.17501
G1 X157.663 Y84.621 E20.18809
G1 X157.99 Y84.637 E20.19898
G1 X159.089 Y84.746 E20.23571
G1 X159.295 Y84.777 E20.24264
G1 X160.383 Y84.998 E20.27956
G1 X160.692 Y85.077 E20.29017
G1 X161.59 Y85.348 E20.32137
G1 X162.032 Y85.513 E20.33706
G1 X162.296 Y85.618 E20.34651
G1 X163.152 Y86.001 E20.3777
G1 X163.662 Y86.273 E20.39693
G1 X164.053 Y86.495 E20.41188
G1 X165.139 Y87.199 E20.45493
G1 X165.328 Y87.338 E20.46273
G1 X166.35 Y88.19 E20.50698
G1 X166.503 Y88.334 E20.51397
G1 X167.158 Y89.005 E20.54516
G1 X167.566 Y89.488 E20.56619
G1 X167.837 Y89.828 E20.58065
G1 X168.39 Y90.585 E20.61183
G1 X168.783 Y91.221 E20.6367
G1 X169.017 Y91.63 E20.65237
G1 X169.447 Y92.464 E20.68358
G1 X169.709 Y93.075 E20.70569
G1 X169.802 Y93.312 E20.71416
G1 X170.107 Y94.199 E20.74535
G1 X170.283 Y94.867 E20.76833
G1 X170.385 Y95.311 E20.78348
G1 X170.556 Y96.233 E20.81467
G1 X170.661 Y97.51 E20.85729
G1 X170.697 Y99.151 E20.91188
G1 X170.697 Y121.311 E21.64893
G1 X170.689 Y121.876 E21.66772
G1 X170.679 Y122.213 E21.67893
G1 X170.661 Y122.614 E21.69228
G1 X170.559 Y123.694 E21.72836
G1 X170.522 Y123.95 E21.73697
G1 X170.269 Y125.19 E21.77906
G1 X170.187 Y125.5 E21.78973
G1 X169.909 Y126.396 E21.82093
G1 X169.669 Y127.008 E21.84279
G1 X169.496 Y127.413 E21.85744
G1 X169.091 Y128.259 E21.88864
G1 X168.703 Y128.932 E21.91447
G1 X167.99 Y129.971 E21.95639
G1 X167.684 Y130.366 E21.973
G1 X167.078 Y131.082 E22.0042
G1 X166.414 Y131.744 E22.03539
G1 X165.631 Y132.396 E22.06928
G1 X164.997 Y132.872 E22.09565
G1 X164.741 Y133.055 E22.10611
G1 X163.955 Y133.567 E22.13731
G1 X163.129 Y134.011 E22.1685
G1 X162.338 Y134.355 E22.19719
G1 X161.912 Y134.521 E22.2124
G1 X161.024 Y134.824 E22.24361
G1 X160.142 Y135.045 E22.27385
G1 X159.677 Y135.141 E22.28964
G1 X158.37 Y135.33 E22.33356
G1 X158.107 Y135.352 E22.34234
G1 X157.392 Y135.388 E22.36615
G1 X156.699 Y135.399 E22.3892
G1 X132.927 Y135.398 E23.17986
G1 X132.23 Y135.388 E23.20305
G1 X131.25 Y135.33 E23.2357
G1 X130.779 Y135.281 E23.25145
G1 X129.721 Y135.118 E23.28706
G1 X129.329 Y135.038 E23.30036
G1 X126.593 Y134.447 E23.39346
G1 X124.101 Y133.984 E23.47776
G1 X121.624 Y133.596 E23.56115
G1 X119.118 Y133.276 E23.64518
G1 X116.619 Y133.028 E23.72871
G1 X114.12 Y132.851 E23.81203
G1 X111.612 Y132.745 E23.89552
G1 X109.035 Y132.709 E23.98124
G1 X107.031 Y132.729 E24.0479
G1 X105.644 Y132.733 E24.09403
G1 X83.392 Y132.734 E24.83413
G1 X82.683 Y132.724 E24.85772
G1 X81.747 Y132.671 E24.8889
G1 X80.818 Y132.538 E24.92011
G1 X80.101 Y132.379 E24.94454
G1 X79.883 Y132.323 E24.95203
G1 X79.36 Y132.175 E24.9701
G1 X79.07 Y132.085 E24.9802
G1 X78.187 Y131.769 E25.0114
G1 X77.334 Y131.379 E25.04259
G1 X76.517 Y130.918 E25.07379
G1 X75.75 Y130.394 E25.10469
G1 X75.537 Y130.235 E25.11353
G1 X74.81 Y129.642 E25.14473
G1 X74.253 Y129.111 E25.17033
G1 X74.03 Y128.883 E25.18094
G1 X73.403 Y128.186 E25.21212
G1 X72.839 Y127.437 E25.2433
G1 X72.34 Y126.643 E25.27449
G1 X71.91 Y125.809 E25.3057
G1 X71.623 Y125.129 E25.33025
G1 X71.513 Y124.842 E25.34047
G1 X71.215 Y123.953 E25.37166
G1 X70.996 Y123.052 E25.4025
G1 X70.956 Y122.851 E25.40932
G1 X70.812 Y121.924 E25.44052
G1 X70.747 Y120.946 E25.47312
G1 X70.724 Y119.767 E25.51234
G1 X70.727 Y118.631 E25.55012
G1 X70.767 Y96.981 E26.27021
G1 X70.777 Y96.35 E26.2912
G1 X70.832 Y95.413 E26.32241
G1 X70.967 Y94.485 E26.3536
G1 X71.18 Y93.572 E26.38479
G1 X71.47 Y92.68 E26.41598
G1 X71.799 Y91.891 E26.44441
G1 X71.91 Y91.652 E26.45318
G1 X72.341 Y90.819 E26.48437
G1 X72.842 Y90.025 E26.5156
G1 X73.531 Y89.131 E26.55314
G1 X73.787 Y88.832 E26.56623
G1 X74.427 Y88.146 E26.59744
G1 X75.123 Y87.517 E26.62864
G1 X75.817 Y86.987 E26.65768
G1 X75.982 Y86.871 E26.66439
G1 X76.771 Y86.365 E26.69557
G1 X77.601 Y85.928 E26.72676
G1 X78.537 Y85.537 E26.7605
G1 X78.748 Y85.46 E26.76797
G1 X79.642 Y85.176 E26.79917
G1 X80.557 Y84.969 E26.83037
G1 X81.334 Y84.857 E26.85648
G1 X81.62 Y84.826 E26.86605
G1 X82.327 Y84.772 E26.88964
G1 X82.534 Y84.763 E26.89653
G1 X83.247 Y84.75 E26.92025
G1 X87.596 Y84.739 E27.0649
G1 X92.05 Y84.694 E27.21304
G1 X96.979 Y84.702 E27.37698
G1 F1500 E21.37698
G0 F6000 X133.243 Y99.4
G0 X133.709 Y99.4
G1 F1500 E27.37698
G1 F720 X155.897 Y99.401 E28.11496
G1 X155.897 Y102.098 E28.20466
G1 X155.392 Y102.047 E28.22154
G1 X154.888 Y102.067 E28.23832
G1 X154.453 Y102.113 E28.25287
G1 X153.911 Y102.211 E28.27119
G1 X153.378 Y102.39 E28.28989
G1 X152.877 Y102.601 E28.30797
G1 X152.386 Y102.851 E28.32629
G1 X152.028 Y103.096 E28.34072
G1 X151.72 Y103.334 E28.35367
G1 X151.31 Y103.702 E28.37199
G1 X151.099 Y103.94 E28.38257
G1 X150.896 Y104.189 E28.39326
G1 X150.553 Y104.685 E28.41331
G1 X150.436 Y104.887 E28.42108
G1 X150.204 Y105.359 E28.43857
G1 X150.112 Y105.585 E28.44669
G1 X149.959 Y106.046 E28.46284
G1 X149.905 Y106.25 E28.46986
G1 X149.808 Y106.745 E28.48664
G1 X149.778 Y106.982 E28.49458
G1 X149.749 Y107.533 E28.51294
G1 X149.754 Y107.788 E28.52142
G1 X149.807 Y108.355 E28.54036
G1 X149.846 Y108.583 E28.54805
G1 X149.961 Y109.063 E28.56447
G1 X150.028 Y109.28 E28.57202
G1 X150.194 Y109.72 E28.58766
G1 X150.276 Y109.902 E28.5943
G1 X150.579 Y110.449 E28.6151
G1 X150.789 Y110.764 E28.62769
G1 X151.127 Y111.199 E28.64602
G1 X151.435 Y111.504 E28.66043
G1 X151.796 Y111.823 E28.67646
G1 X152.234 Y112.157 E28.69478
G1 X152.609 Y112.372 E28.70915
