;FLAVOR:Marlin
;TIME:10550
;Filament used: 6.91854m
;Layer height: 0.16
;MINX:77.5
;MINY:61.251
;MINZ:0.2
;MAXX:142.5
;MAXY:158.748
;MAXZ:30
;Generated with Cura_SteamEngine 4.6.1
M82 ;absolute extrusion mode
M140 S70 ; start heating the bed to what is set in Cura
M104 S210 T0 ; start heating T0 to what is set in Cura
G92 E0 ; Reset Extruder
G28 ; Home all axes
G29 ; Auto Level
;Wait until everything is hot
M190 S70
M109 S210 T0
G92 E0
G92 E0
G1 F1500 E-6
;LAYER_COUNT:151
;LAYER:0
M107
G0 F6000 X126.552 Y62.061 Z0.2
;TYPE:SKIRT
G1 F1500 E0
G1 F900 X127.146 Y62.087 E0.01978
G1 X127.815 Y62.136 E0.04209
G1 X128.45 Y62.198 E0.06331
G1 X129.343 Y62.332 E0.09334
G1 X129.904 Y62.458 E0.11246
G1 X130.359 Y62.574 E0.12808
G1 X131.004 Y62.755 E0.15036
G1 X131.86 Y63.042 E0.18039
G1 X132.301 Y63.224 E0.19626
G1 X132.678 Y63.39 E0.20996
G1 X132.992 Y63.534 E0.22145
G1 X133.395 Y63.728 E0.23633
G1 X134.48 Y64.335 E0.27768
G1 X134.734 Y64.498 E0.28771
G1 X135.201 Y64.816 E0.30651
G1 X135.674 Y65.158 E0.32592
G1 X136.382 Y65.719 E0.35596
G1 X136.785 Y66.088 E0.37414
G1 X137.367 Y66.657 E0.40121
G1 X137.609 Y66.906 E0.41276
G1 X138.209 Y67.581 E0.4428
G1 X138.533 Y68.002 E0.46047
G1 X139.046 Y68.713 E0.48963
G1 X139.226 Y68.977 E0.50025
G1 X139.701 Y69.745 E0.53029
G1 X139.976 Y70.272 E0.55006
G1 X140.25 Y70.837 E0.57094
G1 X140.499 Y71.383 E0.5909
G1 X140.83 Y72.223 E0.62093
G1 X140.975 Y72.681 E0.63691
G1 X141.176 Y73.386 E0.66129
G1 X141.283 Y73.801 E0.67555
G1 X141.47 Y74.685 E0.7056
G1 X141.551 Y75.292 E0.72597
G1 X141.614 Y75.897 E0.7462
G1 X141.644 Y76.236 E0.75752
G1 X141.664 Y76.52 E0.76699
G1 X141.688 Y77.072 E0.78537
G1 X141.698 Y77.886 E0.81244
G1 X141.693 Y78.32 E0.82688
G1 X141.679 Y79.022 E0.85023
G1 X141.592 Y80.161 E0.88822
G1 X141.522 Y80.678 E0.90558
G1 X141.24 Y82.57 E0.9692
G1 X140.937 Y85.081 E1.05332
G1 X140.705 Y87.597 E1.13736
G1 X140.543 Y90.157 E1.22268
G1 X140.453 Y92.697 E1.30721
G1 X140.436 Y95.23 E1.39146
G1 X140.491 Y97.8 E1.47696
G1 X140.614 Y100.283 E1.55964
G1 X140.814 Y102.842 E1.64502
G1 X141.08 Y105.344 E1.7287
G1 X141.504 Y108.441 E1.83267
G1 X141.569 Y109.05 E1.85304
G1 X141.635 Y109.916 E1.88193
G1 X141.654 Y110.246 E1.89292
G1 X141.678 Y110.795 E1.9112
G1 X141.687 Y111.363 E1.93009
G1 X141.678 Y112.137 E1.95584
G1 X141.67 Y113.383 E1.99728
G1 X141.67 Y141.505 E2.93262
G1 X141.694 Y143.143 E2.98711
G1 X141.7 Y143.99 E3.01528
G1 X141.699 Y145.172 E3.05459
G1 X141.689 Y145.878 E3.07808
G1 X141.661 Y146.5 E3.09879
G1 X141.64 Y146.779 E3.10809
G1 X141.533 Y147.675 E3.1381
G1 X141.371 Y148.459 E3.16473
G1 X141.267 Y148.88 E3.17915
G1 X141.012 Y149.746 E3.20918
G1 X140.658 Y150.638 E3.2411
G1 X140.544 Y150.89 E3.2503
G1 X140.136 Y151.696 E3.28035
G1 X139.658 Y152.462 E3.31038
G1 X139.31 Y152.938 E3.32999
G1 X139.002 Y153.335 E3.3467
G1 X138.653 Y153.762 E3.36504
G1 X138.504 Y153.934 E3.37261
G1 X137.883 Y154.589 E3.40263
G1 X137.206 Y155.188 E3.4327
G1 X136.479 Y155.724 E3.46274
G1 X136.073 Y155.983 E3.47876
G1 X135.62 Y156.257 E3.49636
G1 X135.214 Y156.491 E3.51195
G1 X134.408 Y156.899 E3.542
G1 X133.569 Y157.233 E3.57203
G1 X132.704 Y157.492 E3.60206
G1 X132.188 Y157.608 E3.61965
G1 X131.585 Y157.727 E3.6401
G1 X130.692 Y157.862 E3.67014
G1 X129.914 Y157.915 E3.69607
G1 X128.705 Y157.947 E3.7363
G1 X91.561 Y157.948 E4.97171
G1 X90.872 Y157.938 E4.99463
G1 X90.296 Y157.913 E5.01381
G1 X90.057 Y157.896 E5.02178
G1 X89.16 Y157.792 E5.05181
G1 X87.848 Y157.491 E5.09658
G1 X87.275 Y157.319 E5.11648
G1 X86.597 Y157.089 E5.14029
G1 X86.42 Y157.022 E5.14659
G1 X85.59 Y156.666 E5.17662
G1 X84.796 Y156.237 E5.20664
G1 X84.332 Y155.942 E5.22493
G1 X84.047 Y155.75 E5.23636
G1 X83.321 Y155.213 E5.26639
G1 X82.646 Y154.614 E5.29641
G1 X82.056 Y153.992 E5.32492
G1 X81.683 Y153.564 E5.34381
G1 X81.379 Y153.199 E5.35961
G1 X80.841 Y152.474 E5.38963
G1 X80.369 Y151.703 E5.4197
G1 X79.967 Y150.895 E5.44972
G1 X79.782 Y150.448 E5.46581
G1 X79.587 Y149.944 E5.48378
G1 X79.299 Y149.088 E5.51382
G1 X79.099 Y148.268 E5.54189
G1 X79.018 Y147.864 E5.5556
G1 X78.88 Y146.972 E5.58562
G1 X78.821 Y146.048 E5.61641
G1 X78.803 Y145.078 E5.64868
G1 X78.802 Y144.741 E5.65989
G1 X78.811 Y144.122 E5.68048
G1 X78.864 Y143.22 E5.71053
G1 X78.956 Y142.549 E5.73306
G1 X79.418 Y139.849 E5.82417
G1 X79.772 Y137.362 E5.90772
G1 X80.058 Y134.847 E5.99191
G1 X80.273 Y132.323 E6.07616
G1 X80.418 Y129.762 E6.16147
G1 X80.49 Y127.228 E6.24579
G1 X80.49 Y124.694 E6.33007
G1 X80.418 Y122.161 E6.41435
G1 X80.274 Y119.621 E6.49897
G1 X80.058 Y117.072 E6.58405
G1 X79.772 Y114.553 E6.66837
G1 X79.419 Y112.072 E6.75172
G1 X78.811 Y108.624 E6.86817
G1 X78.587 Y107.477 E6.90704
G1 X78.455 Y106.601 E6.93651
G1 X78.39 Y105.99 E6.95694
G1 X78.338 Y105.344 E6.9785
G1 X78.313 Y104.777 E6.99738
G1 X78.3 Y103.853 E7.02811
G1 X78.301 Y77.807 E7.89441
G1 X78.311 Y77.122 E7.91719
G1 X78.364 Y76.221 E7.94721
G1 X78.437 Y75.669 E7.96573
G1 X78.611 Y74.594 E8.00195
G1 X78.776 Y73.71 E8.03186
G1 X78.981 Y72.831 E8.06188
G1 X79.263 Y71.973 E8.09192
G1 X79.619 Y71.143 E8.12196
G1 X79.831 Y70.73 E8.1374
G1 X80.348 Y69.781 E8.17334
G1 X80.552 Y69.427 E8.18693
G1 X80.884 Y68.868 E8.20856
G1 X81.379 Y68.113 E8.23858
G1 X81.939 Y67.405 E8.26861
G1 X82.29 Y67.019 E8.28596
G1 X82.659 Y66.634 E8.3037
G1 X82.904 Y66.387 E8.31527
G1 X83.139 Y66.158 E8.32618
G1 X83.813 Y65.557 E8.35622
G1 X84.234 Y65.232 E8.37391
G1 X84.689 Y64.899 E8.39266
G1 X84.972 Y64.699 E8.40418
G1 X85.229 Y64.524 E8.41453
G1 X85.997 Y64.049 E8.44456
G1 X86.461 Y63.806 E8.46198
G1 X86.952 Y63.564 E8.48019
G1 X87.259 Y63.419 E8.49148
G1 X87.551 Y63.287 E8.50214
G1 X88.39 Y62.951 E8.5322
G1 X88.929 Y62.78 E8.55101
G1 X89.704 Y62.56 E8.5778
G1 X90.01 Y62.48 E8.58832
G1 X90.893 Y62.29 E8.61836
G1 X91.501 Y62.206 E8.63878
G1 X92.308 Y62.124 E8.66576
G1 X92.645 Y62.098 E8.677
G1 X93.268 Y62.069 E8.69774
G1 X94.499 Y62.051 E8.73869
G1 X125.944 Y62.052 E9.78455
G1 X126.552 Y62.061 E9.80478
G0 F6000 X126.558 Y61.661
G1 F900 X127.175 Y61.688 E9.82532
G1 X127.844 Y61.737 E9.84763
G1 X128.492 Y61.8 E9.86928
G1 X129.402 Y61.936 E9.89989
G1 X130.003 Y62.071 E9.92037
G1 X130.763 Y62.269 E9.9465
G1 X131.115 Y62.37 E9.95868
G1 X131.988 Y62.662 E9.98929
G1 X132.463 Y62.858 E10.00638
G1 X132.84 Y63.024 E10.02008
G1 X133.166 Y63.174 E10.03202
G1 X133.569 Y63.368 E10.0469
G1 X134.696 Y63.998 E10.08984
G1 X134.95 Y64.161 E10.09988
G1 X135.436 Y64.492 E10.11943
G1 X135.909 Y64.834 E10.13885
G1 X136.631 Y65.405 E10.16946
G1 X137.063 Y65.801 E10.18896
G1 X137.417 Y66.143 E10.20533
G1 X137.653 Y66.378 E10.2164
G1 X137.895 Y66.627 E10.22795
G1 X138.508 Y67.315 E10.2586
G1 X138.857 Y67.767 E10.27759
G1 X139.181 Y68.211 E10.29588
G1 X139.556 Y68.752 E10.31777
G1 X140.041 Y69.534 E10.34838
G1 X140.336 Y70.098 E10.36955
G1 X140.61 Y70.663 E10.39043
G1 X140.864 Y71.22 E10.41079
G1 X141.202 Y72.076 E10.4414
G1 X141.359 Y72.569 E10.45861
G1 X141.474 Y72.963 E10.47226
G1 X141.563 Y73.287 E10.48344
G1 X141.67 Y73.702 E10.49769
G1 X141.861 Y74.602 E10.52829
G1 X141.949 Y75.25 E10.55004
G1 X142.012 Y75.855 E10.57027
G1 X142.063 Y76.492 E10.59153
G1 X142.088 Y77.065 E10.6106
G1 X142.098 Y77.89 E10.63805
G1 X142.093 Y78.328 E10.65261
G1 X142.079 Y79.03 E10.67597
G1 X141.989 Y80.214 E10.71546
G1 X141.918 Y80.737 E10.73302
G1 X141.639 Y82.61 E10.796
G1 X141.33 Y85.163 E10.88153
G1 X141.104 Y87.622 E10.96366
G1 X140.941 Y90.196 E11.04945
G1 X140.853 Y92.679 E11.13208
G1 X140.836 Y95.224 E11.21673
G1 X140.89 Y97.772 E11.3015
G1 X141.014 Y100.268 E11.38462
G1 X141.213 Y102.805 E11.46926
G1 X141.48 Y105.318 E11.55331
G1 X141.9 Y108.386 E11.65631
G1 X141.967 Y109.019 E11.67748
G1 X142.033 Y109.885 E11.70636
G1 X142.054 Y110.228 E11.71779
G1 X142.078 Y110.777 E11.73607
G1 X142.087 Y111.367 E11.7557
G1 X142.078 Y112.14 E11.78141
G1 X142.07 Y113.386 E11.82285
G1 X142.07 Y141.499 E12.75789
G1 X142.094 Y143.14 E12.81248
G1 X142.1 Y143.987 E12.84065
G1 X142.099 Y145.178 E12.88026
G1 X142.089 Y145.884 E12.90375
G1 X142.06 Y146.53 E12.92526
G1 X142.039 Y146.809 E12.93456
G1 X141.93 Y147.723 E12.96518
G1 X141.76 Y148.555 E12.99342
G1 X141.656 Y148.976 E13.00784
G1 X141.396 Y149.859 E13.03846
G1 X141.023 Y150.803 E13.07222
G1 X140.909 Y151.055 E13.08142
G1 X140.493 Y151.877 E13.11206
G1 X140.008 Y152.659 E13.14267
G1 X139.626 Y153.184 E13.16426
G1 X139.318 Y153.581 E13.18097
G1 X138.955 Y154.023 E13.2
G1 X138.806 Y154.195 E13.20756
G1 X138.173 Y154.865 E13.23822
G1 X137.485 Y155.476 E13.26883
G1 X136.747 Y156.026 E13.29944
G1 X136.28 Y156.325 E13.31788
G1 X135.41 Y156.84 E13.35151
G1 X134.589 Y157.256 E13.38212
G1 X133.734 Y157.599 E13.41276
G1 X132.853 Y157.867 E13.44339
G1 X132.265 Y158 E13.46344
G1 X131.662 Y158.119 E13.48388
G1 X130.752 Y158.258 E13.5145
G1 X129.926 Y158.315 E13.54204
G1 X128.705 Y158.347 E13.58266
G1 X91.555 Y158.348 E14.81828
G1 X90.866 Y158.338 E14.8412
G1 X90.268 Y158.312 E14.8611
G1 X90.029 Y158.295 E14.86907
G1 X89.114 Y158.19 E14.89971
G1 X88.212 Y158.006 E14.93032
G1 X87.733 Y157.874 E14.94685
G1 X87.16 Y157.702 E14.96675
G1 X86.455 Y157.464 E14.9915
G1 X86.278 Y157.397 E14.99779
G1 X85.432 Y157.034 E15.02841
G1 X84.621 Y156.598 E15.05903
G1 X84.109 Y156.274 E15.07919
G1 X83.824 Y156.082 E15.09062
G1 X83.083 Y155.535 E15.12125
G1 X82.393 Y154.926 E15.15186
G1 X81.755 Y154.255 E15.18266
G1 X81.382 Y153.827 E15.20154
G1 X81.068 Y153.451 E15.21783
G1 X80.519 Y152.712 E15.24845
G1 X80.036 Y151.928 E15.27908
G1 X79.624 Y151.105 E15.30969
G1 X79.409 Y150.592 E15.32819
G1 X79.214 Y150.088 E15.34616
G1 X78.92 Y149.216 E15.37677
G1 X78.707 Y148.347 E15.40653
G1 X78.626 Y147.943 E15.42023
G1 X78.484 Y147.033 E15.45087
G1 X78.421 Y146.056 E15.48343
G1 X78.403 Y145.086 E15.5157
G1 X78.402 Y144.735 E15.52737
G1 X78.411 Y144.116 E15.54796
G1 X78.464 Y143.197 E15.57858
G1 X78.562 Y142.481 E15.60262
G1 X79.016 Y139.83 E15.69207
G1 X79.377 Y137.292 E15.77734
G1 X79.66 Y134.804 E15.86062
G1 X79.876 Y132.267 E15.94531
G1 X80.018 Y129.762 E16.02876
G1 X80.09 Y127.217 E16.11344
G1 X80.09 Y124.706 E16.19695
G1 X80.018 Y122.16 E16.28167
G1 X79.875 Y119.639 E16.36565
G1 X79.661 Y117.117 E16.44984
G1 X79.378 Y114.623 E16.53332
G1 X79.023 Y112.134 E16.61694
G1 X78.413 Y108.67 E16.73393
G1 X78.195 Y107.554 E16.77175
G1 X78.057 Y106.643 E16.80239
G1 X77.992 Y106.032 E16.82283
G1 X77.939 Y105.372 E16.84485
G1 X77.913 Y104.783 E16.86446
G1 X77.9 Y103.853 E16.8954
G1 X77.901 Y77.801 E17.76189
G1 X77.911 Y77.116 E17.78467
G1 X77.965 Y76.197 E17.81529
G1 X78.042 Y75.606 E17.83512
G1 X78.218 Y74.521 E17.87167
G1 X78.383 Y73.637 E17.90158
G1 X78.591 Y72.74 E17.93221
G1 X78.876 Y71.865 E17.96282
G1 X79.236 Y71.018 E17.99343
G1 X79.479 Y70.54 E18.01126
G1 X80.001 Y69.582 E18.04755
G1 X80.208 Y69.223 E18.06133
G1 X80.54 Y68.664 E18.08296
G1 X81.044 Y67.894 E18.11356
G1 X81.613 Y67.17 E18.14419
G1 X82.001 Y66.742 E18.16341
G1 X82.37 Y66.357 E18.18114
G1 X82.625 Y66.1 E18.19318
G1 X82.86 Y65.871 E18.2041
G1 X83.547 Y65.258 E18.23472
G1 X83.998 Y64.909 E18.25369
G1 X84.453 Y64.576 E18.27244
G1 X84.747 Y64.368 E18.28442
G1 X85.004 Y64.193 E18.29476
G1 X85.787 Y63.709 E18.32538
G1 X86.284 Y63.447 E18.34406
G1 X86.775 Y63.205 E18.36227
G1 X87.095 Y63.054 E18.37404
G1 X87.387 Y62.922 E18.3847
G1 X88.241 Y62.58 E18.4153
G1 X88.818 Y62.395 E18.43545
G1 X89.603 Y62.173 E18.46258
G1 X89.909 Y62.093 E18.4731
G1 X90.809 Y61.899 E18.50372
G1 X91.459 Y61.809 E18.52555
G1 X92.278 Y61.725 E18.55293
G1 X92.615 Y61.699 E18.56417
G1 X93.261 Y61.669 E18.58568
G1 X94.499 Y61.651 E18.62686
G1 X125.95 Y61.652 E19.67293
G1 X126.558 Y61.661 E19.69315
G0 F6000 X126.564 Y61.261
G1 F900 X127.205 Y61.289 E19.71449
G1 X127.874 Y61.338 E19.7368
G1 X128.534 Y61.402 E19.75886
G1 X129.461 Y61.54 E19.79003
G1 X130.101 Y61.683 E19.81184
G1 X130.556 Y61.799 E19.82746
G1 X130.873 Y61.885 E19.83838
G1 X131.225 Y61.986 E19.85056
G1 X132.114 Y62.283 E19.88174
G1 X132.624 Y62.492 E19.90007
G1 X133.001 Y62.658 E19.91377
G1 X133.339 Y62.814 E19.92615
G1 X133.742 Y63.008 E19.94103
G1 X134.912 Y63.661 E19.98559
G1 X135.166 Y63.824 E19.99563
G1 X135.67 Y64.168 E20.01593
G1 X136.143 Y64.51 E20.03534
G1 X136.879 Y65.091 E20.06653
G1 X137.341 Y65.513 E20.08734
G1 X137.695 Y65.855 E20.10371
G1 X137.94 Y66.099 E20.11521
G1 X138.182 Y66.348 E20.12676
G1 X138.807 Y67.048 E20.15797
G1 X139.18 Y67.531 E20.17827
G1 X139.504 Y67.975 E20.19655
G1 X139.707 Y68.262 E20.20824
G1 X139.887 Y68.526 E20.21887
G1 X140.381 Y69.323 E20.25006
G1 X140.696 Y69.923 E20.2726
G1 X140.97 Y70.488 E20.29348
G1 X141.229 Y71.057 E20.31427
G1 X141.575 Y71.929 E20.34548
G1 X141.743 Y72.457 E20.36391
G1 X141.951 Y73.187 E20.38915
G1 X142.058 Y73.602 E20.40341
G1 X142.253 Y74.519 E20.43459
G1 X142.347 Y75.209 E20.45775
G1 X142.41 Y75.814 E20.47798
G1 X142.462 Y76.464 E20.49967
G1 X142.488 Y77.059 E20.51948
G1 X142.498 Y77.894 E20.54725
G1 X142.493 Y78.336 E20.56195
G1 X142.479 Y79.038 E20.58531
G1 X142.385 Y80.267 E20.6263
G1 X142.314 Y80.796 E20.64406
G1 X142.033 Y82.68 E20.70741
G1 X141.731 Y85.177 E20.79107
G1 X141.501 Y87.686 E20.87487
G1 X141.341 Y90.199 E20.95862
G1 X141.253 Y92.696 E21.04172
G1 X141.236 Y95.218 E21.1256
G1 X141.29 Y97.744 E21.20964
G1 X141.416 Y100.286 E21.29429
G1 X141.61 Y102.765 E21.37699
G1 X141.875 Y105.258 E21.46038
G1 X142.296 Y108.332 E21.56357
G1 X142.366 Y108.989 E21.58555
G1 X142.432 Y109.855 E21.61444
G1 X142.454 Y110.211 E21.6263
G1 X142.478 Y110.76 E21.64458
G1 X142.487 Y111.372 E21.66493
G1 X142.478 Y112.143 E21.69058
G1 X142.47 Y113.389 E21.73202
G1 X142.47 Y141.493 E22.66677
G1 X142.494 Y143.137 E22.72145
G1 X142.5 Y143.984 E22.74962
G1 X142.499 Y145.184 E22.78954
G1 X142.489 Y145.89 E22.81302
G1 X142.459 Y146.56 E22.83533
G1 X142.438 Y146.839 E22.84463
G1 X142.328 Y147.77 E22.87581
G1 X142.148 Y148.651 E22.90572
G1 X142.044 Y149.072 E22.92014
G1 X141.78 Y149.972 E22.95134
G1 X141.387 Y150.968 E22.98695
G1 X141.273 Y151.22 E22.99615
G1 X140.851 Y152.057 E23.02733
G1 X140.358 Y152.855 E23.05853
G1 X139.942 Y153.429 E23.0821
G1 X139.634 Y153.826 E23.09882
G1 X139.257 Y154.285 E23.11857
G1 X139.108 Y154.457 E23.12614
G1 X138.464 Y155.139 E23.15734
G1 X137.765 Y155.764 E23.18853
G1 X137.015 Y156.327 E23.21972
G1 X136.487 Y156.667 E23.2406
G1 X136.034 Y156.941 E23.25821
G1 X135.606 Y157.188 E23.27465
G1 X134.77 Y157.613 E23.30584
G1 X133.9 Y157.965 E23.33706
G1 X133.004 Y158.241 E23.36824
G1 X132.343 Y158.393 E23.3908
G1 X131.74 Y158.512 E23.41124
G1 X130.813 Y158.654 E23.44243
G1 X129.938 Y158.715 E23.47161
G1 X128.705 Y158.747 E23.51263
G1 X91.549 Y158.748 E24.74844
G1 X90.86 Y158.738 E24.77136
G1 X90.24 Y158.711 E24.792
G1 X90.001 Y158.694 E24.79997
G1 X89.069 Y158.588 E24.83117
G1 X88.149 Y158.403 E24.86238
G1 X87.618 Y158.258 E24.88069
G1 X87.045 Y158.086 E24.90059
G1 X86.314 Y157.838 E24.92626
G1 X86.137 Y157.771 E24.93256
G1 X85.275 Y157.402 E24.96374
G1 X84.447 Y156.96 E24.99496
G1 X83.885 Y156.606 E25.01705
G1 X83.6 Y156.414 E25.02848
G1 X82.845 Y155.857 E25.05969
G1 X82.141 Y155.238 E25.09087
G1 X81.453 Y154.518 E25.12399
G1 X81.08 Y154.09 E25.14287
G1 X80.758 Y153.704 E25.15959
G1 X80.198 Y152.951 E25.1908
G1 X79.704 Y152.154 E25.22199
G1 X79.28 Y151.317 E25.2532
G1 X79.036 Y150.736 E25.27415
G1 X78.841 Y150.232 E25.29213
G1 X78.54 Y149.344 E25.32331
G1 X78.315 Y148.425 E25.35478
G1 X78.234 Y148.021 E25.36849
G1 X78.089 Y147.095 E25.39966
G1 X78.021 Y146.063 E25.43406
G1 X78.003 Y145.093 E25.46633
G1 X78.002 Y144.729 E25.47844
G1 X78.011 Y144.11 E25.49903
G1 X78.065 Y143.174 E25.53021
G1 X78.168 Y142.414 E25.55572
G1 X78.619 Y139.778 E25.64467
