;FLAVOR:Marlin
;TIME:921
;Filament used: 0.580943m
;Layer height: 0.16
;MINX:84.313
;MINY:84.313
;MINZ:0.2
;MAXX:135.687
;MAXY:135.687
;MAXZ:7
;Generated with Cura_SteamEngine 4.6.1
M82 ;absolute extrusion mode
M140 S70 ; start heating the bed to what is set in Cura
M104 S205 T0 ; start heating T0 to what is set in Cura
G92 E0 ; Reset Extruder
M280 P0 S160 ; BLTouch alarm release
G4 P100 ; delay for BLTouch
G28 ; home
G29 ; auto bed leveling
;Wait until everything is hot
M190 S70
M109 S205 T0
G1 Z2.0 F3000 ; Move Z Axis up little to prevent scratching of Heat Bed
G1 X0.1 Y20 Z0.3 F5000.0 ; Move to start position
G1 X0.1 Y200.0 Z0.3 F1500.0 E15 ; Draw the first line
G1 X0.4 Y200.0 Z0.3 F5000.0 ; Move to side a little
G1 X0.4 Y20 Z0.3 F1500.0 E30 ; Draw the second line
G92 E0 ; Reset Extruder
G1 Z2.0 F3000 ; Move Z Axis up little to prevent scratching of Heat Bed
G1 X5 Y20 Z0.3 F5000.0 ; Move over to prevent blob squish
G92 E0
G92 E0
G1 F1500 E-6
;LAYER_COUNT:36
;LAYER:0
M107
G0 F6000 X112.025 Y85.209 Z0.2
;TYPE:SKIRT
G1 F1500 E0
G1 F900 X112.734 Y85.266 E0.02366
G1 X113.568 Y85.368 E0.0516
G1 X114.142 Y85.467 E0.07098
G1 X115.233 Y85.683 E0.10797
G1 X115.949 Y85.837 E0.13233
G1 X116.741 Y86.041 E0.15953
G1 X117.017 Y86.124 E0.16911
G1 X117.346 Y86.229 E0.1806
G1 X118.362 Y86.574 E0.21629
G1 X119.043 Y86.816 E0.24033
G1 X119.835 Y87.135 E0.26872
G1 X120.274 Y87.337 E0.2848
G1 X121.34 Y87.863 E0.32433
G1 X121.986 Y88.193 E0.34846
G1 X122.732 Y88.614 E0.37695
G1 X123.216 Y88.92 E0.396
G1 X124.124 Y89.525 E0.43229
G1 X124.734 Y89.945 E0.45692
G1 X125.428 Y90.467 E0.4858
G1 X125.844 Y90.815 E0.50384
G1 X126.718 Y91.581 E0.5425
G1 X127.207 Y92.023 E0.56442
G1 X127.755 Y92.557 E0.58987
G1 X128.14 Y92.968 E0.6086
G1 X128.368 Y93.224 E0.62
G1 X128.973 Y93.915 E0.65055
G1 X129.399 Y94.415 E0.6724
G1 X129.859 Y94.997 E0.69707
G1 X130.027 Y95.226 E0.70652
G1 X130.274 Y95.577 E0.72079
G1 X130.903 Y96.518 E0.75844
G1 X131.284 Y97.107 E0.78177
G1 X131.713 Y97.833 E0.80982
G1 X131.857 Y98.102 E0.81996
G1 X132.006 Y98.392 E0.83081
G1 X132.458 Y99.309 E0.86481
G1 X132.789 Y100.005 E0.89044
G1 X133.121 Y100.786 E0.91867
G1 X133.387 Y101.521 E0.94467
G1 X133.683 Y102.397 E0.97542
G1 X133.897 Y103.061 E0.99863
G1 X134.102 Y103.789 E1.02378
G1 X134.164 Y104.045 E1.03254
G1 X134.253 Y104.448 E1.04627
G1 X134.474 Y105.558 E1.08391
G1 X134.596 Y106.22 E1.1063
G1 X134.712 Y107.034 E1.13365
G1 X134.785 Y107.863 E1.16133
G1 X134.843 Y108.763 E1.19132
G1 X134.879 Y109.477 E1.2151
G1 X134.887 Y110.306 E1.24268
G1 X134.878 Y110.597 E1.25236
G1 X134.862 Y110.931 E1.26348
G1 X134.791 Y112.027 E1.30001
G1 X134.734 Y112.735 E1.32363
G1 X134.634 Y113.555 E1.35111
G1 X134.533 Y114.145 E1.37102
G1 X134.321 Y115.212 E1.4072
G1 X134.169 Y115.926 E1.43148
G1 X133.947 Y116.784 E1.46096
G1 X133.771 Y117.346 E1.48055
G1 X133.427 Y118.359 E1.51613
G1 X133.186 Y119.038 E1.54009
G1 X132.864 Y119.836 E1.56871
G1 X132.668 Y120.263 E1.58434
G1 X132.497 Y120.616 E1.59739
G1 X132.137 Y121.34 E1.62428
G1 X131.807 Y121.986 E1.64841
G1 X131.386 Y122.732 E1.6769
G1 X131.078 Y123.219 E1.69606
G1 X130.472 Y124.129 E1.73242
G1 X130.054 Y124.736 E1.75694
G1 X129.536 Y125.424 E1.78558
G1 X129.185 Y125.844 E1.80379
G1 X128.419 Y126.718 E1.84244
G1 X127.977 Y127.207 E1.86436
G1 X127.472 Y127.727 E1.88847
G1 X127.274 Y127.917 E1.8976
G1 X126.95 Y128.215 E1.91224
G1 X126.087 Y128.972 E1.95042
G1 X125.586 Y129.399 E1.97232
G1 X124.98 Y129.877 E1.99799
G1 X124.751 Y130.044 E2.00741
G1 X124.423 Y130.274 E2.02074
G1 X123.479 Y130.905 E2.0585
G1 X122.888 Y131.287 E2.08191
G1 X122.167 Y131.713 E2.10976
G1 X121.9 Y131.856 E2.11984
G1 X121.608 Y132.006 E2.13076
G1 X120.691 Y132.458 E2.16476
G1 X119.995 Y132.789 E2.19039
G1 X119.214 Y133.121 E2.21862
G1 X118.479 Y133.387 E2.24462
G1 X117.603 Y133.683 E2.27537
G1 X116.939 Y133.897 E2.29857
G1 X116.211 Y134.102 E2.32373
G1 X115.955 Y134.164 E2.33249
G1 X115.552 Y134.253 E2.34622
G1 X114.442 Y134.474 E2.38386
G1 X113.78 Y134.596 E2.40625
G1 X112.962 Y134.713 E2.43373
G1 X112.138 Y134.785 E2.46124
G1 X111.236 Y134.843 E2.49131
G1 X110.52 Y134.879 E2.51515
G1 X109.692 Y134.887 E2.54269
G1 X109.402 Y134.878 E2.55234
G1 X109.069 Y134.862 E2.56343
G1 X107.975 Y134.791 E2.59989
G1 X107.266 Y134.734 E2.62355
G1 X106.432 Y134.632 E2.6515
G1 X105.858 Y134.533 E2.67087
G1 X104.767 Y134.317 E2.70786
G1 X104.051 Y134.163 E2.73222
G1 X103.259 Y133.959 E2.75942
G1 X102.983 Y133.876 E2.76901
G1 X102.654 Y133.771 E2.78049
G1 X101.638 Y133.426 E2.81618
G1 X100.957 Y133.184 E2.84022
G1 X100.165 Y132.865 E2.86862
G1 X99.737 Y132.668 E2.88429
G1 X99.384 Y132.497 E2.89733
G1 X98.66 Y132.138 E2.92421
G1 X98.012 Y131.807 E2.94841
G1 X97.26 Y131.381 E2.97716
G1 X96.779 Y131.076 E2.9961
G1 X95.876 Y130.475 E3.03218
G1 X95.271 Y130.059 E3.0566
G1 X94.572 Y129.533 E3.0857
G1 X93.99 Y129.041 E3.11104
G1 X93.287 Y128.423 E3.14218
G1 X92.783 Y127.968 E3.16476
G1 X92.209 Y127.408 E3.19143
G1 X92.033 Y127.222 E3.19995
G1 X91.783 Y126.947 E3.21231
G1 X91.005 Y126.061 E3.25153
G1 X90.598 Y125.583 E3.27241
G1 X90.123 Y124.98 E3.29794
G1 X89.956 Y124.751 E3.30737
G1 X89.726 Y124.423 E3.32069
G1 X89.095 Y123.48 E3.35843
G1 X88.711 Y122.886 E3.38195
G1 X88.28 Y122.153 E3.41024
G1 X87.994 Y121.608 E3.43071
G1 X87.542 Y120.691 E3.46471
G1 X87.21 Y119.993 E3.49042
G1 X86.836 Y119.102 E3.52256
G1 X86.611 Y118.473 E3.54478
G1 X86.317 Y117.604 E3.57529
G1 X86.101 Y116.934 E3.5987
G1 X85.891 Y116.184 E3.62461
G1 X85.831 Y115.934 E3.63316
G1 X85.747 Y115.552 E3.64617
G1 X85.525 Y114.436 E3.68401
G1 X85.401 Y113.761 E3.70684
G1 X85.283 Y112.925 E3.73492
G1 X85.259 Y112.683 E3.74301
G1 X85.233 Y112.37 E3.75345
G1 X85.157 Y111.237 E3.79122
G1 X85.121 Y110.523 E3.815
G1 X85.113 Y109.694 E3.84258
G1 X85.122 Y109.403 E3.85226
G1 X85.138 Y109.069 E3.86338
G1 X85.209 Y107.976 E3.89981
G1 X85.266 Y107.266 E3.9235
G1 X85.368 Y106.431 E3.95148
G1 X85.467 Y105.855 E3.97092
G1 X85.685 Y104.76 E4.00805
G1 X85.84 Y104.042 E4.03248
G1 X86.038 Y103.27 E4.05899
G1 X86.12 Y102.996 E4.0685
G1 X86.229 Y102.654 E4.08044
G1 X86.573 Y101.641 E4.11603
G1 X86.814 Y100.962 E4.13999
G1 X87.136 Y100.164 E4.16861
G1 X87.364 Y99.673 E4.18662
G1 X87.863 Y98.66 E4.22417
G1 X88.193 Y98.014 E4.2483
G1 X88.614 Y97.268 E4.27679
G1 X88.922 Y96.781 E4.29596
G1 X89.528 Y95.871 E4.33232
G1 X89.946 Y95.264 E4.35683
G1 X90.464 Y94.576 E4.38548
G1 X90.815 Y94.156 E4.40368
G1 X91.581 Y93.282 E4.44234
G1 X92.023 Y92.793 E4.46426
G1 X92.546 Y92.256 E4.48919
G1 X92.745 Y92.066 E4.49834
G1 X93.274 Y91.586 E4.5221
G1 X93.913 Y91.028 E4.55032
G1 X94.414 Y90.601 E4.57221
G1 X95.02 Y90.123 E4.59788
G1 X95.249 Y89.956 E4.60731
G1 X95.579 Y89.725 E4.62071
G1 X96.524 Y89.093 E4.65852
G1 X97.11 Y88.714 E4.68173
G1 X97.833 Y88.287 E4.70966
G1 X98.1 Y88.144 E4.71973
G1 X98.392 Y87.994 E4.73065
G1 X99.309 Y87.542 E4.76465
G1 X100.005 Y87.211 E4.79029
G1 X100.786 Y86.879 E4.81851
G1 X101.521 Y86.613 E4.84451
G1 X102.397 Y86.317 E4.87527
G1 X103.061 Y86.103 E4.89847
G1 X103.789 Y85.898 E4.92362
G1 X104.045 Y85.836 E4.93238
G1 X104.448 Y85.747 E4.94611
G1 X105.558 Y85.526 E4.98375
G1 X106.22 Y85.404 E5.00614
G1 X107.038 Y85.287 E5.03363
G1 X107.862 Y85.215 E5.06114
G1 X108.764 Y85.157 E5.0912
G1 X109.48 Y85.121 E5.11505
G1 X110.308 Y85.113 E5.14259
G1 X110.598 Y85.122 E5.15224
G1 X112.025 Y85.209 E5.19979
G0 F6000 X111.882 Y84.797
G1 F900 X112.766 Y84.867 E5.22928
G1 X113.633 Y84.973 E5.25833
G1 X114.219 Y85.074 E5.27811
G1 X115.317 Y85.292 E5.31534
G1 X116.033 Y85.446 E5.3397
G1 X116.857 Y85.658 E5.368
G1 X117.133 Y85.741 E5.37759
G1 X117.474 Y85.85 E5.38949
G1 X118.496 Y86.197 E5.42539
G1 X119.177 Y86.439 E5.44943
G1 X120 Y86.771 E5.47894
G1 X120.448 Y86.977 E5.49534
G1 X121.522 Y87.506 E5.53516
G1 X122.168 Y87.836 E5.55929
G1 X122.943 Y88.274 E5.5889
G1 X123.437 Y88.587 E5.60835
G1 X124.351 Y89.195 E5.64486
G1 X124.961 Y89.615 E5.66949
G1 X125.682 Y90.158 E5.69952
G1 X125.862 Y90.306 E5.70727
G1 X126.107 Y90.514 E5.71796
G1 X126.986 Y91.284 E5.75682
G1 X127.475 Y91.726 E5.77875
G1 X128.045 Y92.282 E5.80523
G1 X128.669 Y92.96 E5.83588
G1 X129.278 Y93.656 E5.86664
G1 X129.704 Y94.156 E5.88848
G1 X130.182 Y94.76 E5.9141
G1 X130.35 Y94.989 E5.92355
G1 X130.606 Y95.354 E5.93838
G1 X131.239 Y96.301 E5.97626
G1 X131.62 Y96.89 E5.9996
G1 X132.065 Y97.644 E6.02872
G1 X132.209 Y97.913 E6.03886
G1 X132.364 Y98.215 E6.05015
G1 X132.82 Y99.138 E6.08439
G1 X133.151 Y99.834 E6.11003
G1 X133.496 Y100.644 E6.13931
G1 X133.766 Y101.392 E6.16576
G1 X134.064 Y102.274 E6.19673
G1 X134.278 Y102.938 E6.21993
G1 X134.491 Y103.695 E6.24608
G1 X134.553 Y103.951 E6.25485
G1 X134.646 Y104.369 E6.26909
G1 X134.867 Y105.486 E6.30696
G1 X134.989 Y106.148 E6.32935
G1 X135.11 Y106.994 E6.35777
G1 X135.184 Y107.837 E6.38592
G1 X135.243 Y108.743 E6.41612
G1 X135.279 Y109.457 E6.43989
G1 X135.287 Y110.319 E6.46857
G1 X135.278 Y110.61 E6.47825
G1 X135.262 Y110.956 E6.48977
G1 X135.19 Y112.059 E6.52653
G1 X135.133 Y112.767 E6.55016
G1 X135.029 Y113.619 E6.57871
G1 X134.987 Y113.877 E6.5874
G1 X134.925 Y114.222 E6.59906
G1 X134.713 Y115.295 E6.63544
G1 X134.561 Y116.009 E6.65972
G1 X134.33 Y116.901 E6.69036
G1 X134.15 Y117.474 E6.71034
G1 X133.804 Y118.493 E6.74613
G1 X133.563 Y119.172 E6.7701
G1 X133.229 Y120.002 E6.79985
G1 X132.856 Y120.793 E6.82894
G1 X132.494 Y121.522 E6.85601
G1 X132.164 Y122.168 E6.88014
G1 X131.726 Y122.943 E6.90975
G1 X131.583 Y123.173 E6.91876
G1 X131.411 Y123.44 E6.92932
G1 X130.801 Y124.356 E6.96592
G1 X130.383 Y124.963 E6.99044
G1 X129.845 Y125.678 E7.0202
G1 X129.698 Y125.857 E7.0279
G1 X129.486 Y126.107 E7.0388
G1 X128.716 Y126.986 E7.07767
G1 X128.274 Y127.475 E7.09959
G1 X127.749 Y128.015 E7.12464
G1 X127.551 Y128.205 E7.13377
G1 X127.214 Y128.515 E7.149
G1 X126.347 Y129.276 E7.18737
G1 X125.846 Y129.703 E7.20926
G1 X125.216 Y130.201 E7.23597
G1 X124.987 Y130.368 E7.2454
G1 X124.646 Y130.606 E7.25923
G1 X123.696 Y131.241 E7.29724
G1 X123.105 Y131.623 E7.32064
G1 X122.356 Y132.065 E7.34957
G1 X122.089 Y132.208 E7.35964
G1 X121.785 Y132.364 E7.37101
G1 X120.862 Y132.82 E7.40525
G1 X120.166 Y133.151 E7.43088
G1 X119.356 Y133.496 E7.46016
G1 X118.608 Y133.766 E7.48661
G1 X117.726 Y134.064 E7.51758
G1 X117.062 Y134.278 E7.54078
G1 X116.305 Y134.491 E7.56694
G1 X116.049 Y134.553 E7.5757
G1 X115.631 Y134.646 E7.58994
G1 X114.514 Y134.867 E7.62781
G1 X113.852 Y134.989 E7.6502
G1 X113.002 Y135.111 E7.67876
G1 X112.164 Y135.184 E7.70674
G1 X111.256 Y135.243 E7.737
G1 X110.54 Y135.279 E7.76085
G1 X109.679 Y135.287 E7.78949
G1 X109.389 Y135.278 E7.79914
G1 X109.044 Y135.262 E7.81062
G1 X107.943 Y135.19 E7.84732
G1 X107.234 Y135.133 E7.87098
G1 X106.367 Y135.027 E7.90003
G1 X105.781 Y134.926 E7.91981
G1 X104.683 Y134.708 E7.95704
G1 X103.967 Y134.554 E7.9814
G1 X103.143 Y134.342 E8.0097
G1 X102.867 Y134.259 E8.01928
G1 X102.526 Y134.15 E8.03119
G1 X101.504 Y133.803 E8.06709
G1 X100.823 Y133.561 E8.09113
G1 X100 Y133.229 E8.12064
G1 X99.563 Y133.028 E8.13664
G1 X99.207 Y132.856 E8.14979
G1 X98.478 Y132.494 E8.17686
G1 X97.83 Y132.163 E8.20106
G1 X97.048 Y131.721 E8.23094
G1 X96.557 Y131.41 E8.25027
G1 X95.649 Y130.804 E8.28658
G1 X95.044 Y130.388 E8.311
G1 X94.318 Y129.842 E8.34121
G1 X93.726 Y129.342 E8.36699
G1 X93.019 Y128.72 E8.39831
G1 X92.515 Y128.265 E8.42089
G1 X91.919 Y127.682 E8.44862
G1 X91.743 Y127.496 E8.45714
G1 X91.482 Y127.211 E8.46999
G1 X90.7 Y126.32 E8.50942
G1 X90.293 Y125.842 E8.5303
G1 X89.799 Y125.216 E8.55682
G1 X89.632 Y124.987 E8.56625
G1 X89.394 Y124.646 E8.58008
G1 X88.759 Y123.697 E8.61806
G1 X88.375 Y123.103 E8.64159
G1 X87.927 Y122.342 E8.67096
G1 X87.786 Y122.078 E8.68091
G1 X87.636 Y121.785 E8.69186
G1 X87.181 Y120.863 E8.72606
G1 X86.849 Y120.165 E8.75176
G1 X86.461 Y119.238 E8.78519
G1 X86.232 Y118.602 E8.80767
G1 X85.936 Y117.726 E8.83843
G1 X85.72 Y117.056 E8.86184
G1 X85.502 Y116.278 E8.88871
G1 X85.442 Y116.028 E8.89726
G1 X85.354 Y115.631 E8.91079
G1 X85.131 Y114.508 E8.94887
G1 X85.007 Y113.833 E8.97169
G1 X84.885 Y112.964 E9.00088
G1 X84.861 Y112.722 E9.00897
G1 X84.834 Y112.397 E9.01982
G1 X84.757 Y111.257 E9.05782
G1 X84.721 Y110.543 E9.0816
G1 X84.713 Y109.681 E9.11027
G1 X84.722 Y109.39 E9.11995
G1 X84.738 Y109.044 E9.13147
G1 X84.81 Y107.944 E9.16814
G1 X84.867 Y107.234 E9.19183
G1 X84.973 Y106.366 E9.22091
G1 X85.015 Y106.11 E9.22954
G1 X85.075 Y105.778 E9.24076
G1 X85.294 Y104.675 E9.27816
G1 X85.449 Y103.957 E9.30259
G1 X85.655 Y103.155 E9.33013
G1 X85.737 Y102.881 E9.33965
G1 X85.85 Y102.526 E9.35204
G1 X86.196 Y101.507 E9.38783
G1 X86.437 Y100.828 E9.4118
G1 X86.771 Y99.998 E9.44155
G1 X86.863 Y99.795 E9.44897
G1 X87.005 Y99.496 E9.45997
G1 X87.506 Y98.478 E9.49771
G1 X87.836 Y97.832 E9.52184
G1 X88.274 Y97.057 E9.55145
G1 X88.417 Y96.827 E9.56045
G1 X88.589 Y96.56 E9.57102
G1 X89.199 Y95.644 E9.60762
G1 X89.617 Y95.037 E9.63213
G1 X90.155 Y94.322 E9.6619
G1 X90.302 Y94.143 E9.6696
G1 X90.514 Y93.893 E9.6805
G1 X91.284 Y93.014 E9.71937
G1 X91.726 Y92.525 E9.74129
G1 X92.27 Y91.966 E9.76724
G1 X92.469 Y91.776 E9.77639
G1 X93.011 Y91.285 E9.80071
G1 X93.653 Y90.724 E9.82907
G1 X94.154 Y90.297 E9.85096
G1 X94.784 Y89.799 E9.87767
G1 X95.013 Y89.632 E9.8871
G1 X95.356 Y89.392 E9.90102
G1 X96.306 Y88.757 E9.93903
G1 X96.892 Y88.378 E9.96224
G1 X97.644 Y87.935 E9.99127
G1 X97.911 Y87.792 E10.00134
G1 X98.215 Y87.636 E10.01271
G1 X99.138 Y87.18 E10.04695
G1 X99.834 Y86.849 E10.07258
G1 X100.644 Y86.504 E10.10186
G1 X101.392 Y86.234 E10.12831
G1 X102.274 Y85.936 E10.15928
G1 X102.938 Y85.722 E10.18248
G1 X103.695 Y85.509 E10.20864
G1 X103.951 Y85.447 E10.2174
G1 X104.369 Y85.354 E10.23164
G1 X105.486 Y85.133 E10.26951
G1 X106.148 Y85.011 E10.2919
G1 X106.998 Y84.889 E10.32046
G1 X107.836 Y84.816 E10.34844
G1 X108.744 Y84.757 E10.3787
G1 X109.46 Y84.721 E10.40255
G1 X110.321 Y84.713 E10.43119
G1 X110.611 Y84.722 E10.44084
G1 X111.882 Y84.797 E10.48318
G0 F6000 X112.09 Y84.411
G1 F900 X112.799 Y84.468 E10.50684
G1 X113.698 Y84.578 E10.53697
G1 X113.954 Y84.62 E10.54559
G1 X114.296 Y84.682 E10.55715
G1 X115.401 Y84.901 E10.59462
G1 X116.117 Y85.055 E10.61898
G1 X116.972 Y85.275 E10.64834
G1 X117.248 Y85.358 E10.65793
G1 X117.602 Y85.471 E10.67029
G1 X118.63 Y85.82 E10.7064
G1 X119.311 Y86.062 E10.73044
G1 X120.165 Y86.406 E10.76106
G1 X120.622 Y86.617 E10.7778
G1 X120.956 Y86.779 E10.79015
G1 X121.704 Y87.15 E10.81792
G1 X122.35 Y87.48 E10.84204
G1 X123.154 Y87.934 E10.87275
G1 X123.384 Y88.077 E10.88176
G1 X123.658 Y88.254 E10.89261
G1 X124.578 Y88.866 E10.92936
G1 X125.188 Y89.286 E10.95399
G1 X125.936 Y89.849 E10.98513
G1 X126.116 Y89.997 E10.99288
G1 X126.37 Y90.213 E11.00397
G1 X127.254 Y90.988 E11.04307
G1 X127.743 Y91.43 E11.065
G1 X128.335 Y92.006 E11.09247
G1 X128.513 Y92.193 E11.10106
G1 X128.97 Y92.696 E11.12366
G1 X129.582 Y93.396 E11.15459
G1 X130.008 Y93.896 E11.17643
G1 X130.504 Y94.523 E11.20302
G1 X130.672 Y94.752 E11.21247
G1 X130.938 Y95.131 E11.22787
G1 X131.575 Y96.084 E11.266
G1 X131.956 Y96.673 E11.28933
G1 X132.418 Y97.456 E11.31957
G1 X132.562 Y97.725 E11.32971
G1 X132.723 Y98.037 E11.34139
G1 X133.181 Y98.966 E11.37584
G1 X133.512 Y99.662 E11.40148
G1 X133.87 Y100.503 E11.43188
G1 X134.145 Y101.264 E11.45879
G1 X134.445 Y102.152 E11.48996
G1 X134.659 Y102.816 E11.51317
G1 X134.88 Y103.601 E11.54029
G1 X134.942 Y103.857 E11.54905
G1 X135.038 Y104.291 E11.56384
G1 X135.261 Y105.413 E11.60188
G1 X135.383 Y106.075 E11.62427
G1 X135.508 Y106.953 E11.65377
G1 X135.583 Y107.81 E11.68238
G1 X135.642 Y108.723 E11.71281
G1 X135.678 Y109.437 E11.73659
G1 X135.687 Y110.331 E11.76633
G1 X135.678 Y110.622 E11.77601
G1 X135.661 Y110.981 E11.78796
G1 X135.589 Y112.091 E11.82496
G1 X135.532 Y112.799 E11.84858
G1 X135.424 Y113.683 E11.8782
G1 X135.382 Y113.941 E11.8869
G1 X135.318 Y114.299 E11.89899
G1 X135.104 Y115.378 E11.93558
G1 X134.952 Y116.092 E11.95986
G1 X134.712 Y117.018 E11.99168
G1 X134.529 Y117.602 E12.01203
G1 X134.181 Y118.626 E12.048
G1 X133.94 Y119.305 E12.07197
G1 X133.593 Y120.167 E12.10287
G1 X133.214 Y120.971 E12.13244
G1 X132.85 Y121.704 E12.15966
