;FLAVOR:Marlin
;TIME:537
;Filament used: 0.297532m
;Layer height: 0.2
;MINX:85.031
;MINY:88.357
;MINZ:0.2
;MAXX:134.977
;MAXY:131.654
;MAXZ:3.8
;Generated with Cura_SteamEngine 4.6.1
M82 ;absolute extrusion mode
M140 S75 ; start heating the bed to what is set in Cura
M104 S215 T0 ; start heating T0 to what is set in Cura
G92 E0 ; Reset Extruder
M280 P0 S160 ; BLTouch alarm release
G4 P100 ; delay for BLTouch
G28 ; home
G29 ; auto bed leveling
;Wait until everything is hot
M190 S75
M109 S215 T0
G1 Z2.0 F3000 ; Move Z Axis up little to prevent scratching of Heat Bed
G1 X0.1 Y20 Z0.3 F5000.0 ; Move to start position
G1 X0.1 Y200.0 Z0.3 F1500.0 E15 ; Draw the first line
G1 X0.4 Y200.0 Z0.3 F5000.0 ; Move to side a little
G1 X0.4 Y20 Z0.3 F1500.0 E30 ; Draw the second line
G92 E0 ; Reset Extruder
G1 Z2.0 F3000 ; Move Z Axis up little to prevent scratching of Heat Bed
G1 X5 Y20 Z0.3 F5000.0 ; Move over to prevent blob squish
G92 E0
G92 E0
G1 F1500 E-6
;LAYER_COUNT:19
;LAYER:0
M107
G0 F6000 X117.386 Y89.215 Z0.2
;TYPE:SKIRT
G1 F1500 E0
G1 F900 X118.373 Y89.317 E0.033
G1 X118.999 Y89.391 E0.05397
G1 X119.891 Y89.536 E0.08403
G1 X120.76 Y89.758 E0.11386
G1 X121.694 Y90.041 E0.14632
G1 X122.007 Y90.142 E0.15726
G1 X122.577 Y90.335 E0.17727
G1 X123.419 Y90.662 E0.20731
G1 X124.225 Y91.06 E0.23721
G1 X125.117 Y91.551 E0.27108
G1 X125.426 Y91.729 E0.28294
G1 X125.952 Y92.043 E0.30331
G1 X126.706 Y92.54 E0.33335
G1 X127.401 Y93.09 E0.36283
G1 X128.192 Y93.775 E0.39763
G1 X128.453 Y94.009 E0.40929
G1 X128.924 Y94.446 E0.43066
G1 X129.558 Y95.089 E0.46069
G1 X130.11 Y95.756 E0.48949
G1 X130.788 Y96.656 E0.52697
G1 X131.19 Y97.219 E0.54998
G1 X131.682 Y97.976 E0.58
G1 X132.04 Y98.64 E0.60509
G1 X132.419 Y99.418 E0.63388
G1 X132.762 Y100.165 E0.66122
G1 X133.102 Y101.001 E0.69123
G1 X133.296 Y101.607 E0.7124
G1 X133.558 Y102.52 E0.74399
G1 X133.659 Y102.899 E0.75704
G1 X133.763 Y103.322 E0.77152
G1 X133.94 Y104.207 E0.80154
G1 X134.004 Y104.704 E0.81821
G1 X134.078 Y105.417 E0.84205
G1 X134.104 Y105.719 E0.85213
G1 X134.15 Y106.342 E0.87291
G1 X134.177 Y107.245 E0.90296
G1 X134.142 Y107.946 E0.9263
G1 X134.077 Y108.701 E0.95151
G1 X134.017 Y109.258 E0.97014
G1 X133.939 Y109.908 E0.99191
G1 X133.792 Y110.799 E1.02195
G1 X133.576 Y111.642 E1.05089
G1 X133.189 Y112.907 E1.09489
G1 X133.001 Y113.463 E1.11441
G1 X132.674 Y114.305 E1.14445
G1 X132.272 Y115.118 E1.17462
G1 X131.769 Y116.031 E1.20929
G1 X131.592 Y116.339 E1.22111
G1 X131.254 Y116.905 E1.24303
G1 X130.757 Y117.659 E1.27307
G1 X130.262 Y118.289 E1.29972
G1 X129.854 Y118.761 E1.32047
G1 X129.365 Y119.3 E1.34467
G1 X128.904 Y119.795 E1.36717
G1 X128.26 Y120.428 E1.3972
G1 X127.806 Y120.813 E1.417
G1 X127.155 Y121.333 E1.44472
G1 X126.882 Y121.543 E1.45617
G1 X126.351 Y121.934 E1.4781
G1 X125.607 Y122.456 E1.50833
G1 X123.49 Y123.985 E1.59519
G1 X121.45 Y125.547 E1.68064
G1 X119.505 Y127.13 E1.76405
G1 X119.076 Y127.497 E1.78283
G1 X118.425 Y128.038 E1.81098
G1 X117.719 Y128.574 E1.84047
G1 X117.311 Y128.857 E1.85698
G1 X116.547 Y129.339 E1.88703
G1 X115.744 Y129.75 E1.91703
G1 X115.123 Y130.01 E1.93942
G1 X114.86 Y130.11 E1.94878
G1 X114.003 Y130.393 E1.9788
G1 X113.311 Y130.562 E2.00249
G1 X113.109 Y130.604 E2.00935
G1 X111.895 Y130.782 E2.05016
G1 X111.671 Y130.801 E2.05764
G1 X110.998 Y130.835 E2.08005
G1 X109.894 Y130.854 E2.11678
G1 X101.685 Y130.853 E2.38981
G1 X101.004 Y130.843 E2.41246
G1 X100.136 Y130.793 E2.44138
G1 X99.187 Y130.694 E2.47311
G1 X98.646 Y130.624 E2.49126
G1 X97.757 Y130.468 E2.52128
G1 X96.646 Y130.156 E2.55966
G1 X95.746 Y129.843 E2.59135
G1 X95.267 Y129.663 E2.60837
G1 X94.436 Y129.308 E2.63843
G1 X93.459 Y128.771 E2.67551
G1 X92.711 Y128.299 E2.70492
G1 X92.243 Y127.987 E2.72363
G1 X91.515 Y127.453 E2.75366
G1 X90.761 Y126.784 E2.78719
G1 X90.408 Y126.438 E2.80363
G1 X90.177 Y126.204 E2.81456
G1 X89.738 Y125.745 E2.83569
G1 X89.143 Y125.065 E2.86574
G1 X88.528 Y124.21 E2.90077
G1 X88.251 Y123.779 E2.91781
G1 X88.083 Y123.507 E2.92845
G1 X87.766 Y122.978 E2.94896
G1 X87.336 Y122.184 E2.97899
G1 X87.038 Y121.507 E3.00359
G1 X86.96 Y121.311 E3.01061
G1 X86.757 Y120.763 E3.03004
G1 X86.685 Y120.554 E3.0374
G1 X86.485 Y119.955 E3.0584
G1 X86.237 Y119.087 E3.08843
G1 X86.091 Y118.354 E3.11328
G1 X86.047 Y118.082 E3.12245
G1 X85.979 Y117.585 E3.13913
G1 X85.89 Y116.788 E3.16581
G1 X85.83 Y115.887 E3.19584
G1 X85.877 Y114.652 E3.23695
G1 X85.992 Y113.53 E3.27446
G1 X86.042 Y113.143 E3.28744
G1 X86.197 Y112.253 E3.31749
G1 X86.512 Y111.135 E3.35612
G1 X86.808 Y110.284 E3.38609
G1 X86.993 Y109.791 E3.4036
G1 X87.348 Y108.961 E3.43362
G1 X87.628 Y108.418 E3.45394
G1 X87.767 Y108.168 E3.46346
G1 X87.968 Y107.824 E3.47671
G1 X88.201 Y107.441 E3.49162
G1 X88.907 Y106.424 E3.5328
G1 X89.352 Y105.86 E3.55669
G1 X89.734 Y105.402 E3.57653
G1 X90.352 Y104.744 E3.60655
G1 X91.027 Y104.143 E3.63661
G1 X91.836 Y103.548 E3.67001
G1 X92.056 Y103.402 E3.6788
G1 X94.276 Y101.885 E3.76823
G1 X96.319 Y100.4 E3.85223
G1 X98.328 Y98.854 E3.93654
G1 X100.295 Y97.248 E4.021
G1 X102.21 Y95.593 E4.10519
G1 X103.18 Y94.699 E4.14906
G1 X104.209 Y93.773 E4.1951
G1 X104.856 Y93.238 E4.22303
G1 X105.77 Y92.548 E4.26112
G1 X106.333 Y92.146 E4.28413
G1 X107.09 Y91.654 E4.31415
G1 X107.758 Y91.294 E4.33939
G1 X108.574 Y90.898 E4.36956
G1 X109.315 Y90.559 E4.39666
G1 X110.152 Y90.22 E4.4267
G1 X110.751 Y90.028 E4.44762
G1 X111.607 Y89.783 E4.47723
G1 X111.95 Y89.691 E4.48905
G1 X112.408 Y89.577 E4.50474
G1 X113.293 Y89.398 E4.53477
G1 X113.828 Y89.329 E4.55272
G1 X114.865 Y89.227 E4.58737
G1 X115.496 Y89.182 E4.60841
G1 X116.399 Y89.158 E4.63846
G1 X116.946 Y89.182 E4.65667
G1 X117.386 Y89.215 E4.67134
G0 F6000 X117.801 Y88.853
G1 F900 X118.42 Y88.919 E4.69205
G1 X119.046 Y88.993 E4.71302
G1 X119.955 Y89.141 E4.74365
G1 X120.876 Y89.375 E4.77525
G1 X121.81 Y89.658 E4.80771
G1 X122.136 Y89.763 E4.8191
G1 X122.706 Y89.956 E4.83912
G1 X123.564 Y90.289 E4.86973
G1 X124.418 Y90.71 E4.9014
G1 X125.31 Y91.201 E4.93526
G1 X125.631 Y91.385 E4.94757
G1 X126.157 Y91.699 E4.96795
G1 X126.927 Y92.205 E4.99859
G1 X127.663 Y92.788 E5.02982
G1 X128.454 Y93.473 E5.06462
G1 X128.725 Y93.715 E5.07671
G1 X129.196 Y94.152 E5.09808
G1 X129.843 Y94.807 E5.1287
G1 X130.429 Y95.514 E5.15924
G1 X131.114 Y96.423 E5.1971
G1 X131.516 Y96.986 E5.22011
G1 X132.018 Y97.758 E5.25073
G1 X132.399 Y98.463 E5.27739
G1 X132.782 Y99.251 E5.30653
G1 X133.125 Y99.998 E5.33387
G1 X133.473 Y100.85 E5.36448
G1 X133.681 Y101.497 E5.38708
G1 X133.943 Y102.41 E5.41867
G1 X134.047 Y102.803 E5.43219
G1 X134.151 Y103.226 E5.44668
G1 X134.332 Y104.129 E5.47731
G1 X134.401 Y104.663 E5.49522
G1 X134.503 Y105.689 E5.52952
G1 X134.549 Y106.312 E5.55029
G1 X134.577 Y107.233 E5.58094
G1 X134.541 Y107.98 E5.60581
G1 X134.475 Y108.742 E5.63125
G1 X134.414 Y109.306 E5.65012
G1 X134.336 Y109.956 E5.6719
G1 X134.187 Y110.864 E5.7025
G1 X133.959 Y111.758 E5.73319
G1 X133.673 Y112.705 E5.76609
G1 X133.568 Y113.035 E5.77761
G1 X133.38 Y113.591 E5.79713
G1 X133.047 Y114.45 E5.82777
G1 X132.622 Y115.311 E5.85971
G1 X132.119 Y116.224 E5.89438
G1 X131.936 Y116.544 E5.90664
G1 X131.598 Y117.11 E5.92856
G1 X131.092 Y117.879 E5.95918
G1 X130.566 Y118.549 E5.98751
G1 X130.151 Y119.029 E6.00862
G1 X129.658 Y119.572 E6.03301
G1 X129.197 Y120.067 E6.05551
G1 X128.541 Y120.713 E6.08613
G1 X128.056 Y121.125 E6.10729
G1 X127.405 Y121.645 E6.13501
G1 X127.121 Y121.864 E6.14694
G1 X126.58 Y122.261 E6.16925
G1 X125.864 Y122.763 E6.19834
G1 X123.722 Y124.311 E6.28624
G1 X121.7 Y125.859 E6.37094
G1 X119.773 Y127.427 E6.45357
G1 X119.332 Y127.804 E6.47286
G1 X118.681 Y128.345 E6.50102
G1 X117.947 Y128.903 E6.53168
G1 X117.539 Y129.186 E6.5482
G1 X116.761 Y129.677 E6.5788
G1 X115.943 Y130.099 E6.60941
G1 X115.265 Y130.384 E6.63387
G1 X115.002 Y130.484 E6.64323
G1 X114.128 Y130.773 E6.67385
G1 X113.393 Y130.954 E6.69902
G1 X113.191 Y130.996 E6.70589
G1 X111.929 Y131.18 E6.7483
G1 X111.705 Y131.199 E6.75578
G1 X111.006 Y131.235 E6.77906
G1 X109.894 Y131.254 E6.81605
G1 X101.679 Y131.253 E7.08928
G1 X100.998 Y131.243 E7.11194
G1 X100.096 Y131.191 E7.14199
G1 X99.136 Y131.09 E7.17409
G1 X98.595 Y131.02 E7.19224
G1 X97.688 Y130.863 E7.22285
G1 X96.516 Y130.535 E7.26333
G1 X95.605 Y130.218 E7.29541
G1 X95.126 Y130.038 E7.31243
G1 X94.279 Y129.677 E7.34306
G1 X93.247 Y129.11 E7.38222
G1 X92.489 Y128.632 E7.41202
G1 X92.021 Y128.32 E7.43073
G1 X91.278 Y127.776 E7.46136
G1 X90.481 Y127.07 E7.49677
G1 X90.128 Y126.724 E7.51321
G1 X89.888 Y126.481 E7.52457
G1 X89.449 Y126.022 E7.5457
G1 X88.842 Y125.329 E7.57634
G1 X88.192 Y124.426 E7.61334
G1 X87.915 Y123.995 E7.63038
G1 X87.74 Y123.713 E7.64142
G1 X87.423 Y123.184 E7.66194
G1 X86.984 Y122.374 E7.69258
G1 X86.666 Y121.654 E7.71876
G1 X86.588 Y121.458 E7.72577
G1 X86.306 Y120.681 E7.75327
G1 X86.106 Y120.082 E7.77427
G1 X85.852 Y119.197 E7.80489
G1 X85.696 Y118.418 E7.83132
G1 X85.652 Y118.146 E7.84048
G1 X85.581 Y117.629 E7.85784
G1 X85.492 Y116.832 E7.88451
G1 X85.43 Y115.914 E7.91511
G1 X85.478 Y114.613 E7.95842
G1 X85.595 Y113.479 E7.99633
G1 X85.645 Y113.092 E8.00931
G1 X85.803 Y112.185 E8.03993
G1 X86.133 Y111.005 E8.08069
G1 X86.434 Y110.144 E8.11102
G1 X86.619 Y109.651 E8.12854
G1 X86.979 Y108.804 E8.15915
G1 X87.279 Y108.224 E8.18086
G1 X87.418 Y107.974 E8.19038
G1 X87.626 Y107.616 E8.20415
G1 X87.859 Y107.233 E8.21906
G1 X88.593 Y106.176 E8.26186
G1 X89.038 Y105.612 E8.28576
G1 X89.431 Y105.141 E8.30616
G1 X90.061 Y104.47 E8.33677
G1 X90.746 Y103.855 E8.36739
G1 X91.615 Y103.214 E8.4033
G1 X91.896 Y103.028 E8.41451
G1 X94.022 Y101.575 E8.50016
G1 X96.086 Y100.075 E8.58502
G1 X98.077 Y98.543 E8.66858
G1 X100.047 Y96.934 E8.75318
G1 X101.943 Y95.295 E8.83654
G1 X102.912 Y94.402 E8.88036
G1 X103.941 Y93.476 E8.92641
G1 X104.613 Y92.919 E8.95544
G1 X105.537 Y92.222 E8.99393
G1 X106.1 Y91.82 E9.01694
G1 X106.872 Y91.318 E9.04757
G1 X107.581 Y90.936 E9.07436
G1 X108.407 Y90.534 E9.10491
G1 X109.148 Y90.195 E9.13201
G1 X110.001 Y89.849 E9.16263
G1 X110.641 Y89.643 E9.18499
G1 X111.497 Y89.398 E9.2146
G1 X111.854 Y89.303 E9.22689
G1 X112.312 Y89.189 E9.24259
G1 X113.214 Y89.005 E9.27321
G1 X113.787 Y88.931 E9.29242
G1 X114.506 Y88.857 E9.31646
G1 X114.837 Y88.828 E9.32752
G1 X115.468 Y88.783 E9.34856
G1 X116.388 Y88.757 E9.37917
G1 X116.974 Y88.783 E9.39868
G1 X117.801 Y88.853 E9.42628
G0 F6000 X117.843 Y88.455
G1 F900 X118.467 Y88.522 E9.44715
G1 X119.093 Y88.596 E9.46812
G1 X120.019 Y88.746 E9.49932
G1 X120.992 Y88.993 E9.53271
G1 X121.926 Y89.276 E9.56517
G1 X122.264 Y89.384 E9.57697
G1 X122.834 Y89.577 E9.59699
G1 X123.709 Y89.915 E9.62819
G1 X124.61 Y90.359 E9.66159
G1 X125.502 Y90.85 E9.69546
G1 X125.836 Y91.042 E9.70827
G1 X126.362 Y91.356 E9.72865
G1 X127.146 Y91.871 E9.75985
G1 X127.925 Y92.486 E9.79286
G1 X128.716 Y93.171 E9.82766
G1 X128.997 Y93.422 E9.84019
G1 X129.468 Y93.859 E9.86156
G1 X130.127 Y94.526 E9.89275
G1 X130.748 Y95.272 E9.92503
G1 X131.249 Y95.932 E9.95259
G1 X131.439 Y96.191 E9.96327
G1 X131.841 Y96.754 E9.98628
G1 X132.353 Y97.54 E10.01748
G1 X132.757 Y98.287 E10.04573
G1 X133.146 Y99.084 E10.07523
G1 X133.489 Y99.831 E10.10257
G1 X133.843 Y100.699 E10.13374
G1 X134.065 Y101.387 E10.15779
G1 X134.327 Y102.3 E10.18938
G1 X134.436 Y102.708 E10.20343
G1 X134.54 Y103.131 E10.21792
G1 X134.725 Y104.05 E10.24909
G1 X134.799 Y104.621 E10.26825
G1 X134.902 Y105.66 E10.30297
G1 X134.948 Y106.283 E10.32375
G1 X134.977 Y107.22 E10.35493
G1 X134.939 Y108.013 E10.38133
G1 X134.872 Y108.784 E10.40707
G1 X134.812 Y109.354 E10.42614
G1 X134.734 Y110.004 E10.44791
G1 X134.582 Y110.929 E10.47909
G1 X134.342 Y111.873 E10.51149
G1 X134.056 Y112.82 E10.54439
G1 X133.946 Y113.163 E10.55637
G1 X133.758 Y113.719 E10.57589
G1 X133.42 Y114.594 E10.60709
G1 X132.973 Y115.504 E10.64081
G1 X132.47 Y116.417 E10.67548
G1 X132.279 Y116.749 E10.68822
G1 X131.941 Y117.315 E10.71015
G1 X131.426 Y118.099 E10.74134
G1 X130.871 Y118.808 E10.77129
G1 X130.664 Y119.051 E10.78191
G1 X130.447 Y119.298 E10.79284
G1 X129.951 Y119.845 E10.8174
G1 X129.49 Y120.34 E10.8399
G1 X128.822 Y120.998 E10.87109
G1 X128.305 Y121.438 E10.89367
G1 X127.654 Y121.958 E10.92138
G1 X127.36 Y122.185 E10.93373
G1 X126.81 Y122.589 E10.95643
G1 X126.042 Y123.127 E10.98762
G1 X123.976 Y124.62 E11.0724
G1 X121.946 Y126.174 E11.15743
G1 X120.023 Y127.739 E11.23989
G1 X119.588 Y128.112 E11.25895
G1 X118.937 Y128.653 E11.28711
G1 X118.175 Y129.232 E11.31894
G1 X117.767 Y129.515 E11.33545
G1 X116.975 Y130.016 E11.36662
G1 X116.142 Y130.448 E11.39783
G1 X115.407 Y130.758 E11.42436
G1 X115.144 Y130.858 E11.43372
G1 X114.254 Y131.153 E11.46491
G1 X113.474 Y131.346 E11.49163
G1 X113.272 Y131.388 E11.49849
G1 X111.963 Y131.579 E11.54249
G1 X111.739 Y131.598 E11.54997
G1 X111.013 Y131.635 E11.57415
G1 X109.894 Y131.654 E11.61137
G1 X101.673 Y131.653 E11.8848
G1 X100.992 Y131.643 E11.90745
G1 X100.056 Y131.589 E11.93864
G1 X99.084 Y131.487 E11.97114
G1 X98.543 Y131.417 E11.98929
G1 X97.619 Y131.257 E12.02048
G1 X96.386 Y130.913 E12.06305
G1 X95.465 Y130.592 E12.09549
G1 X94.986 Y130.412 E12.11251
G1 X94.123 Y130.045 E12.1437
G1 X93.035 Y129.449 E12.18496
G1 X92.267 Y128.965 E12.21516
G1 X91.799 Y128.653 E12.23387
G1 X91.042 Y128.1 E12.26505
G1 X90.201 Y127.356 E12.30239
G1 X89.848 Y127.01 E12.31883
G1 X89.599 Y126.757 E12.33064
G1 X89.16 Y126.298 E12.35176
G1 X88.541 Y125.593 E12.38297
G1 X87.855 Y124.642 E12.42197
G1 X87.578 Y124.211 E12.43901
G1 X87.396 Y123.918 E12.45048
G1 X87.079 Y123.389 E12.47099
G1 X86.632 Y122.565 E12.50217
G1 X86.295 Y121.802 E12.52992
G1 X86.217 Y121.606 E12.53693
G1 X86.004 Y121.033 E12.55726
G1 X85.926 Y120.808 E12.56518
G1 X85.726 Y120.209 E12.58619
G1 X85.467 Y119.307 E12.6174
G1 X85.301 Y118.482 E12.64539
G1 X85.257 Y118.21 E12.65456
G1 X85.184 Y117.674 E12.67255
G1 X85.095 Y116.877 E12.69922
G1 X85.031 Y115.941 E12.73042
G1 X85.08 Y114.573 E12.77595
G1 X85.161 Y113.754 E12.80333
G1 X85.249 Y113.041 E12.82722
G1 X85.408 Y112.116 E12.85844
G1 X85.755 Y110.875 E12.9013
G1 X86.059 Y110.003 E12.93201
G1 X86.244 Y109.51 E12.94953
G1 X86.611 Y108.647 E12.98072
G1 X86.929 Y108.03 E13.0038
G1 X87.068 Y107.78 E13.01332
G1 X87.284 Y107.408 E13.02762
G1 X87.517 Y107.025 E13.04254
G1 X88.279 Y105.928 E13.08696
G1 X88.724 Y105.364 E13.11085
G1 X89.127 Y104.881 E13.13178
G1 X89.768 Y104.196 E13.16298
G1 X90.465 Y103.568 E13.19418
G1 X91.394 Y102.881 E13.23261
G1 X91.655 Y102.708 E13.24303
G1 X93.806 Y101.237 E13.3297
G1 X95.83 Y99.768 E13.41288
G1 X97.825 Y98.232 E13.49662
G1 X99.777 Y96.638 E13.58044
G1 X101.693 Y94.982 E13.66467
G1 X102.645 Y94.104 E13.70775
G1 X103.674 Y93.178 E13.75379
G1 X104.371 Y92.601 E13.78389
G1 X105.036 Y92.095 E13.81168
G1 X105.305 Y91.897 E13.82279
G1 X105.868 Y91.495 E13.8458
G1 X106.654 Y90.983 E13.877
G1 X107.405 Y90.577 E13.90539
G1 X108.241 Y90.17 E13.93632
G1 X108.982 Y89.831 E13.96342
G1 X109.85 Y89.478 E13.99458
G1 X110.531 Y89.259 E14.01838
G1 X111.387 Y89.014 E14.04799
G1 X111.757 Y88.915 E14.06073
G1 X112.215 Y88.801 E14.07643
G1 X113.134 Y88.613 E14.10763
G1 X113.746 Y88.533 E14.12816
G1 X114.465 Y88.459 E14.1522
G1 X114.809 Y88.429 E14.16368
G1 X115.44 Y88.384 E14.18472
G1 X116.377 Y88.357 E14.2159
G1 X117.002 Y88.384 E14.23671
G1 X117.843 Y88.455 E14.26478
G1 F1500 E8.26478
;MESH:cable-holder-v3.stl
G0 F6000 X116.332 Y98.688
G0 X116.219 Y99.768
G0 X119.051 Y100.716
G0 X120.329 Y101.453
G0 X121.439 Y102.455
G0 X122.227 Y103.527
G0 X122.811 Y104.762
G0 X123.11 Y105.9
G0 X123.214 Y107.092
G0 X123.057 Y108.585
G0 X122.614 Y109.953
G0 X121.883 Y111.22
G0 X120.878 Y112.329
