;FLAVOR:Marlin
;TIME:5569
;Filament used: 2.99676m
;Layer height: 0.2
;MINX:78.979
;MINY:72.001
;MINZ:0.2
;MAXX:139.802
;MAXY:169.999
;MAXZ:10
;Generated with Cura_SteamEngine 4.6.1
M82 ;absolute extrusion mode
M140 S70 ; start heating the bed to what is set in Cura
M104 S210 T0 ; start heating T0 to what is set in Cura
G92 E0 ; Reset Extruder
M280 P0 S160 ; BLTouch alarm release
G4 P100 ; delay for BLTouch
G28 ; home
G29 ; auto bed leveling
;Wait until everything is hot
M190 S70
M109 S210 T0
G1 Z2.0 F3000 ; Move Z Axis up little to prevent scratching of Heat Bed
G1 X0.1 Y20 Z0.3 F5000.0 ; Move to start position
G1 X0.1 Y200.0 Z0.3 F1500.0 E15 ; Draw the first line
G1 X0.4 Y200.0 Z0.3 F5000.0 ; Move to side a little
G1 X0.4 Y20 Z0.3 F1500.0 E30 ; Draw the second line
G92 E0 ; Reset Extruder
G1 Z2.0 F3000 ; Move Z Axis up little to prevent scratching of Heat Bed
G1 X5 Y20 Z0.3 F5000.0 ; Move over to prevent blob squish
G92 E0
G92 E0
G1 F1500 E-6
;LAYER_COUNT:50
;LAYER:0
M107
G0 F6000 X120.187 Y72.812 Z0.2
;TYPE:SKIRT
G1 F1500 E0
G1 F900 X120.76 Y72.836 E0.01907
G1 X121.934 Y72.92 E0.05822
G1 X122.673 Y72.983 E0.08289
G1 X125.206 Y73.125 E0.16727
G1 X127.764 Y73.197 E0.25238
G1 X128.814 Y73.212 E0.28731
G1 X129.716 Y73.265 E0.31736
G1 X130.609 Y73.397 E0.34739
G1 X131.487 Y73.608 E0.37742
G1 X132.343 Y73.896 E0.40746
G1 X133.17 Y74.258 E0.43749
G1 X133.962 Y74.693 E0.46754
G1 X134.713 Y75.195 E0.49758
G1 X135.416 Y75.762 E0.52762
G1 X135.914 Y76.23 E0.55035
G1 X136.532 Y76.889 E0.5804
G1 X137.089 Y77.599 E0.61042
G1 X137.581 Y78.357 E0.64047
G1 X138.004 Y79.154 E0.67048
G1 X138.355 Y79.987 E0.70055
G1 X138.631 Y80.846 E0.73056
G1 X138.83 Y81.727 E0.7606
G1 X138.95 Y82.622 E0.79063
G1 X138.989 Y83.331 E0.81425
G1 X139.001 Y84.033 E0.8376
G1 X139.001 Y85.687 E0.89261
G1 X138.991 Y86.402 E0.9164
G1 X138.988 Y88.79 E0.99582
G1 X139.002 Y90.063 E1.03816
G1 X139 Y91.735 E1.09377
G1 X138.982 Y92.718 E1.12648
G1 X138.955 Y93.304 E1.14599
G1 X138.856 Y95.027 E1.20339
G1 X138.783 Y97.59 E1.28867
G1 X138.781 Y100.123 E1.37292
G1 X138.853 Y102.681 E1.45803
G1 X138.976 Y104.976 E1.53447
G1 X138.989 Y105.346 E1.54678
G1 X139.001 Y106.09 E1.57153
G1 X139.001 Y107.744 E1.62655
G1 X138.991 Y108.456 E1.65023
G1 X138.988 Y110.938 E1.73278
G1 X139.001 Y112.051 E1.7698
G1 X139.001 Y113.742 E1.82604
G1 X138.983 Y114.723 E1.85868
G1 X138.962 Y115.192 E1.87429
G1 X138.854 Y117.093 E1.93762
G1 X138.782 Y119.636 E2.02224
G1 X138.782 Y122.172 E2.10658
G1 X138.854 Y124.734 E2.19183
G1 X138.977 Y126.996 E2.26718
G1 X138.991 Y127.381 E2.27999
G1 X139.001 Y128.09 E2.30357
G1 X139.001 Y129.744 E2.35859
G1 X138.991 Y130.456 E2.38227
G1 X138.988 Y132.938 E2.46482
G1 X139.001 Y134.051 E2.50184
G1 X139.001 Y135.742 E2.55809
G1 X138.983 Y136.723 E2.59072
G1 X138.962 Y137.192 E2.60633
G1 X138.854 Y139.093 E2.66966
G1 X138.782 Y141.636 E2.75428
G1 X138.782 Y144.172 E2.83863
G1 X138.854 Y146.734 E2.92387
G1 X138.977 Y148.996 E2.99922
G1 X138.991 Y149.381 E3.01203
G1 X139.001 Y150.09 E3.03561
G1 X139.001 Y151.744 E3.09063
G1 X138.991 Y152.456 E3.11431
G1 X138.988 Y154.848 E3.19387
G1 X139.001 Y156.012 E3.23259
G1 X139.001 Y157.728 E3.28966
G1 X138.992 Y158.392 E3.31175
G1 X138.94 Y159.294 E3.3418
G1 X138.808 Y160.187 E3.37182
G1 X138.598 Y161.066 E3.40188
G1 X138.311 Y161.922 E3.43191
G1 X137.949 Y162.749 E3.46193
G1 X137.515 Y163.542 E3.492
G1 X137.014 Y164.292 E3.522
G1 X136.525 Y164.907 E3.54813
G1 X136.414 Y165.036 E3.55379
G1 X135.795 Y165.694 E3.58384
G1 X135.12 Y166.294 E3.61388
G1 X134.395 Y166.833 E3.64393
G1 X133.626 Y167.305 E3.67394
G1 X132.817 Y167.707 E3.70398
G1 X131.976 Y168.036 E3.73402
G1 X131.109 Y168.29 E3.76407
G1 X130.223 Y168.466 E3.79411
G1 X129.049 Y168.576 E3.83333
G1 X128.182 Y168.607 E3.86218
G1 X125.583 Y168.737 E3.94874
G1 X123.016 Y168.938 E4.03438
G1 X121.181 Y169.128 E4.09573
G1 X120.553 Y169.173 E4.11668
G1 X120.142 Y169.19 E4.13036
G1 X119.72 Y169.199 E4.1444
G1 X100.511 Y169.198 E4.78329
G1 X99.813 Y169.188 E4.80651
G1 X98.911 Y169.135 E4.83656
G1 X98.018 Y169.003 E4.86658
G1 X97.14 Y168.792 E4.89662
G1 X96.284 Y168.504 E4.92666
G1 X95.718 Y168.266 E4.94708
G1 X95.438 Y168.138 E4.95732
G1 X93.025 Y167.047 E5.0454
G1 X90.678 Y166.064 E5.13003
G1 X88.25 Y165.131 E5.21654
G1 X87.791 Y164.962 E5.23281
G1 X86.959 Y164.612 E5.26283
G1 X86.161 Y164.189 E5.29287
G1 X85.403 Y163.698 E5.32291
G1 X84.692 Y163.142 E5.35293
G1 X84.237 Y162.728 E5.37339
G1 X84.117 Y162.612 E5.37894
G1 X83.496 Y161.956 E5.40899
G1 X82.935 Y161.248 E5.43903
G1 X82.44 Y160.493 E5.46906
G1 X82.013 Y159.697 E5.4991
G1 X81.658 Y158.866 E5.52916
G1 X81.378 Y158.008 E5.55917
G1 X81.175 Y157.128 E5.58921
G1 X81.051 Y156.233 E5.61926
G1 X81.007 Y155.448 E5.64541
G1 X80.996 Y154.67 E5.67129
G1 X80.998 Y153.256 E5.71832
G1 X81.007 Y152.591 E5.74044
G1 X81.033 Y151.988 E5.76052
G1 X81.058 Y151.654 E5.77166
G1 X81.253 Y149.371 E5.84787
G1 X81.396 Y146.862 E5.93145
G1 X81.469 Y144.312 E6.0163
G1 X81.469 Y141.778 E6.10058
G1 X81.398 Y139.234 E6.18523
G1 X81.255 Y136.688 E6.27004
G1 X81.05 Y134.232 E6.35201
G1 X81.009 Y133.496 E6.37653
G1 X80.996 Y132.723 E6.40224
G1 X80.998 Y131.256 E6.45104
G1 X81.007 Y130.591 E6.47316
G1 X81.033 Y129.988 E6.49323
G1 X81.058 Y129.654 E6.50437
G1 X81.253 Y127.371 E6.58058
G1 X81.396 Y124.862 E6.66417
G1 X81.469 Y122.312 E6.74901
G1 X81.469 Y119.778 E6.8333
G1 X81.398 Y117.234 E6.91794
G1 X81.255 Y114.688 E7.00276
G1 X81.05 Y112.232 E7.08473
G1 X81.009 Y111.496 E7.10924
G1 X80.996 Y110.723 E7.13496
G1 X80.998 Y109.252 E7.18388
G1 X81.013 Y108.239 E7.21758
G1 X81.077 Y106.009 E7.29178
G1 X81.079 Y103.476 E7.37603
G1 X81.008 Y100.936 E7.46054
G1 X80.866 Y98.409 E7.54472
G1 X80.651 Y95.855 E7.62997
G1 X80.368 Y93.354 E7.71368
G1 X79.922 Y90.207 E7.8194
G1 X79.86 Y89.672 E7.83731
G1 X79.819 Y89.207 E7.85284
G1 X79.778 Y88.554 E7.8746
G1 X79.779 Y87.426 E7.91212
G1 X79.802 Y87.017 E7.92574
G1 X79.846 Y86.461 E7.94429
G1 X80.022 Y85.267 E7.98444
G1 X80.158 Y84.615 E8.00659
G1 X80.499 Y83.378 E8.04927
G1 X80.74 Y82.678 E8.07389
G1 X81.071 Y81.838 E8.10392
G1 X81.36 Y81.243 E8.12592
G1 X81.673 Y80.649 E8.14825
G1 X82.101 Y79.914 E8.17654
G1 X82.276 Y79.64 E8.18735
G1 X82.766 Y78.938 E8.21583
G1 X83.028 Y78.595 E8.23018
G1 X83.81 Y77.688 E8.27001
G1 X84.499 Y76.989 E8.30266
G1 X85.441 Y76.172 E8.34413
G1 X85.86 Y75.851 E8.36169
G1 X86.815 Y75.202 E8.40009
G1 X87.58 Y74.743 E8.42976
G1 X88.374 Y74.313 E8.4598
G1 X89.064 Y74.009 E8.48487
G1 X89.671 Y73.768 E8.5066
G1 X90.524 Y73.472 E8.53663
G1 X91.031 Y73.335 E8.55409
G1 X91.596 Y73.198 E8.57343
G1 X92.152 Y73.077 E8.59236
G1 X93.299 Y72.907 E8.63092
G1 X93.64 Y72.876 E8.64231
G1 X93.982 Y72.851 E8.65372
G1 X94.683 Y72.815 E8.67706
G1 X95.328 Y72.801 E8.69852
G1 X119.489 Y72.802 E9.50212
G1 X120.187 Y72.812 E9.52534
G0 F6000 X120.193 Y72.412
G1 F900 X120.788 Y72.437 E9.54514
G1 X121.967 Y72.522 E9.58446
G1 X122.691 Y72.583 E9.60862
G1 X125.205 Y72.725 E9.69237
G1 X127.782 Y72.797 E9.77812
G1 X128.82 Y72.812 E9.81265
G1 X129.739 Y72.865 E9.84326
G1 X130.65 Y72.998 E9.87388
G1 X131.546 Y73.209 E9.9045
G1 X132.42 Y73.497 E9.93511
G1 X133.266 Y73.86 E9.96573
G1 X134.078 Y74.295 E9.99636
G1 X134.848 Y74.799 E10.02697
G1 X135.572 Y75.368 E10.0576
G1 X136.07 Y75.824 E10.08006
G1 X136.193 Y75.944 E10.08577
G1 X136.824 Y76.615 E10.11641
G1 X137.394 Y77.338 E10.14703
G1 X137.898 Y78.108 E10.17764
G1 X138.335 Y78.918 E10.20825
G1 X138.699 Y79.764 E10.23888
G1 X138.989 Y80.638 E10.26951
G1 X139.201 Y81.534 E10.30013
G1 X139.335 Y82.444 E10.33073
G1 X139.389 Y83.323 E10.36002
G1 X139.401 Y84.033 E10.38364
G1 X139.401 Y85.692 E10.43882
G1 X139.391 Y86.407 E10.4626
G1 X139.388 Y88.791 E10.54189
G1 X139.402 Y90.063 E10.5842
G1 X139.4 Y91.74 E10.63998
G1 X139.382 Y92.736 E10.67311
G1 X139.355 Y93.327 E10.69279
G1 X139.256 Y95.061 E10.75055
G1 X139.183 Y97.602 E10.8351
G1 X139.181 Y100.112 E10.91859
G1 X139.252 Y102.65 E11.00303
G1 X139.376 Y104.955 E11.07981
G1 X139.389 Y105.339 E11.09259
G1 X139.401 Y106.09 E11.11757
G1 X139.401 Y107.75 E11.17278
G1 X139.391 Y108.462 E11.19647
G1 X139.388 Y110.895 E11.27739
G1 X139.401 Y112.051 E11.31584
G1 X139.401 Y113.747 E11.37225
G1 X139.383 Y114.741 E11.40531
G1 X139.361 Y115.215 E11.4211
G1 X139.254 Y117.104 E11.48402
G1 X139.182 Y119.636 E11.56827
G1 X139.182 Y122.16 E11.65222
G1 X139.255 Y124.74 E11.73807
G1 X139.376 Y126.974 E11.81248
G1 X139.391 Y127.374 E11.82579
G1 X139.401 Y128.09 E11.84961
G1 X139.401 Y129.75 E11.90482
G1 X139.391 Y130.462 E11.92851
G1 X139.388 Y132.895 E12.00943
G1 X139.401 Y134.051 E12.04788
G1 X139.401 Y135.747 E12.10429
G1 X139.383 Y136.741 E12.13735
G1 X139.361 Y137.215 E12.15314
G1 X139.254 Y139.104 E12.21606
G1 X139.182 Y141.636 E12.30031
G1 X139.182 Y144.16 E12.38426
G1 X139.255 Y146.74 E12.47011
G1 X139.376 Y148.974 E12.54452
G1 X139.391 Y149.374 E12.55783
G1 X139.401 Y150.09 E12.58165
G1 X139.401 Y151.75 E12.63686
G1 X139.391 Y152.462 E12.66054
G1 X139.388 Y154.855 E12.74014
G1 X139.401 Y156.011 E12.77859
G1 X139.401 Y157.734 E12.83589
G1 X139.392 Y158.398 E12.85798
G1 X139.34 Y159.317 E12.8886
G1 X139.208 Y160.228 E12.91921
G1 X138.997 Y161.124 E12.94983
G1 X138.709 Y161.999 E12.98047
G1 X138.347 Y162.845 E13.01107
G1 X137.913 Y163.657 E13.0417
G1 X137.409 Y164.428 E13.07233
G1 X136.828 Y165.168 E13.10363
G1 X136.717 Y165.297 E13.10929
G1 X136.087 Y165.968 E13.1399
G1 X135.401 Y166.582 E13.17052
G1 X134.664 Y167.134 E13.20114
G1 X133.882 Y167.62 E13.23177
G1 X133.061 Y168.036 E13.26238
G1 X132.207 Y168.38 E13.293
G1 X131.326 Y168.648 E13.32363
G1 X130.425 Y168.839 E13.35426
G1 X129.063 Y168.976 E13.39979
G1 X128.218 Y169.006 E13.42791
G1 X125.598 Y169.137 E13.51516
G1 X123.048 Y169.337 E13.60024
G1 X121.222 Y169.526 E13.6613
G1 X120.569 Y169.573 E13.68307
G1 X120.158 Y169.59 E13.69675
G1 X119.72 Y169.599 E13.71132
G1 X100.505 Y169.598 E14.35042
G1 X99.807 Y169.588 E14.37364
G1 X98.888 Y169.535 E14.40425
G1 X97.977 Y169.402 E14.43487
G1 X97.081 Y169.191 E14.46549
G1 X96.207 Y168.903 E14.4961
G1 X95.552 Y168.629 E14.51971
G1 X95.272 Y168.501 E14.52995
G1 X92.885 Y167.422 E14.61708
G1 X90.505 Y166.426 E14.70289
G1 X88.117 Y165.508 E14.78798
G1 X87.653 Y165.337 E14.80443
G1 X86.804 Y164.981 E14.83505
G1 X85.989 Y164.552 E14.86568
G1 X85.214 Y164.055 E14.8963
G1 X84.486 Y163.492 E14.92691
G1 X83.959 Y163.015 E14.95055
G1 X83.839 Y162.899 E14.9561
G1 X83.205 Y162.231 E14.98674
G1 X82.632 Y161.511 E15.01734
G1 X82.124 Y160.743 E15.04797
G1 X81.684 Y159.935 E15.07857
G1 X81.315 Y159.091 E15.10921
G1 X81.022 Y158.218 E15.13983
G1 X80.805 Y157.323 E15.17046
G1 X80.667 Y156.413 E15.20108
G1 X80.607 Y155.455 E15.233
G1 X80.596 Y154.67 E15.25911
G1 X80.598 Y153.251 E15.30631
G1 X80.607 Y152.586 E15.32843
G1 X80.634 Y151.959 E15.3493
G1 X80.66 Y151.619 E15.36064
G1 X80.852 Y149.374 E15.43559
G1 X80.996 Y146.844 E15.51987
G1 X81.069 Y144.3 E15.60452
G1 X81.069 Y141.789 E15.68804
G1 X80.998 Y139.231 E15.77315
G1 X80.858 Y136.741 E15.8561
G1 X80.652 Y134.269 E15.9386
G1 X80.609 Y133.504 E15.96408
G1 X80.596 Y132.723 E15.99006
G1 X80.598 Y131.251 E16.03902
G1 X80.607 Y130.586 E16.06114
G1 X80.634 Y129.959 E16.08202
G1 X80.66 Y129.619 E16.09336
G1 X80.852 Y127.374 E16.1683
G1 X80.996 Y124.844 E16.25258
G1 X81.069 Y122.3 E16.33723
G1 X81.069 Y119.789 E16.42075
G1 X80.998 Y117.231 E16.50586
G1 X80.858 Y114.741 E16.58881
G1 X80.652 Y112.269 E16.67131
G1 X80.609 Y111.504 E16.6968
G1 X80.596 Y110.723 E16.72278
G1 X80.598 Y109.246 E16.7719
G1 X80.613 Y108.227 E16.8058
G1 X80.677 Y105.997 E16.88
G1 X80.679 Y103.487 E16.96348
G1 X80.608 Y100.933 E17.04846
G1 X80.468 Y98.431 E17.13181
G1 X80.257 Y95.932 E17.21522
G1 X79.968 Y93.383 E17.30054
G1 X79.526 Y90.263 E17.40535
G1 X79.462 Y89.707 E17.42397
G1 X79.421 Y89.242 E17.43949
G1 X79.396 Y88.888 E17.4513
G1 X79.379 Y88.576 E17.46169
G1 X79.38 Y87.404 E17.50067
G1 X79.426 Y86.666 E17.52526
G1 X79.447 Y86.426 E17.53328
G1 X79.63 Y85.186 E17.57497
G1 X79.766 Y84.534 E17.59712
G1 X80.12 Y83.247 E17.64151
G1 X80.361 Y82.547 E17.66614
G1 X80.699 Y81.691 E17.69675
G1 X81.006 Y81.057 E17.72018
G1 X81.319 Y80.463 E17.74251
G1 X81.764 Y79.698 E17.77194
G1 X81.939 Y79.424 E17.78276
G1 X82.448 Y78.696 E17.8123
G1 X82.71 Y78.353 E17.82666
G1 X83.523 Y77.409 E17.86809
G1 X84.219 Y76.704 E17.90104
G1 X85.198 Y75.855 E17.94414
G1 X85.617 Y75.534 E17.9617
G1 X86.609 Y74.859 E18.00161
G1 X87.374 Y74.4 E18.03128
G1 X88.184 Y73.961 E18.06192
G1 X88.916 Y73.637 E18.08855
G1 X89.523 Y73.396 E18.11027
G1 X90.393 Y73.094 E18.1409
G1 X90.937 Y72.947 E18.15964
G1 X91.849 Y72.731 E18.19081
G1 X92.071 Y72.685 E18.19836
G1 X93.262 Y72.509 E18.2384
G1 X93.603 Y72.478 E18.24979
G1 X93.959 Y72.451 E18.26166
G1 X94.672 Y72.415 E18.28541
G1 X95.328 Y72.401 E18.30723
G1 X119.495 Y72.402 E19.11103
G1 X120.193 Y72.412 E19.13425
G0 F6000 X120.199 Y72.012
G1 F900 X120.816 Y72.038 E19.15478
G1 X122.001 Y72.123 E19.1943
G1 X122.713 Y72.183 E19.21806
G1 X125.238 Y72.325 E19.30218
G1 X127.799 Y72.397 E19.38739
G1 X128.825 Y72.412 E19.42152
G1 X129.762 Y72.466 E19.45274
G1 X130.69 Y72.598 E19.48391
G1 X131.604 Y72.81 E19.51512
G1 X132.496 Y73.099 E19.54631
G1 X133.361 Y73.462 E19.57751
G1 X134.191 Y73.898 E19.60869
G1 X134.981 Y74.403 E19.63987
G1 X135.726 Y74.974 E19.67109
G1 X136.35 Y75.537 E19.69905
G1 X136.473 Y75.657 E19.70476
G1 X137.115 Y76.34 E19.73594
G1 X137.698 Y77.076 E19.76717
G1 X138.215 Y77.858 E19.79835
G1 X138.664 Y78.681 E19.82953
G1 X139.041 Y79.54 E19.86073
G1 X139.344 Y80.427 E19.89191
G1 X139.57 Y81.338 E19.92313
G1 X139.718 Y82.264 E19.95432
G1 X139.789 Y83.315 E19.98935
G1 X139.801 Y84.033 E20.01324
G1 X139.801 Y85.698 E20.06861
G1 X139.791 Y86.391 E20.09167
G1 X139.788 Y88.791 E20.17149
G1 X139.802 Y90.063 E20.2138
G1 X139.8 Y91.746 E20.26978
G1 X139.791 Y92.416 E20.29206
G1 X139.781 Y92.753 E20.30328
G1 X139.754 Y93.35 E20.32315
G1 X139.654 Y95.096 E20.38132
G1 X139.583 Y97.578 E20.46391
G1 X139.581 Y100.101 E20.54782
G1 X139.652 Y102.654 E20.63277
G1 X139.775 Y104.933 E20.70868
G1 X139.789 Y105.332 E20.72196
G1 X139.801 Y106.09 E20.74717
G1 X139.801 Y107.756 E20.80258
G1 X139.791 Y108.469 E20.8263
G1 X139.788 Y110.892 E20.90689
G1 X139.801 Y112.051 E20.94544
G1 X139.801 Y113.753 E21.00205
G1 X139.792 Y114.423 E21.02433
G1 X139.76 Y115.237 E21.05143
G1 X139.654 Y117.102 E21.11356
G1 X139.582 Y119.663 E21.19877
G1 X139.582 Y122.149 E21.28146
G1 X139.654 Y124.708 E21.3666
G1 X139.776 Y126.953 E21.44138
G1 X139.791 Y127.368 E21.45519
G1 X139.801 Y128.09 E21.47921
G1 X139.801 Y129.756 E21.53462
G1 X139.791 Y130.469 E21.55834
G1 X139.788 Y132.892 E21.63893
G1 X139.801 Y134.051 E21.67748
G1 X139.801 Y135.753 E21.73409
G1 X139.792 Y136.423 E21.75637
G1 X139.76 Y137.237 E21.78347
G1 X139.654 Y139.102 E21.8456
G1 X139.582 Y141.663 E21.93081
G1 X139.582 Y144.149 E22.0135
G1 X139.654 Y146.708 E22.09864
G1 X139.776 Y148.953 E22.17342
G1 X139.791 Y149.368 E22.18723
G1 X139.801 Y150.09 E22.21125
G1 X139.801 Y151.756 E22.26666
G1 X139.791 Y152.469 E22.29038
G1 X139.788 Y154.861 E22.36994
G1 X139.801 Y156.011 E22.40819
G1 X139.801 Y157.739 E22.46566
G1 X139.792 Y158.403 E22.48775
G1 X139.739 Y159.339 E22.51893
G1 X139.607 Y160.268 E22.55014
G1 X139.396 Y161.182 E22.58134
G1 X139.108 Y162.074 E22.61251
G1 X138.745 Y162.939 E22.64371
G1 X138.31 Y163.77 E22.67491
G1 X137.806 Y164.561 E22.70611
G1 X137.131 Y165.429 E22.74268
G1 X137.02 Y165.558 E22.74834
G1 X136.379 Y166.242 E22.77952
G1 X135.681 Y166.869 E22.81072
G1 X134.933 Y167.434 E22.8419
G1 X134.139 Y167.934 E22.87311
G1 X133.306 Y168.364 E22.90429
G1 X132.439 Y168.722 E22.93549
G1 X131.544 Y169.004 E22.9667
G1 X130.629 Y169.209 E22.99789
G1 X129.7 Y169.336 E23.02907
G1 X129.078 Y169.376 E23.0498
G1 X128.179 Y169.408 E23.07972
G1 X125.613 Y169.536 E23.16517
G1 X123.124 Y169.731 E23.24821
G1 X121.264 Y169.924 E23.31041
G1 X120.586 Y169.973 E23.33302
G1 X120.175 Y169.99 E23.3467
G1 X119.72 Y169.999 E23.36184
G1 X100.499 Y169.998 E24.00113
G1 X99.801 Y169.988 E24.02435
G1 X98.865 Y169.934 E24.05553
G1 X97.937 Y169.802 E24.08671
G1 X97.023 Y169.59 E24.11791
