;FLAVOR:Marlin
;TIME:9796
;Filament used: 6.36451m
;Layer height: 0.2
;MINX:41.516
;MINY:68.263
;MINZ:0.2
;MAXX:178.467
;MAXY:150.462
;MAXZ:14
;Generated with Cura_SteamEngine 4.6.1
M82 ;absolute extrusion mode
M140 S75 ; start heating the bed to what is set in Cura
M104 S215 T0 ; start heating T0 to what is set in Cura
G92 E0 ; Reset Extruder
M280 P0 S160 ; BLTouch alarm release
G4 P100 ; delay for BLTouch
G28 ; home
G29 ; auto bed leveling
;Wait until everything is hot
M190 S75
M109 S215 T0
G1 Z2.0 F3000 ; Move Z Axis up little to prevent scratching of Heat Bed
G1 X0.1 Y20 Z0.3 F5000.0 ; Move to start position
G1 X0.1 Y200.0 Z0.3 F1500.0 E15 ; Draw the first line
G1 X0.4 Y200.0 Z0.3 F5000.0 ; Move to side a little
G1 X0.4 Y20 Z0.3 F1500.0 E30 ; Draw the second line
G92 E0 ; Reset Extruder
G1 Z2.0 F3000 ; Move Z Axis up little to prevent scratching of Heat Bed
G1 X5 Y20 Z0.3 F5000.0 ; Move over to prevent blob squish
G92 E0
G92 E0
G1 F1500 E-6
;LAYER_COUNT:70
;LAYER:0
M107
G0 F6000 X161.636 Y69.074 Z0.2
;TYPE:SKIRT
G1 F1500 E0
G1 F900 X162.122 Y69.092 E0.01618
G1 X162.51 Y69.116 E0.02911
G1 X162.823 Y69.141 E0.03955
G1 X163.254 Y69.181 E0.05395
G1 X164.472 Y69.369 E0.09494
G1 X165.27 Y69.542 E0.12209
G1 X165.653 Y69.632 E0.13518
G1 X165.886 Y69.692 E0.14318
G1 X166.978 Y70.04 E0.1813
G1 X167.282 Y70.156 E0.19212
G1 X167.714 Y70.332 E0.20764
G1 X168.305 Y70.589 E0.22907
G1 X169.303 Y71.09 E0.26622
G1 X169.483 Y71.193 E0.27311
G1 X169.897 Y71.443 E0.2892
G1 X170.536 Y71.85 E0.3144
G1 X171.475 Y72.526 E0.35288
G1 X171.659 Y72.675 E0.36075
G1 X172.04 Y73 E0.37741
G1 X172.571 Y73.475 E0.40111
G1 X173.366 Y74.268 E0.43845
G1 X173.522 Y74.442 E0.44623
G1 X173.858 Y74.838 E0.4635
G1 X174.327 Y75.418 E0.48831
G1 X174.997 Y76.349 E0.52646
G1 X175.113 Y76.531 E0.53364
G1 X175.358 Y76.935 E0.54935
G1 X175.73 Y77.583 E0.5742
G1 X176.311 Y78.767 E0.61807
G1 X176.463 Y79.135 E0.63131
G1 X176.608 Y79.505 E0.64453
G1 X176.795 Y80.013 E0.66253
G1 X177.091 Y80.955 E0.69538
G1 X177.147 Y81.169 E0.70273
G1 X177.282 Y81.756 E0.72277
G1 X177.431 Y82.503 E0.7481
G1 X177.593 Y83.655 E0.78679
G1 X177.612 Y83.884 E0.79444
G1 X177.64 Y84.355 E0.81013
G1 X177.667 Y85.094 E0.83473
G1 X177.64 Y86.302 E0.87491
G1 X177.616 Y86.594 E0.88466
G1 X177.569 Y87.039 E0.89954
G1 X177.487 Y87.687 E0.92127
G1 X177.292 Y88.764 E0.95767
G1 X177.244 Y88.966 E0.96457
G1 X177.112 Y89.464 E0.98171
G1 X176.895 Y90.208 E1.00749
G1 X176.433 Y91.474 E1.05231
G1 X176.262 Y91.861 E1.06638
G1 X176.101 Y92.208 E1.07911
G1 X175.848 Y92.727 E1.09831
G1 X175.416 Y93.521 E1.12837
G1 X175.173 Y93.906 E1.14352
G1 X174.917 Y94.291 E1.15889
G1 X174.707 Y94.594 E1.17116
G1 X174.401 Y95.02 E1.1886
G1 X173.709 Y95.88 E1.22531
G1 X173.552 Y96.055 E1.23313
G1 X173.2 Y96.429 E1.25022
G1 X172.681 Y96.952 E1.27472
G1 X171.811 Y97.733 E1.31361
G1 X171.354 Y98.098 E1.33306
G1 X169.317 Y99.773 E1.42078
G1 X167.404 Y101.44 E1.50517
G1 X165.537 Y103.161 E1.58962
G1 X163.722 Y104.932 E1.67397
G1 X161.952 Y106.76 E1.7586
G1 X160.239 Y108.631 E1.84297
G1 X158.573 Y110.559 E1.92772
G1 X156.976 Y112.515 E2.01171
G1 X155.409 Y114.55 E2.09713
G1 X153.937 Y116.579 E2.18051
G1 X152.487 Y118.701 E2.26599
G1 X151.118 Y120.828 E2.35012
G1 X149.81 Y122.995 E2.43431
G1 X148.554 Y125.216 E2.51917
G1 X147.375 Y127.444 E2.60301
G1 X146.141 Y129.953 E2.69601
G1 X145.921 Y130.418 E2.71312
G1 X145.534 Y131.205 E2.74229
G1 X145.244 Y131.777 E2.76362
G1 X144.982 Y132.26 E2.78189
G1 X144.546 Y133.013 E2.81083
G1 X144.195 Y133.598 E2.83352
G1 X143.816 Y134.212 E2.85752
G1 X143.551 Y134.618 E2.87365
G1 X143.126 Y135.235 E2.89857
G1 X142.691 Y135.844 E2.92346
G1 X142.266 Y136.424 E2.94737
G1 X141.918 Y136.872 E2.96624
G1 X141.437 Y137.455 E2.99138
G1 X140.903 Y138.084 E3.01882
G1 X140.425 Y138.631 E3.04298
G1 X140.049 Y139.038 E3.06141
G1 X139.487 Y139.613 E3.08815
G1 X138.975 Y140.122 E3.11217
G1 X138.47 Y140.612 E3.13557
G1 X138.036 Y141.01 E3.15516
G1 X137.444 Y141.52 E3.18115
G1 X136.912 Y141.969 E3.2043
G1 X136.34 Y142.438 E3.2289
G1 X135.92 Y142.764 E3.24659
G1 X135.294 Y143.224 E3.27242
G1 X134.759 Y143.605 E3.29427
G1 X134.147 Y144.028 E3.31901
G1 X133.703 Y144.318 E3.33665
G1 X133.023 Y144.736 E3.3632
G1 X132.377 Y145.119 E3.38818
G1 X131.733 Y145.491 E3.41291
G1 X131.218 Y145.77 E3.43239
G1 X130.512 Y146.124 E3.45866
G1 X129.82 Y146.459 E3.48423
G1 X129.225 Y146.737 E3.50608
G1 X128.777 Y146.933 E3.52234
G1 X128.021 Y147.242 E3.54951
G1 X127.401 Y147.483 E3.57163
G1 X126.694 Y147.747 E3.59673
G1 X126.188 Y147.921 E3.61453
G1 X125.474 Y148.144 E3.63941
G1 X124.67 Y148.383 E3.6673
G1 X123.998 Y148.572 E3.69052
G1 X123.462 Y148.707 E3.70891
G1 X122.618 Y148.895 E3.73767
G1 X122.007 Y149.022 E3.75842
G1 X121.243 Y149.17 E3.78431
G1 X120.694 Y149.261 E3.80281
G1 X119.942 Y149.363 E3.82806
G1 X119.189 Y149.454 E3.85328
G1 X118.474 Y149.531 E3.8772
G1 X117.963 Y149.573 E3.89425
G1 X117.167 Y149.617 E3.92077
G1 X116.505 Y149.643 E3.9428
G1 X115.781 Y149.662 E3.96689
G1 X115.245 Y149.662 E3.98472
G1 X114.451 Y149.641 E4.01114
G1 X113.691 Y149.608 E4.03644
G1 X112.951 Y149.567 E4.06109
G1 X112.376 Y149.519 E4.08028
G1 X111.554 Y149.426 E4.1078
G1 X110.836 Y149.334 E4.13187
G1 X110.179 Y149.242 E4.15394
G1 X109.664 Y149.157 E4.1713
G1 X108.859 Y149 E4.19858
G1 X108.241 Y148.869 E4.21959
G1 X107.511 Y148.706 E4.24447
G1 X106.962 Y148.567 E4.2633
G1 X106.218 Y148.356 E4.28902
G1 X105.419 Y148.117 E4.31676
G1 X104.795 Y147.921 E4.33852
G1 X104.269 Y147.74 E4.35702
G1 X103.47 Y147.439 E4.38542
G1 X102.849 Y147.195 E4.40761
G1 X102.166 Y146.916 E4.43215
G1 X101.671 Y146.698 E4.45014
G1 X100.967 Y146.365 E4.47604
G1 X100.266 Y146.02 E4.50202
G1 X99.645 Y145.704 E4.5252
G1 X99.171 Y145.446 E4.54315
G1 X98.592 Y145.111 E4.5654
G1 X97.936 Y144.721 E4.59078
G1 X97.337 Y144.354 E4.61414
G1 X96.862 Y144.044 E4.63301
G1 X96.132 Y143.538 E4.66255
G1 X95.587 Y143.145 E4.6849
G1 X94.977 Y142.697 E4.71007
G1 X94.503 Y142.327 E4.73007
G1 X93.949 Y141.867 E4.75402
G1 X93.415 Y141.412 E4.77736
G1 X92.83 Y140.901 E4.80319
G1 X92.407 Y140.51 E4.82235
G1 X91.849 Y139.963 E4.84834
G1 X91.315 Y139.425 E4.87355
G1 X90.856 Y138.95 E4.89552
G1 X90.536 Y138.603 E4.91122
G1 X89.985 Y137.974 E4.93903
G1 X89.513 Y137.415 E4.96337
G1 X89.101 Y136.914 E4.98494
G1 X88.766 Y136.483 E5.0031
G1 X88.27 Y135.808 E5.03096
G1 X87.8 Y135.147 E5.05793
G1 X87.422 Y134.6 E5.08005
G1 X87.118 Y134.134 E5.09855
G1 X85.308 Y131.183 E5.2137
G1 X83.926 Y129.066 E5.29778
G1 X82.49 Y126.996 E5.38158
G1 X80.961 Y124.92 E5.46733
G1 X79.428 Y122.958 E5.55014
G1 X77.78 Y120.968 E5.63608
G1 X76.122 Y119.078 E5.7197
G1 X74.395 Y117.216 E5.80417
G1 X72.615 Y115.405 E5.88863
G1 X70.772 Y113.629 E5.97376
G1 X68.89 Y111.918 E6.05835
G1 X66.975 Y110.274 E6.1423
G1 X65.007 Y108.678 E6.22657
G1 X62.983 Y107.13 E6.31132
G1 X60.904 Y105.632 E6.39655
G1 X58.826 Y104.221 E6.48009
G1 X56.695 Y102.86 E6.56419
G1 X54.508 Y101.55 E6.64898
G1 X51.224 Y99.733 E6.77382
G1 X50.889 Y99.556 E6.78642
G1 X50.243 Y99.185 E6.81119
G1 X49.883 Y98.96 E6.82531
G1 X49.578 Y98.762 E6.83741
G1 X49.097 Y98.437 E6.85672
G1 X48.372 Y97.898 E6.88676
G1 X48.007 Y97.586 E6.90273
G1 X47.477 Y97.107 E6.92649
G1 X47.072 Y96.724 E6.94503
G1 X46.166 Y95.748 E6.98933
G1 X45.918 Y95.443 E7.0024
G1 X45.685 Y95.145 E7.01498
G1 X45.334 Y94.679 E7.03439
G1 X44.623 Y93.6 E7.07737
G1 X44.418 Y93.241 E7.09112
G1 X44.236 Y92.907 E7.10377
G1 X43.969 Y92.396 E7.12294
G1 X43.439 Y91.2 E7.16645
G1 X43.293 Y90.804 E7.18049
G1 X43.163 Y90.431 E7.19363
G1 X42.988 Y89.893 E7.21245
G1 X42.667 Y88.642 E7.2554
G1 X42.587 Y88.221 E7.26965
G1 X42.525 Y87.857 E7.28194
G1 X42.443 Y87.32 E7.3
G1 X42.329 Y86.019 E7.34344
G1 X42.318 Y85.55 E7.35904
G1 X42.316 Y85.158 E7.37208
G1 X42.324 Y84.623 E7.38988
G1 X42.428 Y83.315 E7.43352
G1 X42.493 Y82.866 E7.44861
G1 X42.553 Y82.502 E7.46088
G1 X42.647 Y81.985 E7.47836
G1 X42.955 Y80.741 E7.52098
G1 X43.085 Y80.329 E7.53535
G1 X43.216 Y79.939 E7.54903
G1 X43.411 Y79.398 E7.56816
G1 X43.755 Y78.563 E7.5982
G1 X43.957 Y78.153 E7.6134
G1 X44.329 Y77.446 E7.63997
G1 X44.568 Y77.019 E7.65625
G1 X45.278 Y75.922 E7.69971
G1 X45.537 Y75.573 E7.71416
G1 X45.768 Y75.274 E7.72673
G1 X46.123 Y74.831 E7.74561
G1 X47.034 Y73.837 E7.79046
G1 X47.354 Y73.531 E7.80518
G1 X47.601 Y73.303 E7.81636
G1 X48.001 Y72.945 E7.83422
G1 X49.039 Y72.13 E7.87811
G1 X49.404 Y71.88 E7.89283
G1 X49.701 Y71.684 E7.90466
G1 X50.172 Y71.385 E7.92322
G1 X50.955 Y70.935 E7.95325
G1 X51.381 Y70.727 E7.96902
G1 X51.775 Y70.546 E7.98344
G1 X52.067 Y70.418 E7.99405
G1 X52.574 Y70.204 E8.01235
G1 X53.811 Y69.773 E8.05592
G1 X54.236 Y69.655 E8.07059
G1 X54.589 Y69.564 E8.08271
G1 X55.115 Y69.438 E8.1007
G1 X56.443 Y69.211 E8.14551
G1 X56.869 Y69.167 E8.15976
G1 X57.22 Y69.137 E8.17148
G1 X57.833 Y69.095 E8.19191
G1 X58.403 Y69.072 E8.21089
G1 X59.172 Y69.063 E8.23646
G1 X160.786 Y69.063 E11.61616
G1 X160.93 Y69.064 E11.62095
G1 X161.636 Y69.074 E11.64443
G0 F6000 X161.642 Y68.674
G1 F900 X162.146 Y68.693 E11.66121
G1 X162.86 Y68.742 E11.68501
G1 X163.291 Y68.782 E11.69941
G1 X164.557 Y68.978 E11.74202
G1 X165.355 Y69.151 E11.76918
G1 X165.985 Y69.305 E11.79075
G1 X167.121 Y69.666 E11.83039
G1 X167.425 Y69.782 E11.84121
G1 X167.873 Y69.965 E11.85731
G1 X168.464 Y70.222 E11.87874
G1 X169.502 Y70.743 E11.91737
G1 X169.682 Y70.846 E11.92427
G1 X170.112 Y71.105 E11.94097
G1 X170.751 Y71.512 E11.96617
G1 X171.727 Y72.215 E12.00617
G1 X171.911 Y72.364 E12.01405
G1 X172.307 Y72.702 E12.03136
G1 X172.838 Y73.177 E12.05506
G1 X173.663 Y74.001 E12.09384
G1 X173.819 Y74.175 E12.10161
G1 X174.169 Y74.586 E12.11957
G1 X174.638 Y75.166 E12.14438
G1 X175.335 Y76.134 E12.18405
G1 X175.451 Y76.316 E12.19123
G1 X175.705 Y76.736 E12.20755
G1 X176.077 Y77.384 E12.23241
G1 X176.681 Y78.614 E12.27798
G1 X176.833 Y78.982 E12.29122
G1 X176.983 Y79.367 E12.30497
G1 X177.17 Y79.875 E12.32297
G1 X177.478 Y80.854 E12.35711
G1 X177.534 Y81.068 E12.36446
G1 X177.674 Y81.678 E12.38528
G1 X177.823 Y82.425 E12.41062
G1 X177.992 Y83.622 E12.45082
G1 X178.011 Y83.851 E12.45846
G1 X178.04 Y84.34 E12.47476
G1 X178.067 Y85.079 E12.49935
G1 X178.038 Y86.334 E12.54111
G1 X178.014 Y86.626 E12.55085
G1 X177.966 Y87.089 E12.56633
G1 X177.884 Y87.737 E12.58806
G1 X177.681 Y88.857 E12.62592
G1 X177.633 Y89.059 E12.63282
G1 X177.496 Y89.576 E12.65061
G1 X177.279 Y90.32 E12.67639
G1 X176.983 Y91.192 E12.70701
G1 X176.799 Y91.636 E12.723
G1 X176.628 Y92.023 E12.73707
G1 X176.46 Y92.384 E12.75032
G1 X176.207 Y92.903 E12.76952
G1 X175.768 Y93.712 E12.80013
G1 X175.506 Y94.127 E12.81646
G1 X175.25 Y94.512 E12.83183
G1 X175.032 Y94.827 E12.84458
G1 X174.726 Y95.253 E12.86202
G1 X174.007 Y96.148 E12.90021
G1 X173.85 Y96.323 E12.90802
G1 X173.484 Y96.711 E12.92577
G1 X172.965 Y97.234 E12.95027
G1 X172.061 Y98.046 E12.99069
G1 X171.573 Y98.436 E13.01146
G1 X169.568 Y100.085 E13.09781
G1 X167.675 Y101.735 E13.18133
G1 X165.804 Y103.459 E13.26595
G1 X164.024 Y105.196 E13.34867
G1 X162.234 Y107.044 E13.43424
G1 X160.538 Y108.897 E13.51779
G1 X158.884 Y110.81 E13.6019
G1 X157.287 Y112.766 E13.68589
G1 X155.722 Y114.8 E13.77125
G1 X154.258 Y116.817 E13.85414
G1 X152.831 Y118.905 E13.93826
G1 X151.47 Y121.021 E14.02194
G1 X150.142 Y123.219 E14.10735
G1 X148.913 Y125.394 E14.19044
G1 X147.723 Y127.642 E14.27504
G1 X146.516 Y130.097 E14.36603
G1 X146.28 Y130.594 E14.38433
G1 X145.89 Y131.386 E14.41369
G1 X145.6 Y131.958 E14.43502
G1 X145.329 Y132.46 E14.45399
G1 X144.889 Y133.219 E14.48317
G1 X144.535 Y133.808 E14.50603
G1 X144.156 Y134.422 E14.53003
G1 X143.881 Y134.844 E14.54678
G1 X143.452 Y135.468 E14.57197
G1 X143.013 Y136.08 E14.59702
G1 X142.588 Y136.66 E14.62093
G1 X142.227 Y137.125 E14.64051
G1 X141.742 Y137.714 E14.66589
G1 X141.204 Y138.347 E14.69352
G1 X140.726 Y138.894 E14.71768
G1 X140.335 Y139.317 E14.73684
G1 X139.769 Y139.896 E14.76377
G1 X139.253 Y140.409 E14.78797
G1 X138.748 Y140.899 E14.81137
G1 X138.298 Y141.312 E14.83169
G1 X137.702 Y141.826 E14.85787
G1 X137.166 Y142.278 E14.88119
G1 X136.594 Y142.747 E14.90579
G1 X136.157 Y143.086 E14.92418
G1 X135.526 Y143.55 E14.95023
G1 X134.986 Y143.934 E14.97227
G1 X134.374 Y144.357 E14.99702
G1 X133.913 Y144.658 E15.01533
G1 X133.227 Y145.08 E15.04212
G1 X132.577 Y145.466 E15.06726
G1 X131.933 Y145.838 E15.092
G1 X131.398 Y146.127 E15.11222
G1 X130.687 Y146.483 E15.13867
G1 X129.989 Y146.821 E15.16446
G1 X129.394 Y147.099 E15.18631
G1 X128.929 Y147.303 E15.20319
G1 X128.167 Y147.614 E15.23057
G1 X127.541 Y147.857 E15.2529
G1 X126.834 Y148.121 E15.278
G1 X126.308 Y148.302 E15.29651
G1 X125.588 Y148.527 E15.32159
G1 X124.778 Y148.768 E15.3497
G1 X124.106 Y148.957 E15.37292
G1 X123.549 Y149.097 E15.39202
G1 X122.7 Y149.287 E15.42096
G1 X122.083 Y149.415 E15.44192
G1 X121.319 Y149.563 E15.4678
G1 X120.748 Y149.657 E15.48705
G1 X119.991 Y149.76 E15.51246
G1 X119.232 Y149.852 E15.53789
G1 X118.517 Y149.929 E15.56181
G1 X117.986 Y149.973 E15.57953
G1 X117.184 Y150.017 E15.60624
G1 X116.515 Y150.043 E15.62851
G1 X115.791 Y150.062 E15.6526
G1 X115.234 Y150.062 E15.67112
G1 X114.434 Y150.04 E15.69774
G1 X113.669 Y150.008 E15.72321
G1 X112.929 Y149.967 E15.74786
G1 X112.331 Y149.917 E15.76782
G1 X111.504 Y149.823 E15.7955
G1 X110.781 Y149.731 E15.81974
G1 X110.124 Y149.639 E15.84181
G1 X109.589 Y149.55 E15.85985
G1 X108.776 Y149.391 E15.8874
G1 X108.154 Y149.259 E15.90855
G1 X107.424 Y149.096 E15.93343
G1 X106.853 Y148.952 E15.95301
G1 X106.104 Y148.739 E15.97891
G1 X105.3 Y148.499 E16.00682
G1 X104.676 Y148.303 E16.02857
G1 X104.128 Y148.114 E16.04785
G1 X103.325 Y147.812 E16.07639
G1 X102.698 Y147.565 E16.0988
G1 X102.015 Y147.286 E16.12334
G1 X101.501 Y147.06 E16.14201
G1 X100.791 Y146.724 E16.16814
G1 X100.085 Y146.376 E16.19432
G1 X99.464 Y146.06 E16.21749
G1 X98.971 Y145.793 E16.23614
G1 X98.388 Y145.455 E16.25856
G1 X97.727 Y145.062 E16.28413
G1 X97.128 Y144.695 E16.3075
G1 X96.634 Y144.373 E16.32711
G1 X95.899 Y143.862 E16.35688
G1 X95.35 Y143.467 E16.37938
G1 X94.74 Y143.019 E16.40455
G1 X94.248 Y142.635 E16.42531
G1 X93.69 Y142.172 E16.44943
G1 X93.152 Y141.713 E16.47295
G1 X92.567 Y141.202 E16.49878
G1 X92.127 Y140.796 E16.51869
G1 X91.565 Y140.245 E16.54487
G1 X91.027 Y139.703 E16.57027
G1 X90.568 Y139.228 E16.59224
G1 X90.235 Y138.867 E16.60858
G1 X89.68 Y138.233 E16.6366
G1 X89.204 Y137.669 E16.66115
G1 X88.792 Y137.168 E16.68272
G1 X88.443 Y136.72 E16.70161
G1 X87.944 Y136.04 E16.72966
G1 X87.471 Y135.374 E16.75683
G1 X87.093 Y134.827 E16.77895
G1 X86.777 Y134.343 E16.79817
G1 X84.975 Y131.405 E16.91281
G1 X83.595 Y129.291 E16.99678
G1 X82.155 Y127.215 E17.08081
G1 X80.652 Y125.175 E17.16509
G1 X79.106 Y123.197 E17.24858
G1 X77.47 Y121.221 E17.33391
G1 X75.829 Y119.35 E17.41668
G1 X74.099 Y117.485 E17.50129
G1 X72.336 Y115.69 E17.58497
G1 X70.508 Y113.93 E17.66937
G1 X68.643 Y112.234 E17.75322
G1 X66.686 Y110.555 E17.83898
G1 X64.758 Y108.99 E17.92157
G1 X62.751 Y107.456 E18.00559
G1 X60.692 Y105.971 E18.09003
G1 X58.592 Y104.545 E18.17445
G1 X56.481 Y103.198 E18.25774
G1 X54.323 Y101.905 E18.34141
G1 X51.042 Y100.089 E18.46614
G1 X50.702 Y99.91 E18.47892
G1 X50.031 Y99.524 E18.50467
G1 X49.671 Y99.299 E18.51879
G1 X49.355 Y99.093 E18.53133
G1 X48.874 Y98.768 E18.55064
G1 X48.134 Y98.22 E18.58127
G1 X47.74 Y97.885 E18.59847
G1 X47.202 Y97.398 E18.62261
G1 X46.797 Y97.015 E18.64115
G1 X46.156 Y96.354 E18.67177
G1 X45.856 Y96 E18.6872
G1 X45.608 Y95.695 E18.70028
G1 X45.365 Y95.385 E18.71338
G1 X45.014 Y94.919 E18.73278
G1 X44.276 Y93.798 E18.77742
G1 X44.071 Y93.439 E18.79117
