;FLAVOR:Marlin
;TIME:16832
;Filament used: 9.97316m
;Layer height: 0.2
;MINX:69.419
;MINY:62.175
;MINZ:0.2
;MAXX:150.58
;MAXY:157.825
;MAXZ:19.4
;Generated with Cura_SteamEngine 4.6.1
M82 ;absolute extrusion mode
M140 S75 ; start heating the bed to what is set in Cura
M104 S215 T0 ; start heating T0 to what is set in Cura
G92 E0 ; Reset Extruder
M280 P0 S160 ; BLTouch alarm release
G4 P100 ; delay for BLTouch
G28 ; home
G29 ; auto bed leveling
;Wait until everything is hot
M190 S75
M109 S215 T0
G1 Z2.0 F3000 ; Move Z Axis up little to prevent scratching of Heat Bed
G1 X0.1 Y20 Z0.3 F5000.0 ; Move to start position
G1 X0.1 Y200.0 Z0.3 F1500.0 E15 ; Draw the first line
G1 X0.4 Y200.0 Z0.3 F5000.0 ; Move to side a little
G1 X0.4 Y20 Z0.3 F1500.0 E30 ; Draw the second line
G92 E0 ; Reset Extruder
G1 Z2.0 F3000 ; Move Z Axis up little to prevent scratching of Heat Bed
G1 X5 Y20 Z0.3 F5000.0 ; Move over to prevent blob squish
G92 E0
G92 E0
G1 F1500 E-6
;LAYER_COUNT:97
;LAYER:0
M107
G0 F6000 X128.594 Y62.989 Z0.2
;TYPE:SKIRT
G1 F1500 E0
G1 F900 X129.738 Y63.07 E0.03814
G1 X130.035 Y63.108 E0.0481
G1 X130.925 Y63.263 E0.07815
G1 X131.448 Y63.392 E0.09607
G1 X131.804 Y63.49 E0.10835
G1 X132.936 Y63.874 E0.14811
G1 X133.16 Y63.965 E0.15615
G1 X133.981 Y64.342 E0.1862
G1 X134.905 Y64.879 E0.22174
G1 X135.2 Y65.072 E0.23347
G1 X135.933 Y65.6 E0.26351
G1 X136.779 Y66.346 E0.30103
G1 X137.145 Y66.707 E0.31813
G1 X137.759 Y67.369 E0.34816
G1 X138.312 Y68.083 E0.37819
G1 X138.644 Y68.583 E0.39816
G1 X138.792 Y68.821 E0.40748
G1 X139.234 Y69.608 E0.4375
G1 X139.619 Y70.464 E0.46872
G1 X139.86 Y71.075 E0.49056
G1 X140.069 Y71.657 E0.51113
G1 X140.398 Y72.665 E0.5464
G1 X141.226 Y75.092 E0.63169
G1 X142.111 Y77.456 E0.71564
G1 X143.084 Y79.853 E0.80169
G1 X144.086 Y82.13 E0.88443
G1 X145.181 Y84.441 E0.96948
G1 X146.344 Y86.726 E1.05476
G1 X147.57 Y88.974 E1.13993
G1 X148.264 Y90.186 E1.18638
G1 X148.573 Y90.769 E1.20832
G1 X148.716 Y91.061 E1.21914
G1 X149.077 Y91.889 E1.24918
G1 X149.364 Y92.745 E1.27921
G1 X149.573 Y93.624 E1.30926
G1 X149.704 Y94.517 E1.33928
G1 X149.753 Y95.308 E1.36564
G1 X149.779 Y96.525 E1.40613
G1 X149.78 Y104.105 E1.65824
G1 X149.771 Y104.747 E1.67959
G1 X149.718 Y105.649 E1.70965
G1 X149.633 Y106.281 E1.73085
G1 X149.591 Y106.533 E1.73935
G1 X149.403 Y107.416 E1.76938
G1 X149.138 Y108.28 E1.79944
G1 X148.862 Y108.974 E1.82428
G1 X147.732 Y111.535 E1.91738
G1 X146.774 Y113.881 E2.00166
G1 X145.879 Y116.263 E2.0863
G1 X145.056 Y118.656 E2.17046
G1 X144.308 Y121.049 E2.25385
G1 X143.606 Y123.542 E2.34
G1 X142.987 Y125.999 E2.42427
G1 X142.436 Y128.495 E2.50929
G1 X141.963 Y130.959 E2.59273
G1 X141.555 Y133.463 E2.67712
G1 X141.216 Y135.994 E2.76205
G1 X140.95 Y138.52 E2.84653
G1 X140.757 Y141.041 E2.93062
G1 X140.632 Y143.637 E3.01707
G1 X140.595 Y145.022 E3.06315
G1 X140.549 Y145.76 E3.08774
G1 X140.513 Y146.123 E3.09987
G1 X140.338 Y147.248 E3.13774
G1 X140.282 Y147.51 E3.14665
G1 X140.054 Y148.384 E3.1767
G1 X139.891 Y148.869 E3.19371
G1 X139.785 Y149.16 E3.20401
G1 X139.439 Y149.994 E3.23405
G1 X138.884 Y151.021 E3.27287
G1 X138.643 Y151.412 E3.28815
G1 X138.136 Y152.159 E3.31818
G1 X137.277 Y153.166 E3.3622
G1 X137.007 Y153.444 E3.37509
G1 X136.35 Y154.064 E3.40513
G1 X135.529 Y154.701 E3.4397
G1 X135.307 Y154.856 E3.4487
G1 X134.855 Y155.154 E3.46671
G1 X134.646 Y155.284 E3.4749
G1 X133.859 Y155.727 E3.50493
G1 X132.635 Y156.248 E3.54918
G1 X132.233 Y156.389 E3.56335
G1 X131.368 Y156.65 E3.5934
G1 X130.484 Y156.833 E3.62342
G1 X129.976 Y156.902 E3.64048
G1 X129.532 Y156.951 E3.65533
G1 X128.639 Y157.011 E3.6851
G1 X127.933 Y157.024 E3.70859
G1 X127.33 Y157.025 E3.72864
G1 X82.993 Y157.024 E5.2033
G1 X82.3 Y157.014 E5.22635
G1 X81.429 Y156.964 E5.25537
G1 X81.14 Y156.935 E5.26503
G1 X80.091 Y156.774 E5.30032
G1 X79.772 Y156.708 E5.31116
G1 X78.897 Y156.487 E5.34118
G1 X78.368 Y156.311 E5.35972
G1 X78.1 Y156.214 E5.3692
G1 X77.265 Y155.869 E5.39925
G1 X76.27 Y155.337 E5.43677
G1 X76.03 Y155.191 E5.44612
G1 X75.242 Y154.66 E5.47772
G1 X75.031 Y154.503 E5.48647
G1 X74.045 Y153.668 E5.52944
G1 X73.803 Y153.435 E5.54062
G1 X73.181 Y152.78 E5.57066
G1 X72.619 Y152.073 E5.6007
G1 X72.276 Y151.568 E5.621
G1 X72.046 Y151.207 E5.63524
G1 X71.595 Y150.424 E5.66529
G1 X71.056 Y149.195 E5.70993
G1 X70.903 Y148.772 E5.72489
G1 X70.634 Y147.91 E5.75492
G1 X70.385 Y146.657 E5.79741
G1 X70.321 Y146.179 E5.81345
G1 X70.232 Y144.97 E5.85377
G1 X70.221 Y144.123 E5.88195
G1 X70.224 Y98.615 E7.39555
G1 X70.219 Y97.93 E7.41833
G1 X70.22 Y73.725 E8.2234
G1 X70.23 Y73.036 E8.24631
G1 X70.283 Y72.134 E8.27637
G1 X70.416 Y71.241 E8.3064
G1 X70.627 Y70.363 E8.33643
G1 X70.915 Y69.507 E8.36647
G1 X71.277 Y68.68 E8.39649
G1 X71.712 Y67.888 E8.42655
G1 X72.214 Y67.138 E8.45657
G1 X72.781 Y66.435 E8.4866
G1 X73.408 Y65.785 E8.51664
G1 X74.09 Y65.193 E8.54668
G1 X74.822 Y64.663 E8.57674
G1 X75.598 Y64.201 E8.60678
G1 X76.411 Y63.809 E8.6368
G1 X77.256 Y63.49 E8.66684
G1 X78.126 Y63.247 E8.69688
G1 X79.014 Y63.083 E8.72691
G1 X80.142 Y62.988 E8.76456
G1 X80.75 Y62.975 E8.78479
G1 X127.764 Y62.978 E10.34848
G1 X128.594 Y62.989 E10.37609
G0 F6000 X128.6 Y62.589
G1 F900 X129.789 Y62.674 E10.41574
G1 X130.086 Y62.712 E10.4257
G1 X130.994 Y62.868 E10.45634
G1 X131.554 Y63.006 E10.47552
G1 X131.91 Y63.104 E10.4878
G1 X133.087 Y63.503 E10.52914
G1 X133.311 Y63.594 E10.53718
G1 X134.148 Y63.978 E10.56781
G1 X135.124 Y64.545 E10.60535
G1 X135.419 Y64.738 E10.61708
G1 X136.167 Y65.275 E10.6477
G1 X137.06 Y66.061 E10.68727
G1 X137.426 Y66.422 E10.70437
G1 X138.052 Y67.097 E10.73499
G1 X138.618 Y67.823 E10.76561
G1 X138.984 Y68.371 E10.78752
G1 X139.132 Y68.609 E10.79685
G1 X139.583 Y69.412 E10.82748
G1 X139.991 Y70.318 E10.86053
G1 X140.232 Y70.929 E10.88237
G1 X140.449 Y71.533 E10.90372
G1 X140.763 Y72.496 E10.93741
G1 X141.604 Y74.959 E11.02397
G1 X142.485 Y77.315 E11.10763
G1 X143.44 Y79.665 E11.192
G1 X144.469 Y82.005 E11.27702
G1 X145.547 Y84.281 E11.36078
G1 X146.686 Y86.517 E11.44425
G1 X147.921 Y88.781 E11.53002
G1 X148.611 Y89.987 E11.57623
G1 X148.933 Y90.593 E11.59906
G1 X149.076 Y90.885 E11.60987
G1 X149.444 Y91.729 E11.6405
G1 X149.738 Y92.601 E11.6711
G1 X149.956 Y93.496 E11.70174
G1 X150.094 Y94.406 E11.73235
G1 X150.153 Y95.299 E11.76212
G1 X150.179 Y96.525 E11.80291
G1 X150.18 Y104.111 E12.05522
G1 X150.171 Y104.753 E12.07657
G1 X150.118 Y105.672 E12.10719
G1 X150.028 Y106.347 E12.12984
G1 X149.986 Y106.599 E12.13834
G1 X149.795 Y107.499 E12.16894
G1 X149.527 Y108.38 E12.19957
G1 X149.228 Y109.136 E12.22661
G1 X148.091 Y111.712 E12.32026
G1 X147.155 Y114.005 E12.40263
G1 X146.253 Y116.407 E12.48797
G1 X145.436 Y118.779 E12.57141
G1 X144.689 Y121.172 E12.65479
G1 X143.995 Y123.634 E12.73987
G1 X143.37 Y126.119 E12.82509
G1 X142.833 Y128.55 E12.9079
G1 X142.357 Y131.027 E12.99179
G1 X141.947 Y133.543 E13.07658
G1 X141.616 Y136.018 E13.15963
G1 X141.349 Y138.557 E13.24454
G1 X141.158 Y141.057 E13.32794
G1 X141.031 Y143.666 E13.41481
G1 X140.995 Y145.032 E13.46026
G1 X140.947 Y145.799 E13.48582
G1 X140.911 Y146.162 E13.49796
G1 X140.729 Y147.332 E13.53734
G1 X140.673 Y147.594 E13.54625
G1 X140.442 Y148.485 E13.57686
G1 X140.267 Y149.006 E13.59514
G1 X140.161 Y149.297 E13.60545
G1 X139.808 Y150.148 E13.63609
G1 X139.225 Y151.231 E13.677
G1 X138.984 Y151.622 E13.69227
G1 X138.467 Y152.384 E13.7229
G1 X137.886 Y153.098 E13.75352
G1 X137.564 Y153.445 E13.76926
G1 X137.294 Y153.723 E13.78215
G1 X136.624 Y154.355 E13.81279
G1 X135.758 Y155.029 E13.84928
G1 X135.536 Y155.184 E13.85829
G1 X135.067 Y155.494 E13.87699
G1 X134.858 Y155.624 E13.88517
G1 X134.055 Y156.076 E13.91582
G1 X133.217 Y156.456 E13.94643
G1 X132.767 Y156.626 E13.96243
G1 X132.365 Y156.767 E13.9766
G1 X131.484 Y157.033 E14.0072
G1 X130.583 Y157.223 E14.03783
G1 X130.02 Y157.3 E14.05673
G1 X129.576 Y157.349 E14.07159
G1 X128.648 Y157.41 E14.10252
G1 X127.934 Y157.424 E14.12627
G1 X127.331 Y157.425 E14.14633
G1 X82.987 Y157.424 E15.62121
G1 X82.294 Y157.414 E15.64427
G1 X81.389 Y157.362 E15.67442
G1 X81.1 Y157.333 E15.68408
G1 X80.01 Y157.166 E15.72075
G1 X79.691 Y157.1 E15.73159
G1 X78.799 Y156.875 E15.76219
G1 X78.231 Y156.687 E15.78209
G1 X77.963 Y156.59 E15.79156
G1 X77.112 Y156.24 E15.82217
G1 X76.062 Y155.679 E15.86176
G1 X75.822 Y155.533 E15.87111
G1 X75.003 Y154.981 E15.90396
G1 X74.792 Y154.824 E15.91271
G1 X73.768 Y153.956 E15.95735
G1 X73.526 Y153.723 E15.96853
G1 X72.891 Y153.056 E15.99916
G1 X72.317 Y152.337 E16.02976
G1 X71.938 Y151.783 E16.05208
G1 X71.708 Y151.422 E16.06632
G1 X71.248 Y150.624 E16.09695
G1 X70.858 Y149.79 E16.12758
G1 X70.68 Y149.331 E16.14395
G1 X70.527 Y148.908 E16.15891
G1 X70.252 Y148.03 E16.18951
G1 X69.989 Y146.71 E16.23428
G1 X69.925 Y146.232 E16.25032
G1 X69.832 Y144.976 E16.29221
G1 X69.821 Y144.123 E16.32058
G1 X69.824 Y98.618 E17.83408
G1 X69.819 Y97.933 E17.85687
G1 X69.82 Y73.719 E18.66223
G1 X69.83 Y73.03 E18.68515
G1 X69.883 Y72.111 E18.71576
G1 X70.016 Y71.2 E18.74639
G1 X70.228 Y70.304 E18.77701
G1 X70.516 Y69.43 E18.80762
G1 X70.879 Y68.584 E18.83824
G1 X71.314 Y67.772 E18.86887
G1 X71.818 Y67.002 E18.89948
G1 X72.387 Y66.278 E18.93011
G1 X73.017 Y65.606 E18.96075
G1 X73.702 Y64.992 E18.99134
G1 X74.439 Y64.439 E19.02199
G1 X75.22 Y63.952 E19.0526
G1 X76.041 Y63.535 E19.08323
G1 X76.895 Y63.191 E19.11385
G1 X77.775 Y62.922 E19.14446
G1 X78.676 Y62.73 E19.1751
G1 X79.589 Y62.617 E19.20569
G1 X80.131 Y62.588 E19.22375
G1 X80.75 Y62.575 E19.24434
G1 X127.764 Y62.578 E20.80803
G1 X128.6 Y62.589 E20.83584
G0 F6000 X128.606 Y62.189
G1 F900 X129.84 Y62.277 E20.87699
G1 X130.137 Y62.315 E20.88695
G1 X131.061 Y62.474 E20.91813
G1 X131.66 Y62.621 E20.93864
G1 X132.016 Y62.719 E20.95092
G1 X133.237 Y63.133 E20.99381
G1 X133.461 Y63.224 E21.00185
G1 X134.314 Y63.614 E21.03304
G1 X135.343 Y64.21 E21.07259
G1 X135.638 Y64.403 E21.08432
G1 X136.4 Y64.949 E21.1155
G1 X137.34 Y65.777 E21.15716
G1 X137.706 Y66.138 E21.17426
G1 X138.346 Y66.824 E21.20546
G1 X138.924 Y67.562 E21.23664
G1 X139.323 Y68.16 E21.26055
G1 X139.471 Y68.398 E21.26988
G1 X139.932 Y69.215 E21.30108
G1 X140.363 Y70.171 E21.33595
G1 X140.604 Y70.782 E21.3578
G1 X140.829 Y71.409 E21.37996
G1 X141.119 Y72.3 E21.41112
G1 X141.982 Y74.827 E21.49994
G1 X142.867 Y77.191 E21.58389
G1 X143.805 Y79.502 E21.66685
G1 X144.825 Y81.822 E21.75114
G1 X145.901 Y84.093 E21.83472
G1 X147.058 Y86.366 E21.91955
G1 X148.26 Y88.569 E22.00302
G1 X148.958 Y89.788 E22.04974
G1 X149.292 Y90.417 E22.07343
G1 X149.435 Y90.709 E22.08424
G1 X149.811 Y91.568 E22.11543
G1 X150.113 Y92.456 E22.14663
G1 X150.338 Y93.367 E22.17784
G1 X150.484 Y94.293 E22.20902
G1 X150.553 Y95.289 E22.24222
G1 X150.579 Y96.525 E22.28334
G1 X150.58 Y104.116 E22.53582
G1 X150.571 Y104.758 E22.55717
G1 X150.518 Y105.695 E22.58839
G1 X150.422 Y106.412 E22.61245
G1 X150.38 Y106.664 E22.62095
G1 X150.187 Y107.582 E22.65215
G1 X149.916 Y108.48 E22.68335
G1 X149.594 Y109.297 E22.71255
G1 X148.469 Y111.845 E22.80519
G1 X147.516 Y114.18 E22.88907
G1 X146.641 Y116.509 E22.97182
G1 X145.814 Y118.913 E23.05638
G1 X145.07 Y121.295 E23.13938
G1 X144.38 Y123.743 E23.22397
G1 X143.763 Y126.197 E23.30813
G1 X143.224 Y128.633 E23.39112
G1 X142.751 Y131.102 E23.47473
G1 X142.345 Y133.589 E23.55854
G1 X142.013 Y136.076 E23.64199
G1 X141.747 Y138.596 E23.72627
G1 X141.555 Y141.105 E23.80997
G1 X141.432 Y143.652 E23.89478
G1 X141.395 Y145.043 E23.94106
G1 X141.345 Y145.839 E23.96759
G1 X141.309 Y146.202 E23.97972
G1 X141.12 Y147.415 E24.02055
G1 X141.064 Y147.677 E24.02946
G1 X140.829 Y148.585 E24.06066
G1 X140.643 Y149.143 E24.08022
G1 X140.537 Y149.434 E24.09052
G1 X140.178 Y150.301 E24.12173
G1 X139.565 Y151.441 E24.16478
G1 X139.324 Y151.832 E24.18006
G1 X138.798 Y152.608 E24.21124
G1 X138.208 Y153.338 E24.24246
G1 X137.851 Y153.724 E24.25995
G1 X137.581 Y154.002 E24.27284
G1 X136.899 Y154.646 E24.30403
G1 X135.987 Y155.357 E24.3425
G1 X135.765 Y155.512 E24.3515
G1 X135.278 Y155.834 E24.37092
G1 X135.069 Y155.964 E24.37911
G1 X134.252 Y156.424 E24.41029
G1 X133.399 Y156.814 E24.44149
G1 X132.9 Y157.003 E24.45923
G1 X132.498 Y157.144 E24.4734
G1 X131.6 Y157.416 E24.50461
G1 X130.683 Y157.611 E24.53579
G1 X130.064 Y157.698 E24.55658
G1 X129.62 Y157.747 E24.57144
G1 X128.656 Y157.81 E24.60357
G1 X127.934 Y157.824 E24.62759
G1 X127.331 Y157.825 E24.64765
G1 X82.981 Y157.824 E26.12273
G1 X82.288 Y157.814 E26.14578
G1 X81.349 Y157.76 E26.17707
G1 X81.06 Y157.731 E26.18673
G1 X79.929 Y157.558 E26.22478
G1 X79.61 Y157.492 E26.23562
G1 X78.701 Y157.263 E26.2668
G1 X78.095 Y157.063 E26.28802
G1 X77.827 Y156.966 E26.2975
G1 X76.96 Y156.61 E26.32867
G1 X75.854 Y156.021 E26.37035
G1 X75.614 Y155.875 E26.37969
G1 X74.765 Y155.302 E26.41376
G1 X74.554 Y155.145 E26.42251
G1 X73.491 Y154.244 E26.46885
G1 X73.249 Y154.011 E26.48003
G1 X72.601 Y153.332 E26.51125
G1 X72.014 Y152.601 E26.54243
G1 X71.601 Y151.998 E26.56674
G1 X71.371 Y151.637 E26.58097
G1 X70.901 Y150.825 E26.61218
G1 X70.502 Y149.976 E26.64338
G1 X70.304 Y149.467 E26.66154
G1 X70.151 Y149.044 E26.67651
G1 X69.87 Y148.15 E26.70767
G1 X69.666 Y147.234 E26.73889
G1 X69.592 Y146.763 E26.75474
G1 X69.528 Y146.285 E26.77078
G1 X69.432 Y144.982 E26.81424
G1 X69.421 Y144.123 E26.84281
G1 X69.424 Y98.621 E28.35622
G1 X69.419 Y97.936 E28.379
G1 X69.42 Y73.713 E29.18466
G1 X69.43 Y73.024 E29.20758
G1 X69.484 Y72.088 E29.23876
G1 X69.617 Y71.16 E29.26994
G1 X69.829 Y70.246 E29.30115
G1 X70.117 Y69.354 E29.33233
G1 X70.481 Y68.489 E29.36354
G1 X70.917 Y67.659 E29.39472
G1 X71.422 Y66.869 E29.42591
G1 X71.993 Y66.125 E29.4571
G1 X72.625 Y65.432 E29.4883
G1 X73.314 Y64.795 E29.5195
G1 X74.054 Y64.219 E29.55069
G1 X74.841 Y63.709 E29.58189
G1 X75.669 Y63.267 E29.6131
G1 X76.531 Y62.898 E29.64429
G1 X77.421 Y62.603 E29.67548
G1 X78.333 Y62.385 E29.70666
G1 X79.261 Y62.246 E29.73787
G1 X80.12 Y62.188 E29.76651
G1 X80.75 Y62.175 E29.78747
G1 X127.764 Y62.178 E31.35116
G1 X128.606 Y62.189 E31.37917
G1 F1500 E25.37917
G0 F6000 X118.08 Y80.932
G0 X118.08 Y98.332
G0 X117.576 Y98.836
G0 X92.636 Y104.35
G0 X93.348 Y105.581
G0 X93.179 Y109.876
G0 X92.564 Y110.934
G0 X84.225 Y114.21
G0 X84.225 Y114.645
G1 F1500 E31.37917
G1 F900 X84.369 Y114.635 E31.38397
G1 X84.907 Y114.516 E31.40229
G1 X85.171 Y114.416 E31.41168
G1 X85.333 Y114.483 E31.41751
G1 X85.867 Y114.617 E31.43583
G1 X86.527 Y114.675 E31.45786
G1 X88.263 Y114.675 E31.5156
G1 X88.813 Y114.635 E31.53394
G1 X89.351 Y114.516 E31.55227
G1 X89.866 Y114.32 E31.5706
G1 X90.171 Y114.161 E31.58204
G1 X90.329 Y114.069 E31.58812
G1 X90.446 Y114.075 E31.59201
G1 X92.185 Y114.075 E31.64985
G1 X92.735 Y114.035 E31.6682
G1 X93.273 Y113.916 E31.68652
G1 X93.356 Y113.884 E31.68948
G1 X93.893 Y114.019 E31.7079
G1 X94.545 Y114.075 E31.72966
G1 X96.281 Y114.075 E31.7874
G1 X96.831 Y114.035 E31.80574
G1 X97.369 Y113.916 E31.82407
G1 X97.884 Y113.72 E31.8424
G1 X98.189 Y113.561 E31.85384
G1 X98.347 Y113.469 E31.85992
G1 X98.464 Y113.475 E31.86381
G1 X100.202 Y113.475 E31.92162
G1 X100.752 Y113.435 E31.93996
G1 X101.218 Y113.332 E31.95584
G1 X101.559 Y113.418 E31.96753
G1 X102.216 Y113.475 E31.98947
G1 X103.952 Y113.475 E32.04721
G1 X104.502 Y113.435 E32.06555
G1 X105.04 Y113.316 E32.08387
G1 X105.555 Y113.12 E32.1022
G1 X105.838 Y112.972 E32.11282
G1 X105.905 Y112.975 E32.11505
G1 X107.638 Y112.97 E32.17269
G1 X108.187 Y112.928 E32.19101
G1 X108.49 Y112.86 E32.20134
G1 X108.679 Y112.909 E32.20783
G1 X109.35 Y112.969 E32.23024
G1 X111.017 Y112.975 E32.28568
G1 X111.567 Y112.945 E32.304
G1 X112.107 Y112.836 E32.32232
