;FLAVOR:Marlin
;TIME:403
;Filament used: 0.241753m
;Layer height: 0.2
;MINX:19
;MINY:19
;MINZ:0.2
;MAXX:201
;MAXY:201
;MAXZ:0.2
;Generated with Cura_SteamEngine 4.6.1
M82 ;absolute extrusion mode
; Ender 3 Custom Start G-code
M140 S60 ; start heating the bed to what is set in Cura
M104 S200 T0 ; start heating T0 to what is set in Cura
G92 E0 ; Reset Extruder
G28 ; Home all axes
G29 ; Auto Level
;Wait until everything is hot
M190 S60
M109 S200 T0
G1 Z2.0 F3000 ; Move Z Axis up little to prevent scratching of Heat Bed
G1 X0.1 Y20 Z0.3 F5000.0 ; Move to start position
G1 X0.1 Y200.0 Z0.3 F1500.0 E15 ; Draw the first line
G1 X0.4 Y200.0 Z0.3 F5000.0 ; Move to side a little
G1 X0.4 Y20 Z0.3 F1500.0 E30 ; Draw the second line
G92 E0 ; Reset Extruder
G1 Z2.0 F3000 ; Move Z Axis up little to prevent scratching of Heat Bed
G1 X5 Y20 Z0.3 F5000.0 ; Move over to prevent blob squish
G92 E0
G92 E0
G1 F1500 E-6
;LAYER_COUNT:1
;LAYER:0
M117 INDICATOR-Layer0
M107
G0 F6000 X50.139 Y19.811 Z0.2
;TYPE:SKIRT
G1 F1500 E0
G1 F1200 X51.041 Y19.864 E0.03005
G1 X51.934 Y19.996 E0.06008
G1 X52.813 Y20.207 E0.09014
G1 X53.669 Y20.495 E0.12018
G1 X54.496 Y20.857 E0.15021
G1 X55.288 Y21.291 E0.18025
G1 X56.036 Y21.792 E0.21019
G1 X56.567 Y22.183 E0.23212
G1 X58.692 Y23.707 E0.3191
G1 X60.815 Y25.141 E0.40431
G1 X62.938 Y26.489 E0.48795
G1 X65.146 Y27.803 E0.57341
G1 X67.33 Y29.023 E0.65661
G1 X69.612 Y30.213 E0.74221
G1 X71.891 Y31.321 E0.8265
G1 X74.195 Y32.362 E0.91059
G1 X76.527 Y33.337 E0.99466
G1 X78.926 Y34.262 E1.08017
G1 X81.307 Y35.101 E1.16414
G1 X83.725 Y35.877 E1.2486
G1 X86.163 Y36.587 E1.33306
G1 X88.633 Y37.229 E1.41794
G1 X91.094 Y37.795 E1.50193
G1 X93.595 Y38.298 E1.58678
G1 X96.1 Y38.726 E1.6713
G1 X98.603 Y39.082 E1.75539
G1 X101.11 Y39.367 E1.83931
G1 X103.663 Y39.583 E1.92453
G1 X106.203 Y39.727 E2.00914
G1 X108.737 Y39.799 E2.09346
G1 X111.27 Y39.799 E2.17771
G1 X113.803 Y39.727 E2.26199
G1 X116.364 Y39.582 E2.3473
G1 X118.871 Y39.369 E2.43099
G1 X121.403 Y39.081 E2.51575
G1 X123.925 Y38.722 E2.60047
G1 X126.419 Y38.294 E2.68464
G1 X128.876 Y37.802 E2.76798
G1 X131.396 Y37.222 E2.85399
G1 X133.846 Y36.584 E2.93819
G1 X136.264 Y35.881 E3.02194
G1 X138.695 Y35.099 E3.10688
G1 X141.091 Y34.253 E3.19139
G1 X143.452 Y33.343 E3.27555
G1 X145.795 Y32.364 E3.36001
G1 X148.14 Y31.305 E3.44559
G1 X150.393 Y30.209 E3.52892
G1 X152.668 Y29.023 E3.61425
G1 X154.889 Y27.783 E3.69886
G1 X157.049 Y26.495 E3.7825
G1 X159.184 Y25.14 E3.8666
G1 X161.318 Y23.699 E3.95225
G1 X163.394 Y22.21 E4.03722
G1 X163.843 Y21.876 E4.05583
G1 X164.068 Y21.715 E4.06503
G1 X164.825 Y21.222 E4.09508
G1 X165.623 Y20.799 E4.12512
G1 X166.455 Y20.447 E4.15517
G1 X167.315 Y20.171 E4.18521
G1 X168.196 Y19.972 E4.21525
G1 X169.091 Y19.851 E4.24529
G1 X169.691 Y19.815 E4.26528
G1 X170.33 Y19.8 E4.28654
G1 X189.425 Y19.801 E4.92164
G1 X190.123 Y19.81 E4.94486
G1 X191.024 Y19.861 E4.97487
G1 X191.918 Y19.993 E5.00493
G1 X192.796 Y20.202 E5.03495
G1 X193.653 Y20.489 E5.06501
G1 X194.48 Y20.85 E5.09502
G1 X195.273 Y21.283 E5.12507
G1 X196.024 Y21.784 E5.1551
G1 X196.728 Y22.35 E5.18514
G1 X197.379 Y22.976 E5.21518
G1 X197.972 Y23.657 E5.24522
G1 X198.502 Y24.388 E5.27525
G1 X198.966 Y25.163 E5.30529
G1 X199.36 Y25.976 E5.33534
G1 X199.68 Y26.82 E5.36536
G1 X199.924 Y27.69 E5.39541
G1 X200.09 Y28.578 E5.42546
G1 X200.187 Y29.723 E5.46368
G1 X200.2 Y30.33 E5.48387
G1 X200.199 Y49.416 E6.11868
G1 X200.189 Y50.133 E6.14253
G1 X200.136 Y51.035 E6.17258
G1 X200.004 Y51.928 E6.2026
G1 X199.794 Y52.806 E6.23263
G1 X199.506 Y53.663 E6.2627
G1 X199.144 Y54.49 E6.29272
G1 X198.71 Y55.282 E6.32276
G1 X198.223 Y56.013 E6.35198
G1 X197.798 Y56.594 E6.37592
G1 X196.275 Y58.716 E6.46279
G1 X194.88 Y60.783 E6.54573
G1 X193.506 Y62.947 E6.63099
G1 X192.197 Y65.146 E6.71611
G1 X190.977 Y67.33 E6.79931
G1 X189.787 Y69.612 E6.88491
G1 X188.679 Y71.891 E6.9692
G1 X187.638 Y74.195 E7.05329
G1 X186.663 Y76.527 E7.13736
G1 X185.738 Y78.926 E7.22287
G1 X184.899 Y81.307 E7.30684
G1 X184.123 Y83.725 E7.3913
G1 X183.413 Y86.163 E7.47576
G1 X182.771 Y88.633 E7.56064
G1 X182.205 Y91.094 E7.64463
G1 X181.702 Y93.595 E7.72948
G1 X181.274 Y96.1 E7.814
G1 X180.918 Y98.603 E7.89809
G1 X180.633 Y101.11 E7.98201
G1 X180.417 Y103.663 E8.06723
G1 X180.273 Y106.203 E8.15184
G1 X180.201 Y108.737 E8.23616
G1 X180.201 Y111.27 E8.32041
G1 X180.273 Y113.804 E8.40472
G1 X180.418 Y116.364 E8.49001
G1 X180.631 Y118.871 E8.57369
G1 X180.919 Y121.403 E8.65845
G1 X181.278 Y123.925 E8.74317
G1 X181.706 Y126.419 E8.82734
G1 X182.198 Y128.876 E8.91068
G1 X182.778 Y131.396 E8.99669
G1 X183.416 Y133.846 E9.08089
G1 X184.119 Y136.264 E9.16465
G1 X184.901 Y138.695 E9.24958
G1 X185.747 Y141.091 E9.33409
G1 X186.657 Y143.452 E9.41825
G1 X187.636 Y145.795 E9.50271
G1 X188.695 Y148.14 E9.58829
G1 X189.792 Y150.395 E9.6717
G1 X190.982 Y152.678 E9.75732
G1 X192.21 Y154.877 E9.84109
G1 X193.505 Y157.049 E9.9252
G1 X194.871 Y159.201 E10.00998
G1 X196.293 Y161.307 E10.0945
G1 X197.776 Y163.375 E10.17914
G1 X198.261 Y164.033 E10.20633
G1 X198.756 Y164.788 E10.23635
G1 X199.183 Y165.584 E10.2664
G1 X199.537 Y166.415 E10.29644
G1 X199.817 Y167.274 E10.32649
G1 X200.02 Y168.154 E10.35653
G1 X200.144 Y169.048 E10.38655
G1 X200.181 Y169.629 E10.40591
G1 X200.193 Y169.959 E10.41689
G1 X200.2 Y170.33 E10.42923
G1 X200.199 Y189.404 E11.06364
G1 X200.189 Y190.131 E11.08782
G1 X200.137 Y191.033 E11.11787
G1 X200.005 Y191.926 E11.14789
G1 X199.794 Y192.805 E11.17796
G1 X199.507 Y193.661 E11.20799
G1 X199.145 Y194.488 E11.23801
G1 X198.711 Y195.28 E11.26805
G1 X198.209 Y196.031 E11.2981
G1 X197.643 Y196.734 E11.32812
G1 X197.016 Y197.385 E11.35818
G1 X196.335 Y197.977 E11.38819
G1 X195.604 Y198.507 E11.41822
G1 X194.828 Y198.97 E11.44828
G1 X194.015 Y199.363 E11.47831
G1 X193.17 Y199.683 E11.50836
G1 X192.301 Y199.926 E11.53837
G1 X191.413 Y200.091 E11.56841
G1 X190.277 Y200.187 E11.60633
G1 X189.67 Y200.2 E11.62653
G1 X170.561 Y200.199 E12.26209
G1 X169.863 Y200.189 E12.28531
G1 X168.961 Y200.136 E12.31536
G1 X168.068 Y200.004 E12.34539
G1 X167.19 Y199.793 E12.37542
G1 X166.334 Y199.505 E12.40546
G1 X165.507 Y199.143 E12.43549
G1 X164.715 Y198.708 E12.46554
G1 X163.984 Y198.221 E12.49476
G1 X163.402 Y197.795 E12.51874
G1 X161.291 Y196.28 E12.60517
G1 X159.202 Y194.87 E12.68899
G1 X157.062 Y193.511 E12.77331
G1 X154.854 Y192.197 E12.85877
G1 X152.67 Y190.977 E12.94197
G1 X150.388 Y189.787 E13.02757
G1 X148.109 Y188.679 E13.11186
G1 X145.805 Y187.638 E13.19595
G1 X143.469 Y186.661 E13.28016
G1 X141.05 Y185.73 E13.36637
G1 X138.721 Y184.908 E13.44852
G1 X136.275 Y184.123 E13.53396
G1 X133.837 Y183.413 E13.61842
G1 X131.367 Y182.771 E13.7033
G1 X128.906 Y182.205 E13.78729
G1 X126.405 Y181.702 E13.87214
G1 X123.9 Y181.274 E13.95666
G1 X121.397 Y180.918 E14.04075
G1 X118.89 Y180.633 E14.12467
G1 X116.337 Y180.417 E14.20989
G1 X113.797 Y180.273 E14.2945
G1 X111.263 Y180.201 E14.37882
G1 X108.73 Y180.201 E14.46307
G1 X106.197 Y180.273 E14.54735
G1 X103.636 Y180.418 E14.63266
G1 X101.129 Y180.631 E14.71635
G1 X98.597 Y180.919 E14.80111
G1 X96.075 Y181.278 E14.88583
G1 X93.581 Y181.706 E14.97
G1 X91.124 Y182.198 E15.05334
G1 X88.604 Y182.778 E15.13935
G1 X86.154 Y183.416 E15.22355
G1 X83.736 Y184.119 E15.3073
G1 X81.305 Y184.901 E15.39224
G1 X78.909 Y185.747 E15.47675
G1 X76.548 Y186.657 E15.56091
G1 X74.205 Y187.636 E15.64537
G1 X71.86 Y188.695 E15.73095
G1 X69.607 Y189.791 E15.81428
G1 X67.332 Y190.977 E15.89961
G1 X65.111 Y192.217 E15.98422
G1 X62.951 Y193.505 E16.06786
G1 X60.816 Y194.86 E16.15196
G1 X58.682 Y196.301 E16.23761
G1 X56.604 Y197.791 E16.32265
G1 X56.172 Y198.113 E16.34057
G1 X55.942 Y198.278 E16.34999
G1 X55.185 Y198.771 E16.38004
G1 X54.388 Y199.196 E16.41008
G1 X53.557 Y199.548 E16.44009
G1 X52.697 Y199.826 E16.47015
G1 X51.817 Y200.026 E16.50017
G1 X50.922 Y200.148 E16.53021
G1 X50.309 Y200.185 E16.55064
G1 X49.67 Y200.2 E16.5719
G1 X30.575 Y200.199 E17.207
G1 X29.877 Y200.19 E17.23022
G1 X28.976 Y200.139 E17.26023
G1 X28.082 Y200.007 E17.29029
G1 X27.204 Y199.798 E17.32031
G1 X26.347 Y199.511 E17.35037
G1 X25.52 Y199.15 E17.38038
G1 X24.727 Y198.717 E17.41043
G1 X23.976 Y198.216 E17.44046
G1 X23.272 Y197.65 E17.4705
G1 X22.621 Y197.024 E17.50054
G1 X22.028 Y196.343 E17.53058
G1 X21.498 Y195.612 E17.56061
G1 X21.034 Y194.837 E17.59065
G1 X20.64 Y194.024 E17.6207
G1 X20.32 Y193.18 E17.65072
G1 X20.076 Y192.31 E17.68077
G1 X19.91 Y191.422 E17.71082
G1 X19.813 Y190.267 E17.74937
G1 X19.8 Y189.658 E17.76963
G1 X19.801 Y170.562 E18.40477
G1 X19.811 Y169.86 E18.42812
G1 X19.864 Y168.958 E18.45817
G1 X19.996 Y168.065 E18.48819
G1 X20.207 Y167.187 E18.51823
G1 X20.495 Y166.331 E18.54827
G1 X20.857 Y165.503 E18.57832
G1 X21.291 Y164.711 E18.60836
G1 X21.799 Y163.953 E18.63871
G1 X22.2 Y163.409 E18.66119
G1 X23.708 Y161.307 E18.74723
G1 X25.136 Y159.193 E18.83208
G1 X26.494 Y157.053 E18.91638
G1 X27.803 Y154.854 E19.0015
G1 X29.023 Y152.67 E19.0847
G1 X30.213 Y150.388 E19.1703
G1 X31.321 Y148.109 E19.25458
G1 X32.362 Y145.805 E19.33867
G1 X33.339 Y143.469 E19.42289
G1 X34.27 Y141.05 E19.5091
G1 X35.092 Y138.721 E19.59125
G1 X35.877 Y136.275 E19.67669
G1 X36.593 Y133.814 E19.76194
G1 X37.229 Y131.367 E19.84603
G1 X37.795 Y128.906 E19.93002
G1 X38.298 Y126.405 E20.01487
G1 X38.726 Y123.9 E20.09939
G1 X39.082 Y121.397 E20.18348
G1 X39.367 Y118.89 E20.2674
G1 X39.583 Y116.337 E20.35261
G1 X39.727 Y113.797 E20.43723
G1 X39.799 Y111.263 E20.52155
G1 X39.799 Y108.73 E20.60579
G1 X39.727 Y106.196 E20.69011
G1 X39.582 Y103.633 E20.77549
G1 X39.369 Y101.135 E20.85888
G1 X39.08 Y98.588 E20.94413
G1 X38.723 Y96.079 E21.02842
G1 X38.294 Y93.581 E21.11272
G1 X37.802 Y91.124 E21.19607
G1 X37.222 Y88.604 E21.28207
G1 X36.584 Y86.154 E21.36628
G1 X35.878 Y83.725 E21.45041
G1 X35.096 Y81.294 E21.53535
G1 X34.261 Y78.93 E21.61873
G1 X33.343 Y76.548 E21.70364
G1 X32.353 Y74.177 E21.7891
G1 X31.317 Y71.884 E21.87279
G1 X30.21 Y69.608 E21.95697
G1 X29.023 Y67.332 E22.04234
G1 X27.783 Y65.111 E22.12695
G1 X26.495 Y62.951 E22.21059
G1 X25.14 Y60.816 E22.2947
G1 X23.699 Y58.682 E22.38034
G1 X22.209 Y56.604 E22.46538
G1 X21.887 Y56.172 E22.48331
G1 X21.722 Y55.942 E22.49272
G1 X21.229 Y55.185 E22.52277
G1 X20.804 Y54.388 E22.55281
G1 X20.452 Y53.557 E22.58282
G1 X20.174 Y52.697 E22.61289
G1 X19.974 Y51.817 E22.6429
G1 X19.852 Y50.922 E22.67294
G1 X19.815 Y50.309 E22.69337
G1 X19.8 Y49.67 E22.71463
G1 X19.801 Y30.536 E23.35103
G1 X19.81 Y29.871 E23.37315
G1 X19.862 Y28.969 E23.4032
G1 X19.994 Y28.076 E23.43322
G1 X20.204 Y27.198 E23.46325
G1 X20.491 Y26.341 E23.49331
G1 X20.853 Y25.514 E23.52333
G1 X21.286 Y24.722 E23.55336
G1 X21.788 Y23.971 E23.5834
G1 X22.355 Y23.267 E23.61347
G1 X22.981 Y22.617 E23.64348
G1 X23.662 Y22.024 E23.67352
G1 X24.394 Y21.494 E23.70357
G1 X25.169 Y21.031 E23.7336
G1 X25.982 Y20.638 E23.76363
G1 X26.827 Y20.318 E23.79369
G1 X27.696 Y20.075 E23.8237
G1 X28.584 Y19.909 E23.85374
G1 X29.723 Y19.813 E23.89176
G1 X30.33 Y19.8 E23.91196
G1 X49.438 Y19.801 E24.54749
G1 X50.139 Y19.811 E24.57081
G0 F6000 X50.145 Y19.411
G1 F1200 X51.064 Y19.464 E24.60143
G1 X51.975 Y19.597 E24.63205
G1 X52.871 Y19.808 E24.66266
G1 X53.746 Y20.096 E24.6933
G1 X54.592 Y20.459 E24.72392
G1 X55.403 Y20.894 E24.75453
G1 X56.273 Y21.47 E24.78923
G1 X56.797 Y21.855 E24.81086
G1 X58.943 Y23.395 E24.89871
G1 X61.001 Y24.785 E24.98131
G1 X63.136 Y26.14 E25.06542
G1 X65.367 Y27.469 E25.15179
G1 X67.504 Y28.662 E25.23319
G1 X69.793 Y29.856 E25.31906
G1 X72.052 Y30.955 E25.40261
G1 X74.378 Y32.005 E25.48749
G1 X76.677 Y32.966 E25.57037
G1 X79.066 Y33.888 E25.65554
G1 X81.415 Y34.715 E25.73837
G1 X83.854 Y35.498 E25.82357
G1 X86.27 Y36.201 E25.90726
G1 X88.726 Y36.84 E25.99166
G1 X91.184 Y37.406 E26.07556
G1 X93.67 Y37.905 E26.15989
G1 X96.158 Y38.33 E26.24384
G1 X98.668 Y38.688 E26.32817
G1 X101.153 Y38.97 E26.41135
G1 X103.684 Y39.184 E26.49583
G1 X106.203 Y39.327 E26.57975
G1 X108.748 Y39.399 E26.66443
G1 X111.258 Y39.399 E26.74791
G1 X113.804 Y39.327 E26.83263
G1 X116.308 Y39.185 E26.91604
G1 X118.863 Y38.967 E27.00133
G1 X121.338 Y38.687 E27.08418
G1 X123.838 Y38.33 E27.16817
G1 X126.38 Y37.895 E27.25395
G1 X128.773 Y37.415 E27.33512
G1 X131.31 Y36.831 E27.42171
G1 X133.738 Y36.199 E27.50516
G1 X136.145 Y35.499 E27.58853
G1 X138.576 Y34.717 E27.67347
G1 X140.951 Y33.878 E27.75724
G1 X143.302 Y32.972 E27.84104
G1 X145.656 Y31.989 E27.92589
G1 X147.937 Y30.959 E28.00913
G1 X150.212 Y29.852 E28.09328
G1 X152.495 Y28.662 E28.17891
G1 X154.669 Y27.448 E28.26173
G1 X156.851 Y26.146 E28.34624
G1 X158.997 Y24.785 E28.43076
G1 X161.067 Y23.387 E28.51384
G1 X163.153 Y21.891 E28.59922
G1 X163.836 Y21.39 E28.62739
G1 X164.607 Y20.887 E28.65801
G1 X165.419 Y20.453 E28.68863
G1 X166.265 Y20.091 E28.71924
G1 X167.14 Y19.804 E28.74987
G1 X168.037 Y19.594 E28.78051
G1 X168.948 Y19.463 E28.81112
G1 X169.679 Y19.415 E28.83548
G1 X170.33 Y19.4 E28.85714
G1 X189.43 Y19.401 E29.49241
G1 X190.128 Y19.41 E29.51563
G1 X191.047 Y19.462 E29.54624
G1 X191.958 Y19.593 E29.57686
G1 X192.854 Y19.803 E29.60746
G1 X193.729 Y20.09 E29.63809
G1 X194.576 Y20.452 E29.66873
G1 X195.388 Y20.886 E29.69935
G1 X196.159 Y21.388 E29.72995
G1 X196.884 Y21.956 E29.76058
G1 X197.557 Y22.585 E29.79122
G1 X198.172 Y23.269 E29.82182
G1 X198.726 Y24.004 E29.85243
G1 X199.214 Y24.785 E29.88306
G1 X199.633 Y25.605 E29.91369
G1 X199.979 Y26.458 E29.9443
G1 X200.249 Y27.338 E29.97492
G1 X200.442 Y28.239 E30.00557
G1 X200.556 Y29.152 E30.03617
G1 X200.587 Y29.712 E30.05482
G1 X200.6 Y30.33 E30.07538
G1 X200.599 Y49.422 E30.71038
G1 X200.589 Y50.139 E30.73423
G1 X200.536 Y51.058 E30.76485
G1 X200.404 Y51.969 E30.79547
G1 X200.193 Y52.865 E30.82608
G1 X199.905 Y53.74 E30.85672
G1 X199.542 Y54.586 E30.88734
G1 X199.108 Y55.397 E30.91793
G1 X198.545 Y56.249 E30.9519
G1 X198.177 Y56.752 E30.97263
G1 X196.616 Y58.928 E31.0617
G1 X195.206 Y61.015 E31.14547
G1 X193.854 Y63.144 E31.22935
G1 X192.531 Y65.367 E31.31539
G1 X191.338 Y67.504 E31.3968
G1 X190.144 Y69.793 E31.48266
G1 X189.045 Y72.052 E31.56622
G1 X187.995 Y74.378 E31.6511
G1 X187.034 Y76.677 E31.73398
G1 X186.112 Y79.066 E31.81915
G1 X185.285 Y81.415 E31.90197
G1 X184.502 Y83.854 E31.98717
G1 X183.799 Y86.27 E32.07086
G1 X183.16 Y88.726 E32.15527
G1 X182.594 Y91.184 E32.23916
G1 X182.095 Y93.67 E32.3235
G1 X181.67 Y96.158 E32.40745
G1 X181.312 Y98.668 E32.49177
G1 X181.03 Y101.153 E32.57496
G1 X180.816 Y103.684 E32.65944
G1 X180.673 Y106.203 E32.74335
G1 X180.601 Y108.748 E32.82804
G1 X180.601 Y111.258 E32.91152
G1 X180.673 Y113.805 E32.99627
G1 X180.815 Y116.308 E33.07965
G1 X181.033 Y118.863 E33.16494
G1 X181.313 Y121.338 E33.24778
G1 X181.67 Y123.838 E33.33178
G1 X182.105 Y126.38 E33.41755
G1 X182.585 Y128.773 E33.49873
G1 X183.169 Y131.31 E33.58532
G1 X183.801 Y133.738 E33.66876
G1 X184.501 Y136.145 E33.75214
G1 X185.283 Y138.576 E33.83707
G1 X186.122 Y140.951 E33.92085
G1 X187.028 Y143.302 E34.00465
G1 X188.011 Y145.656 E34.0895
G1 X189.041 Y147.937 E34.17274
G1 X190.162 Y150.243 E34.25802
G1 X191.312 Y152.447 E34.3407
G1 X192.56 Y154.683 E34.42587
G1 X193.854 Y156.851 E34.50985
G1 X195.197 Y158.969 E34.59326
G1 X196.634 Y161.096 E34.67864
G1 X198.098 Y163.138 E34.76221
G1 X198.585 Y163.799 E34.78951
G1 X199.091 Y164.569 E34.82016
G1 X199.528 Y165.379 E34.85077
G1 X199.893 Y166.224 E34.88139
G1 X200.183 Y167.098 E34.91201
G1 X200.396 Y167.994 E34.94264
G1 X200.531 Y168.904 E34.97324
G1 X200.581 Y169.615 E34.99695
G1 X200.593 Y169.945 E35.00793
G1 X200.6 Y170.33 E35.02074
G1 X200.599 Y189.41 E35.65534
